
$UNKNOWN_0xA0, $FM1,

!ALL

$Inst1,
$Inst2,
$Inst3,
$Inst4,
$Inst5,
$Inst6,
$Inst7,
$Inst8,
$Inst9,
$Inst10,
$Inst11,
$Inst12,
$Inst13,
$Inst14,
$Inst15,
$Inst16,
$Inst17,
$Inst18,
$Inst19,
$Inst20,
$Inst21,
$Inst22,
$Inst23,
$Inst24,
$Inst25,
$Inst26,

$$ALL
  [D+5 D+5 D+5 r r r r r r r r r r r r r r r r G8V99 C8V116 D8V115 F+5V2 C0 C0V6 F+0 rV7 G0 rV9 G+0 rV10 A+0 rV11 B0 rV13 A2 rV57 A+4 rV59 B4 rV62 D+5 rV65 E5 rV67 G5 rV70 A5 rV72 C6 rV74 D6 rV76 D+6 rV77 E6 rV78 G6 rV80 G+6 rV81 A6 rV82 A+6]
  [D+5 D+5 D+5 r r r r r r r r r r r r r r r r C8V101 C10V82 F9 r r G17 rV106 D+0 rV242 F+13 rV149 E4 rV213 D+6 rV41 C19 r A8 rV132 G+20 rV32 A18 rV243 E19 rV31 F9 rV111 G+16 rV170 D+0 rV195 A+14 rV61 A+9 rV39 C6 rV91 B12 rV208 r rV132 A13 rV131 C21 rV49]

$$ALL
  [rV83 B6 rV85 C7 rV86 C+7 rV88 D+7 rV89 F7 rV90 F+7 rV92 G7 rV92 G+7 rV3 F+0V5 C0V1 F0V5 G0V6 r C+0V2 r D0V3 D0V3 C+0V2 D+0V4 r D+0V4 D+0V4 E0V4 A0V12 r G0V9 A+0V13 r E0V7 r F0V7 A+0V9 C+0V2 A0V8 r E0V6 G0V5 r D0V2 C0V1 C0V3 D0V3 r r r r r C0 C+0V1 r G2V101 E8V116 G8V110 r r]
  [A6 rV87 C+13 rV104 D+13 rV138 D16 rV32 A+17 rV29 G+20 rV68 E8 rV145 E0 C0V1 F0V5 G0V6 rV3 F+0V5 r C+0V2 C+0V2 C0V1 D0V3 r D+0V4 D+0V4 C+0V2 D+0V4 r G0V9 A+0V13 E0V4 A0V12 r D0V4 F0V9 C+0V2 A0V8 r F0V7 A+0V9 C+0V2 F+0V6 r C+0V2 D+0V2 D0V2 D0V3 r r r r rV63 rV1 C0 r rV101 F+9V115 D+8V100 B8V51 rV128 r]

$$ALL
  [D5 r r r r r r r r rV255 r rV255 r rV255 r rV255 r rV255 r rV255 r rV255 C0V2 F0V6 A+7 rV65 C0 D0V5 C1V15 A+1V25 r r rV73 D18 F+9V114 rV65 rV1 F6V50 rV65 D+8V104 F+9V70 C7V31 G1 D+5 rV76 E0V1 r rV97 G+5V73 D18V4 C8V101 rV78 F6V50 rV65 rV77 E2V11 F+0V255 r rV68 B15V69 rV219 A+6V117 A5V36 F+2]
  [r rV1 C0V16 D+1V4 F0V16 D+1V9 A+0V16 D+1V14 rV208 D+17V3 E0V208 D+17V8 A0V208 D+17V13 D1V208 G18V2 D+0V224 G18V7 G+0V224 G18V12 C+1V224 rV1 F0V6 F0V6 F0 A6 C+2 G0V11 F1V20 C6V4 E5V73 r C+4 E5 E8V116 G0 C1V69 rV219 E8V116 C+5V98 rV71 r rV12 B0V9 rV32 C6V83 D+0V78 G5V117 C+4 E5 E6 rV69 rV219 G6V117 D+20 rV56 C+4V31 F+2V80 rV5 F6V50 rV65 E8V100 A+5V32 rV36]

$$ALL
  [D+5 rV50 D+6V7 C0V78 r C8V97 B2V244 F5 rV104 F4V31 F+0 F6V78 r C8V101 E6 A+0V101 r rV8 G5 G+5V73 D18V1 D9V116 B2V244 D+5 rV50 D4V20 F+0 F6V78 r C8V32 r D+0 rV11 G0 r C0V255 G6V192 C+6 C1V70 C+9V108 D+5 rV127 A+0 rV4 G2V80 A+6V71 F6V10 F+6V116 rV18 C8V20 G1 D+5 E0V5 C+4 E5 G8V80 E6 G0V32 G2 r G5 G+5V73 D18V1 B8V72]
  [r rV255 G2V80 A+6V70 F6V9 F+9 G2V27 G0V14 G0V42 A4 G6V192 C6 B0V83 G+9V107 rV52 G4V20 F+2 G6 E0V5 C+4 E5 G9 rV23 G+1 rV4 D+0 G6V192 D7 A0V70 G8V70 G1V20 G1 D+5 rV77 r F+0 F6V78 r C8V32 A5V36 G1 D+5 rV49 D+6V7 C0V78 r B8V97 E6 rV4 D+0 rV11 G5 G+5V73 D18V1 A+9V111 D9V116 C0V49 B3V24 B1V68 G5 E0V5 C+4 E5 C+9V70]

$$ALL
  [rV87 G+0 r F+10V13 rV32 C6V83 C0V78 G9V66 rV4 C+14 rV37 F+0V8 rV32 C6V83 C0V78 F+9V66 rV71 r r rV9 rV32 C6V83 D+0V78 A+6V4 C0 r rV114 E6 rV69 rV219 E8V116 C+5V98 rV119 r rV127 rV11 rV32 C6V83 rV78 rV65 rV1 F6V50 rV65 E8V114 D+20 rV49 C4V31 F+2 rV5 F6V50 rV65 F+9V97 E6 C+1V255 r r G5 G+5V73 D18 G+8V101 rV255 D+0 r rV3]
  [C4V14 E6V68 G5 rV76 E0V1 r rV110 F+9V70 F+4V31 F+2 D+5 rV76 E0V1 r rV115 B8V70 D+0V31 F+2 D+5 rV76 E0V1 r rV111 rV31 C6V83 D+0V78 D8V33 rV78 F6V50 rV65 D+8V104 F+9V70 C7V31 F+2 D+5 rV76 E0V1 r rV104 G0V2 C+0V69 rV219 A5V115 rV77 D+1V24 D+0V177 r rV68 B15V69 rV219 A5V34 A2V34 rV85 G+6V31 F+2 D+5 E0V5 C+4 E5 E5 D0V1 r C0V255 F6V78]

$$ALL
  [F5 E0V84 rV87 C+13 rV2 F+10V148 rV32 C6V83 C0V78 F9V32 G+9V114 B2V244 D+5 rV17 E1V31 D1V8 rV12 rV32 C6V83 C0V78 C+9V33 B6 rV46 E1 rV248 G2V80 G6V162 F+8V50 B8 rV8 rV255 rV255 C21 F19V252 C21V14 rV35 A1V31 D2V24 D1V11 G20V243 E17V167 B12V158 D14V171 D+15V187 F18V225 C+0V10 D3V47 C6V82 D8V95 A8V99 F7V88 G5V60 C3V29 A+20V246 B17V208 E15V181 B13V167 D+13V159 A+13V162 A14V184 B16V210 D+19V241 D+0V20 F2V41]
  [r C+9V70 C0V31 F+2 D+5 rV76 E0V1 r rV120 G2V32 C6 rV32 G2 rV255 r D+0V255 rV76 E0V1 r rV114 A5V36 F+2 D+5 rV4 D+6V7 C0V78 rV75 C+10V48 C+7 rV255 rV255 rV255 E17V26 C+0V245 E0V15 A+0V33 F+1V37 C+2V21 B0V1 A18V232 B17V194 D+14V172 F14V176 E16V204 G+19V244 F+1V31 A4V65 C7V94 B7V103 G8V104 F6V76 E4V45 F1V8 F+19V224 G16V194 G14V173 G+13V161 G13V156 F14V174 A15V197 D18V225 G+20V2 B1V35 G+3V55]

$$ALL
  [G4 A+5V75 F+5V65 C+5 F4V37 A4V41 F3V38 D+2V24 G1V7 A+20V246 F+18V230 G17V210 E16V199 E16V199 C+17V204 F+17V216 B17V220 A+18V225 E19V237 D20V242 G+20V247 D+20V243 F+20V241 B19V240 C20V245 r D1V19 C+3V47 D+5V67 E6V84 A+6V88 F+7V87 C+7V82 G+5V67 D+4V43 C2V18 G20V246 C+18V217 E15V184 D13V161 F+11V139 A+10V133 C+11V142 C+13V166 A+15V197 D+19V240 F1V28 D4V63 F+6V80 D+7V89 F7V90 F6V73 A+4V56 A2V36 E1V14 C0V251 F19V230 E18V227 F18V220 F+18V221 A+18V227 G19V241 D20V246 F+20V250]
  [D+5V71 C6V74 G6V67 D+4V63 E5V48 C+4V51 C4V30 D2V21 E0V3 C+20V240 C+18V217 D17V205 G16V198 A16V202 G+17V204 D18V211 G18V222 G19V232 C20V239 G+20V240 E20V245 F+20V245 D+20V241 C20V241 E20V241 C+0V9 D2V29 B3V55 D6V81 C+7V92 E7V88 D+7V81 G+5V75 B4V56 C3V34 B0V6 G19V229 F17V198 E14V172 F12V148 A+10V135 B10V132 B11V150 F+14V182 A17V223 C+0V3 B2V44 F5V72 B6V88 D7V90 F6V79 D5V63 B3V43 C2V20 E0V254 A+19V241 D19V228 G18V217 C+18V217 D+18V228 D19V229 A19V240 F+20V250 G+20V1]

$$ALL
  [A+20V251 rV252 F+20V255 B20V248 A+20V252 rV2 rV6 D0 F0V255 D+0V254 D0V254 C+0V255 F0V1 G0V11 G+1V27 D3V35 F3V45 B3V47 E2V35 F+1V12 F+20V243 D18V214 G+16V195 A+15V189 B15V194 A+16V202 G17V219 F+18V226 G+19V239 C+20V246 r B0V19 G2V35 C+4V52 C+5V70 E6V73 E6V72 C5V60 F+3V38 G1V19 B20V248 A18V227 D+17V202 F15V186 C+15V187 G15V188 C16V199 D+18V225 E20V1 D+1V17 G2V37 A+3V47 C4V51 F+3V37 A1V18 F+0V8 G20V251 C20V239 F+19V238 A19V236 F+19V237 B19V235 B19V246 A+20V254]
  [D+0V245 A+20V255 G20V252 rV254 B20V255 D+0V2 C+0V2 D+0V3 E0V1 D0V249 D0V254 D+0V1 B0V11 G1V14 G+2V30 D3V44 D4V42 F3V46 C2V16 F+0V252 D+19V227 E17V211 A15V189 A+15V187 B15V201 E17V214 C+18V216 D19V229 D20V242 A20V253 C0V12 G+1V30 D3V41 A4V61 A+5V69 C6V69 E5 E4V44 F+2V28 F0V255 A19V238 F17V214 E16V194 F15V180 A+14V175 E15V193 D17V207 F19V237 D0V9 G1V31 C3V37 G3V42 D+3V46 A2V29 F1V10 C0V254 D+20V245 C20V241 C+19V238 A+19V234 B19V240 D+20V244 G20V250 D0V3]

$$ALL
  [A0V7 C2V25 D3V37 G3V44 F3V49 C3V43 A+1V24 G+0V7 B19V244 D18V219 D17V201 D+16V195 D+16V192 D16V195 F+16V205 G+17V209 D19V229 F+20V252 G0V14 G1V23 G+2V38 F3V37 A3V40 E3V36 F+3V40 F4V46 A3V41 E3V38 B2V29 A1V22 D1V4 rV251 A20V243 F19V230 B18V229 A+18V228 F+18V233 B18V232 D+18V228 A17V214 D17V212 C+17V203 G16V211 G17V213 G18V235 C20V250 C+0V12 A1V30 G+3V49 B4V66 D6V85 F+6V82 C6V77 F+4V57 F+2V29 C+1V15 A+20V245 F19V235 C+19V227 B18V223 F+18V220 B17V209 G17V212 G+17V209]
  [G1V18 E2V38 G+3V46 F+4V47 F+3V44 C2V35 D+1V10 B20V248 G18V234 B17V209 A16V198 G16V190 D16V187 E16V197 B16V211 A17V225 D19V235 C21V6 D+1V22 A2V35 A+2V31 C+3V30 A2V40 G+3V36 G3V36 E3V44 G+3V45 D+3V36 D+2V26 C+1V8 E0V3 A20V247 A19V236 A18V236 A+18V223 A18V230 G+18V226 C+18V232 B17V219 A17V211 C+17V203 C+17V203 E17V210 D18V220 A+19V237 C21V1 F+0V21 G2V39 E4V62 F+5V75 D+6V79 C+6V78 F+5V66 C4V46 D+2V21 C0V4 D20V241 D+19V235 G+18V228 G18V217 G+17V213 A17V210 F17V206 C+18V212]

$$ALL
  [C+18V217 B17V221 G18V227 C+19V240 E20V249 G20V251 G20V2 rV252 D0V255 A+0V3 G1V18 F3V38 A4V59 D6V67 G+6V75 C+5 C+4V40 D+2V20 G0V2 D20V239 B18V225 C18V221 E17V207 E16V194 C16V193 D16V195 C+17V205 A17V212 D18V229 A19V242 rV3 A+0V27 B1V25 G1V35 D+2V20 F+1V21 B0V12 D1V22 A+1V20 G+2V34 D+3V41 D+3V43 G+2V37 D+2V32 A+1V20 G+0V13 r D+20V250 D20V231 C+18V221 G17V196 F16V194 D+16V192 D+16V196 B16V203 D18V223 A+19V239 C0V254 A+0V21 F+2V35 D+3V44 F3V45 D+3V42 E2V28]
  [C18V213 D+18V227 D+19V233 A+19V244 D+20V250 rV251 rV252 C0V254 rV7 C1V10 F2V29 A+3V50 D+5V65 A+5V67 F+5V69 F4V53 C3V30 C1V14 A20V249 B19V238 G+18V220 D17V205 E16V199 D16V188 A15V193 G16V198 F17V212 E18V221 D+19V235 F+20V251 G+0V15 C+2V22 C2V32 C+2V28 A+1V25 G1V21 G+0V21 E1V22 D+2V31 A2V36 D3V42 E3V39 C3V37 C2V29 E1V17 F+0V9 A+20V253 C+20V242 B18V225 G17V211 B16V195 C+16V189 G15V195 F+16V200 A+17V216 F18V234 F20V254 B0V19 G2V26 B2V41 E3V43 F3V42 C3V33 A+1V21]

$$ALL
  [F+1V7 rV249 C20V236 E19V230 F19V230 G+20V253 D1V25 A3V42 G4V60 G+5V66 G5V68 D+5V56 A+2V34 G+0V1 A19V235 F+17V208 D15V170 A+13V156 D12V142 E11V135 G+11V143 G13V170 E16V209 A20V244 A2V39 A+5V75 F+7V104 G+8V105 G8V108 F+7V93 E6V74 D+4V47 C+2V20 rV254 C+19V225 D+17V211 G+16V205 C17V207 G+17V220 A18V234 F+20V247 E0V1 C+0V3 A20V249 G19V234 F+18V221 D17V207 B16V215 D18V221 F19V238 B20V3 A1V23 G3V46 G4V63 D5V65 D5V68 A+4V56 F+3V36 A+1V13 A20V251 F+19V226 D+18V218 B17V209 E17V207]
  [G0V1 E20V236 D+19V223 C19V224 D20V240 G0V10 F+2V36 E4V56 E5V65 A5V67 D+5V54 C+4V51 D2V21 rV247 G+18V218 F16V197 F14V168 B12V153 F11V141 G11V140 C+13V153 E15V184 D+18V230 E1V21 A+4V63 C+7V94 F8V105 A+8V106 D8V100 B6V83 A4V61 G3V33 B0V9 D20V237 C+18V220 C+17V208 G16V203 C+17V211 F18V232 A+19V240 C21V255 D0V1 rV254 F20V241 D19V226 C+18V217 B17V212 B17V215 A18V227 D20V248 C1V13 B2V31 C4V57 D+5V65 F+5V61 C5V63 D4V49 D2V25 G+0V4 D20V240 G18V223 F18V216 A+17V207 D17V210]

$$ALL
  [A17V205 G17V208 C+18V224 C+19V234 C20V248 D+0V8 D1V23 D2V34 B2V28 F+2V36 F+2V32 C2V27 C1V17 A20V254 B19V236 G+18V218 F+17V218 D+18V220 C19V240 rV254 D1V13 C+2V28 E2V29 C+2V29 B1V27 A1V20 C+1V15 G0V255 C21V253 F20V252 E20V245 C+20V238 C19V227 G18V224 E18V222 G+18V234 B19V248 F+0V14 E2V37 F+3V52 D4V51 C3V37 C+2V23 F+0V254 D20V236 F18V228 A+17V216 A17V213 C+18V211 A17V218 F18V227 F+19V243 C21V5 C+1V12 A+1V28 D2V31 C+2V25 F+1V18 D+1V10 B0V16 G+1V15 G1V26 C2V25 B1V26]
  [G+17V214 D+18V217 A18V223 C+19V238 rV254 A0V16 C+2V22 G2V31 A+2V31 C3V36 A+2V24 G+1V16 G0V7 F+20V241 C+19V225 C18V221 D18V212 A+18V224 D20V242 E0V6 G1V21 C+2V26 C2V26 B1V22 G+1V20 D+1V15 E0V6 F+0V1 C0V251 G+20V242 D20V239 A19V227 C19V226 A18V219 A18V228 E19V238 rV3 F+1V23 A+2V42 A3V47 G+3V43 F+2V30 C+1V11 C21V250 C+19V232 D+18V220 A+17V209 D17V208 C17V213 C+18V217 C19V234 D+20V249 rV15 D+1V22 D2V30 D2V29 G1V23 B0V18 B0V12 A0V16 D+1V23 D2V24 D+2V23 B1V25]

$$ALL
  [D+2V28 A1V18 F+1V20 B0V12 D+0V5 C21V250 D20V239 C19V226 E18V214 D+17V204 G+16V197 B16V200 D17V208 D+18V224 A+19V246 G0V5 A+1V23 C3V36 F+3V42 G+3V43 G3V40 F3V35 G+2V28 G+1V20 F+0V1 F+20V246 G+19V236 B18V228 A18V226 C+19V230 G19V234 E20V242 G20V249 C21V255 rV255 r rV2 D+0V2 F0V4 G0V5 G0V11 A+0V11 D1V12 B0V15 C1V14 C+1V13 C1V12 C1V10 A+0V7 E0V5 C0V252 G20V247 G+19V239 D+19V228 B18V224 F+18V223 F+18V224 A18V225 D19V231 C20V242 A20V252 D+0V7 C+1V17 A1V23]
  [A1V25 A1V23 F1V16 F0V7 D0V253 D+20V242 F+19V226 F+18V218 A+17V208 A+16V196 D+16V196 G+16V201 G17V213 D19V232 G20V251 C1V14 E2V31 C+3V40 G+3V45 F3V47 E3V41 A+2V36 C+2V22 B0V14 rV254 D20V240 D19V233 A+18V228 D19V229 F19V234 C20V240 G20V247 B20V251 C21V255 r C0V2 C+0V1 D+0V4 D+0V3 G+0V8 F0V10 B0V13 B0V15 A+0V16 B0V13 C1V14 A+0V11 A+0V8 G0V7 C+0V1 B20V248 C+20V242 D+19V234 C+19V227 G+18V226 G18V222 G18V225 C19V229 F+19V237 E20V247 rV1 A+0V14 G1V20 C+2V27]

$$ALL
  [D2V27 F2V29 E2V28 C2V26 G1V21 C+1V12 F+0V5 rV254 G+20V251 E20V246 D20V244 E20V244 D20V245 F20V246 F+20V248 G+20V248 A20V250 A+20V251 C21V251 B20V252 A+20V251 A+20V251 rV250 C21V252 rV255 D0V1 E0V7 G0V7 A0V10 G+0V8 E0V6 D+0V2 C0 rV254 rV253 A+20V252 A20V251 A20V252 G+20V250 G+20V251 A20V251 A+20V253 B20V254 G6V32 F+8V50 C+4V232 A2 rV255 rV255 r E1V16 D0 A+16V27 D+17V217 A+15V204 F20V253 C2V33 E6V55 F5V90 G6V78 G+4V18 D+1 A+16V197 D12V156]
  [D+2V30 E2V29 D2V27 A1V24 E1V16 A0V9 D+0V2 C21V252 G+20V247 F20V244 D+20V244 D20V245 E20V245 F+20V246 G20V249 A20V250 A+20V251 B20V252 B20V251 A+20V252 A+20V251 B20V252 C21V252 rV255 C+0V1 E0V4 F+0V9 G+0V11 A0V9 G0V8 F+0V6 D+0V2 C0 rV255 rV253 B20V252 B20V250 A20V250 A20V250 A+20V250 B20V251 B20V254 rV255 rV75 C+10V48 rV86 r rV255 rV255 G+2V18 C1V9 E20V254 G+18V193 B16V168 F+18V216 A1V23 F3V58 F6V63 G+5V48 E2 B0V24 B18V216 C14V163 G+12V143]

$$ALL
  [F12V149 D+12V169 E17V229 C+1V16 B5V86 A+9V111 C+10V111 A7V88 G2V29 C19V210 B14V164 F+11V148 C14V146 F17V228 D+0V255 D+4V40 D6V69 G7V42 D8V87 F6V80 G+5V240 A+1V220 F17V160 D13V182 A+13V149 D+16V199 D20V236 E5V28 E8V47 A9V79 F8V83 G5V37 C20V234 D+18V211 A13V169 A16V185 A+13V178 G+16V215 B14V241 F+3V61 D3V60 D8V125 C7V106 D+4V24 G+19V231 F19V203 F+12V191 A+16V142 D13V210 D+18V204 F+1V20 C+2V49 A+5V91 F7V79 C+4V78 D1V84 C+0V14 D+19V250 E17V197 G+14V185 F16V214 C17V202 G16V243 B19V243]
  [F12V157 F15V179 C19V251 F4V65 A+7V107 D10V122 F8V102 D6V55 D0V235 E16V178 A11V150 D11V143 F+15V174 G16V252 E2V11 B5V43 F+7V85 B5V69 C7V74 C5V26 A+20V18 G17V224 F+15V164 D+13V135 E13V184 A+18V207 A1V13 G+3V62 F7V62 D8V77 D+6V63 B1V26 A+0V219 D+18V206 A15V142 G13V151 D+17V167 C+15V31 F4V19 F+6V124 B9V69 A7V99 F+3V68 A+5V241 A+0V195 F15V177 B11V153 C13V175 G+14V218 C18V247 E0V42 E3V49 E3V75 F+5V56 F4V62 C+4V22 C+20V244 F+16V194 C19V168 C18V169 E16V230 G18V245 A1V253 G+1V19]

$$ALL
  [F2V8 D1V53 A4 A4V60 F+6V3 F+3V251 D18V5 D+15V217 A18V177 F+17V191 D18V202 D20V238 A+20V36 G+2V51 C5V34 A2V46 E1V35 F+19V31 F19V234 F+17V186 D+19V189 F17V214 A+17V206 G+18V230 A+2V240 G2V53 E4V48 C3V103 F+4V50 B0V21 C+19V242 C+19V217 E16V172 F+16V185 C+15V211 F17V234 C0V32 C+6V55 G6V91 F+6V80 G+4V43 B0V248 F18V209 E15V187 B13V175 A+18V192 G+17V237 C+1V16 A2V32 G4V55 F+5V87 G+5V22 G+20V15 G19V227 D18V200 F17V200 F16V204 B17V220 F+19V11 F2V26 B5V91 A+4V75 A3V48 E1V230]
  [D5V33 G+2V30 D+4V73 F2V61 G1V36 C0V221 D19 C16V229 C+16V210 C+16V189 E17V220 rV245 G+2V32 D+3V45 G4V61 G3V33 C+1V25 E18V7 C+19V12 C+20V221 A16V203 D16V232 D+0V207 A0V231 G2V20 C2V46 G+5V81 G3V72 F+2V61 G+1V29 C19V234 D+14V186 D14V183 D+16V191 C18V190 A+20V252 D+2V33 F+6V71 G9V67 F7V50 D3V10 F+1V227 E15V227 G+16V216 C15V191 C+18V220 C19V247 G+1V61 C+4V61 F5V58 F3V44 F+1V53 G+0V254 A+17V230 G16V181 G16V191 D+15V221 D20V237 F0V16 G+4V50 B4V71 E5V50 G1V30 A+1V247]

$$ALL
  [B19V228 D+17V198 C+18V178 A+16V187 A17V221 F18V254 D+1V47 F+4V67 F5V68 C3V56 A3V35 D+20V28 D+19V243 D18V226 E19V199 G+16V251 F19V240 F+20V6 D0V31 D+1V16 C+20V3 G1V23 C1V246 F+1V243 F+0V241 F+0V245 A20V226 G+19V2 E18V246 C+19V8 C21 G0V255 C3V27 B1V24 F1V14 B0V16 C21V14 D+0V246 E0V238 F20V242 G+0V233 D19V233 B18V240 A19V249 rV255 rV3 G+19V246 D0V23 E2V6 G1V4 D2V3 D20V237 A+18V5 A+18V8 F19V230 F+20V210 A20V8 B0V7 G+2V32 F0V51 G2V49 A+0V6 F+20V250 F19V243]
  [C19V210 G16V199 D16V200 E16V181 C0V208 C1V5 F1V70 E4V65 C+4V68 C+2V49 C+0V46 E20V250 F+18V221 D+17V215 G20V209 F17V248 E20 rV10 rV17 C+2V19 G3V1 A20V20 A0V5 E20V248 rV244 D+0V249 G+19V249 A+18V252 C20V226 A+20V250 D+0V15 B1V23 rV31 B0V38 A+0V1 A+20V245 G19V253 D+20V251 rV249 G+19V249 C+20V2 C+20V248 rV8 G0V14 C+0V28 D+0V39 F+0V20 A+0V9 A1V23 E3V253 C+0V15 G19V236 F+19V224 C18V224 G17V248 G19V251 D+20V6 D+2V7 E2V44 D+5V19 A+1V39 A+20V24 A20V251 E18V225]

$$ALL
  [G+19V220 C18V223 F+17V234 A19V254 G+20V250 G1V14 F2V39 A+3V45 E4V51 C4V17 A19V3 C20V226 F+17V234 B16V229 D18V229 D0V228 A20V14 C1V24 D+3V55 C+1V65 G+3V23 F0V2 F+20V244 D+18V239 D20V230 A+19V227 B19V240 F20V255 D0V238 G20V222 D3V224 C1V238 F+2V24 D+1V50 F0V22 G+1V242 B0V228 F+20V236 C+20V230 A+17V237 D+20V233 B17V242 G19V30 C+1V35 C+2V35 F3V34 C1V16 A+19V254 B18V2 G+19V216 C19V221 D18V228 G+19V19 G1V6 A2V44 F3V39 D+0V39 B20V250 C20V248 G2V227 E19V21 A0V241 G+20V248 G+19V3]
  [B18V242 D+18V249 C21V217 G17V251 D20V1 C1V35 E3V59 C+4V63 F+0V15 D20V255 F19V210 A18V212 D18V211 C+16V218 F+16V210 G19V246 G1V32 D5V36 G+3V44 C+4V22 A+0V34 D+2V11 D+20V241 C20V237 G18V255 F+18V253 C21V4 rV240 F+0V237 E0V209 A+19V18 A0V248 G+2V18 B2V20 F3V14 F+1V5 C0V244 G+18V242 A+17V219 F19V215 C+19V240 F0V241 D0V3 C3V14 F3V24 F+4V3 rV11 C19V35 C+18V233 D+19V222 D20V243 A0V2 C21V6 B2V13 rV16 D+1V41 G+20V26 F+18V244 D+19V213 A20V223 F+19V222 F0V217 A+18V231 C20V242]

$$ALL
  [C21V250 F+1V13 D0V20 E0V45 G+1V253 G+19V242 B19 F+0 C20V248 C+19V233 F19V242 F+20V255 E20V225 F0V255 A+1V247 G+20V8 C+2V7 C+3V25 G+3V20 C5V43 D0V10 A+19V242 G18V211 C+18V199 E17V204 G17V227 D+17V245 C+1V15 F1V43 D6V57 A3V67 C4V49 F+0V6 C20V235 F17V223 G17V211 D17V225 C+20V240 F1V251 F0V25 A3V254 A+1V24 D0V25 rV250 A19V255 C+1V223 G20V2 F19V233 B20V4 C20V5 D0V18 C0V32 C2V58 G+1V24 C+1 G+19V247 C+19V215 B18V216 G17V247 G19V241 C+0V253 A0V28 D2V44 G+3V41]
  [G+1V11 D2V24 F1V38 A+1V13 A+19V13 G1V234 F+18V252 D19V27 C21V8 E20V5 D+18V248 A18V252 D+1V244 A+20V240 A+20V25 F+20V24 A1V42 G2V40 F+4V26 rV27 F1V244 C+20V208 C18V207 C17V202 G+18V191 A17V220 G+20V234 E0V32 C+3V50 F5V47 C4V56 B2V29 B1V244 C+20V227 C18V202 C18V202 G18V223 G+20V235 G+1V4 G+2V27 E3V18 E0V5 A1V1 D0V251 C+19V222 C+20V222 B18V246 A+20V243 B19V4 E0V253 G+19V19 G+0V3 G+0V17 D1V6 F0V18 rV234 D+19V245 D18V236 E16V239 A+0V238 C0V44 C+2V13 A0V55 B2V28]

$$ALL
  [A4V45 A0V38 F18V3 G+17V225 E18V203 C+18V202 G20V215 A+19V217 E1V2 D+2V24 B2V75 F5V52 D+3V21 F0V12 D+18V246 B17V179 C+17V203 B16V206 D+17V246 G0V240 E0V22 G4V3 G4V48 D3V17 C+3V8 F0V12 F18V233 C+19V195 A+18V199 C+18V233 F20V244 C+0V31 D3V44 F5V50 C+2V33 D0V8 D18V245 F+19V212 B17V204 F18V216 F18V242 C2V1 E20V28 D2V34 rV57 E4V28 F1 rV7 D+19V247 C+0V222 D19 E1V253 A1V10 D2V5 G20V245 E20V244 D+19V223 E19V240 G+19V245 A+0V22 D+3V24 C2V24 D4V8 A+0V8]
  [C0V34 D+19V22 C+18V242 G16V214 F15V226 C+19V208 A18V240 C+1V6 G2V39 C+4V39 F5V54 F+4V48 E4V249 rV238 A+19V221 E17V204 G+16V216 C19V223 A19V247 E2V18 F+2V18 C3V40 F+2V50 A2V26 C1V251 D19V253 F+18V211 D19V208 F+18V201 G+18V242 G0V27 A+0V52 A3V33 E3V54 G1V13 D+1V2 D0V210 C+17V236 A+17V207 E17V224 E18V222 E19V23 D+2V22 G3V42 D2V13 C+2V47 C+3V8 D20V15 A+17V226 B20V245 D+0V222 C0V12 C21V8 E20V8 D20V252 D18V241 A+19V236 C21V233 F+1V23 C1V19 B2V32 A+3V30 F1V18 rV249]

$$ALL
  [rV230 C19V220 B16V236 F+18V236 D18V244 A19V253 A0V254 C+2V29 D2V35 G2V61 A0V36 G20V24 F+19V232 E16V233 A+18V219 G18V211 D+19V225 A+18V249 A0V250 G+1V16 A3V30 E3V39 G+4V20 D+1V17 C+1V226 G+19V239 C19V214 G18V238 F+20V244 C19V2 A2V251 D+0V21 C+2V246 C21V10 G20V17 A20V249 F0V239 G+1V228 A0V255 F+0V242 rV237 rV238 C0V242 C+0V242 rV9 E1V19 D+1V18 C+1V7 C0V2 rV247 F+19V1 C20V225 G19V235 A+18V4 B20V25 rV9 G+0V20 C0V18 C0 rV247 rV251 A+0V244 D20V1 D+0V240]
  [E20V221 E18V223 F+19V212 C+19V216 D+19V242 rV239 F1V28 G+0V42 B2V66 C3V51 E3V16 G+19V2 G+18V243 F+19V200 E18V228 F18V224 E20V232 C20V253 G+1V34 B2V30 A3V42 A+3V20 F1V23 rV248 B18V230 A+18V219 C+19V230 G18V245 A20V248 B20V255 F+2V14 A0V8 A+1V9 A20V238 G0V249 G+1V240 A0V3 G1V252 A+20V249 F20V248 F19V239 A19V243 F+19V7 A+0V249 D20V253 A+20V254 D1V252 C1V2 A+20V245 rV240 F19V231 G+20V237 A+20V250 F+0V16 rV27 D+2V13 F+1V20 C1V22 B0V11 C21V245 F20V238 G+20V239 C19V240 A20V4]

$$ALL
  [E19V3 C0V242 F+0V6 C2 A0V3 F0V18 G20V12 A20V5 B20V9 C0V1 G20V255 A20V236 G20V247 F+20V247 F+0V16 G20V7 C+0V4 G+20V6 A+20V6 E0V252 E20V5 A20V2 G+18V249 F20V249 F20V254 rV240 C21V5 G0V3 C0V7 rV14 G+20V9 C+1V7 C0V3 E0V10 G+0V248 G+0V249 D+0V3 C21V6 F20V245 A+19V255 F20V252 C21 E1V239 C1V250 rV8 F+0V7 D1V248 D0V248 C21 rV247 G+20V249 C+20V255 C0V5 C0V2 C1V1 D0V7 C0V3 C1V249 A+19V250 D+0V247 A+20V1 F0V254 B20V8 C21V5]
  [D+0V242 rV11 rV254 E1 D0V255 F+0V249 C0V248 rV4 G20V13 C0V2 B20V243 G+0V235 G20V250 C21V255 rV253 rV9 C+0V5 C21V11 E0V14 C21V13 B20V8 B19V250 C+0V2 C20 E20V3 C21V3 F20V249 F+20V254 rV4 D+20V7 rV252 A20V16 C+0V2 D0V253 C0 F+20V7 D0V253 rV243 rV252 C21V251 F20V253 G+20V8 C1V1 C1V8 D+1V9 C0V12 C0V3 F20V239 A20V238 G20V245 A+20V2 C+0V248 B20V252 A0V1 A+0V7 G0V6 B20V2 C21V251 C21V243 A+20V252 C21V253 C21 F+20V6 A+20V249]

$$ALL
  [B20V4 C+0V1 A20V5 C0V12 G0V254 C21V1 F0V250 E20V5 B20V244 C+20V249 D+20V254 A20 D+0V5 D0V7 C1V3 C1V254 G+0V2 C21 A+20V254 F20V250 C+20V250 F+20V253 A+0V3 B0V7 C1V2 rV255 A+0V247 C21V250 C+0V251 rV245 G+20V255 G+20V252 rV252 rV2 G6V84 C0 G+0V3 D1V124 D0V15 rV112 D1V3 D0V15 D1V122 D0V15 C+10V3 D0V15 rV120 D+10 F6 D0V15 D1V3 D0V15 D1V3 D0V15 D1V3 D0V15 D0V15 G+10V122 D0V15 F6 F+2V4 G+8V3 D+0V100 D0V4]
  [F20V6 D+0V6 C+0V7 A+20V4 F+0V8 D+0V254 A+20V255 G+20V255 C+20V254 A20V245 rV254 D+0V244 F+0V5 B0V8 A0V6 G+0V3 rV253 E0V243 G20V246 D+20V250 rV245 C+0V254 D+0V3 A+0V2 B0V8 D+0V248 rV1 rV250 G20V248 rV2 A+20V252 D0V1 rV4 E0V5 r D+10V112 D0V15 C+10V3 D1V3 D0V15 rV122 G+9V133 D+10V3 D1V124 rV120 B9V3 D0V15 D1V80 rV2 G+9 rV122 C+10 rV119 C+10 rV124 D+10V3 D1V3 D+10V3 D1V80 r G10V93 D0V4 F+7V3 D+0V103]

$$ALL
  [G+7V3 D+0V93 D0V4 D+8V3 D+0V105 D0V4 G+7V3 D+0V93 D0V4 G+8V3 D+0V100 D0V4 G+7V3 D+0V93 r D+0V128 D0V4 D+8V3 D+0V105 D0V4 G+7V3 D+0V93 D0V4 G+8V3 D+0V100 D0V4 G+7V3 D+0V93 D0V4 D+8V3 D+0V117 G19V27 rV236 rV13 r C+8V9 E8V3 C+1 r C+1V1 D1V21 B7V128 F6 F11V15 A+4V96 D1V21 B7V128 G+1 G10V229 rV65 r D1 G10V229 rV120 r C+1V3 D1V21 B7V128 F6 B4V104 D0V15 C+10V3 D1V122 D1V3]
  [D0V4 G+7V3 D+0V98 D0V4 F+8V3 D+0V91 D0V4 C+8V3 D+0V93 D0V4 F+7V3 D+0V103 D0V4 G6V84 D0 G+7V3 D+0V98 D0V4 F+8V3 D+0V91 D0V4 C+8V3 D+0V93 D0V4 F+7V3 D+0V103 D0V4 G+7V3 D+0V98 D0V4 G19V27 G19V3 G+9V24 G6V84 D+0 E0V100 D0V14 E5V78 rV59 rV180 C19V149 B9V80 rV6 G10V229 rV120 C19 B9V59 G+10V15 B0 A+2 D1V14 D11V15 A+4V96 E5V78 rV59 rV180 C19V149 B9V80 rV1 D1V2 D1V124 D0V15 D+10 G10V120]

$$ALL
  [A+9 rV120 D+10V3 D1V124 D0V15 rV112 D1V3 D0V15 B6V103 rV3 D0V15 D1V3 D0V15 D1V3 D0V15 D1V3 E10V3 B9V129 A+9V3 E5V78 r G+19V35 G+8V237 A+2V93 G+19V35 F+7V237 A+2V93 G+19V35 G+7V237 A+2V100 G+19V35 G+7V237 A+2V103 G+19V35 D+8V237 A+2V93 G+19V35 F+8V237 A+2V98 G+19V35 G+7V237 A+2V105 G+19V35 C+8V237 A+2V91 G+19V35 G+8V237 A+2V93 G+19V35 F+7V237 A+2V93 G+19V35 G+7V237 A+2V100 G+19V35 E5V78 rV35 G+7V112 D+0V4 B0V4 D+0V12 D+0V4 B0V4 D+0V12]
  [D1V3 D0V15 D0V15 C+10V3 D1V3 D0V15 rV122 G+9V255 rV1 rV117 B9 rV122 G+9 rV122 E10 G10V124 D0V15 D1V124 D0V15 r G+7V112 D+0V4 B0V4 D+0V12 D+0V4 B0V4 D+0V12 D+0V4 B0V4 D+0V12 D+0V4 B0V4 D+0V12 D+0V4 B0V4 D+0V12 D+0V4 B0V4 D+0V12 D+0V4 B0V4 D+0V12 D+0V4 B0V4 D+0V12 D+0V4 B0V4 D+0V12 D+0V4 B0V4 D+0V12 D+0V4 B0V4 D+0V12 D+0V4 r D+0V8 G+19V35 G+8V237 A+2V93 G+19V35 F+7V237 A+2V93 G+19V35]

$$ALL
  [D+0V4 B0V4 D+0V12 D+0V4 B0V4 D+0V12 D+0V4 B0V4 D+0V12 D+0V4 B0V4 D+0V12 D+0V4 B0V4 D+0V12 D+0V4 B0V4 D+0V12 D+0V4 B0V4 D+0V12 D+0V4 B0V4 E0V124 E0V124 C1V236 r F+8V127 D0V20 F+8V255 rV1 F+10V96 rV3 B14V96 rV105 G19V128 G10 G10V129 G+8V129 G+1V27 C+1V3 B0 r G1V2 C+0 C0V3 rV3 D+9V3 F+10V128 B7V128 G+10V93 C+0V129 G+7V2 B6V113 rV15 G+10V98 G+10V98 D2V14 D5V110 D3V93 F+8V127 C+1 C+1V180 C+0]
  [G+7V237 A+2V100 G+19V35 G+7V237 A+2V103 G+19V35 D+8V237 A+2V93 G+19V35 F+8V237 A+2V98 G+19V35 G+7V237 A+2V105 G+19V35 C+8V237 A+2V91 G+19V35 G+8V237 A+2V93 G+19V35 F+7V237 F+2V13 E0V124 B1V5 G6V84 D+0 G10V3 G1V103 B6V113 rV15 G+10V93 G+10V93 D2V14 D5V108 D3V93 F+8V127 C+1 C+1V180 C+0 rV112 E5V78 rV63 G10V27 C+1V3 G+10V93 rV15 rV12 D1V20 G+7V127 C0V27 C+1V3 C0V255 rV1 F+10V96 rV3 B14V96 rV110 G19V128 G10 G10V129 C+9V129 G+1V27 C+1V3]

$$ALL
  [rV98 E5V78 rV63 G10V27 C+1V3 G+10V101 rV15 rV12 D1V20 E8V2 D+8V1 C+1V27 C+1V3 B0 r rV65 C+0 B6V12 rV96 B6V46 rV96 B7V96 C0V88 C0V88 F+1V96 F1V96 F+1V96 F1V96 F+1V96 D1V31 C0V31 B7V127 B7V127 B7V127 B7V127 B7V127 B7V127 D+7V7 D+7 B7V96 B7V96 B7V96 B7V96 B7V96 F+2V1 F+2V1 F+10V19 F+10V18 F+10V19 F+10V18 B6V21 rV96 B7V96 C0V88 C0V88 F+1V96 D1V31 C0V31 B7V127 B7V127 D+7V7 D+7 B7V96 F+2V1]
  [B0 r G1V2 C+0 C0V3 rV3 D+9V3 F+10V128 B7V128 D0V14 B7 C+0 rV101 E5V78 rV3 G+0 B7V255 rV2 C0V255 rV3 D+7V7 D+7 B7V96 F+2V1 F+2V1 F+2V1 F+2V1 F+2V1 F+2V1 F+10V19 F+10V15 F+0V1 F+0V1 F+0V1 F+0V1 F+0V1 rV96 B7V96 C0V88 C0V88 C0V88 C0V88 C0V88 C0V88 F+1V96 D1V31 C0V31 C0V31 C0V31 C0V255 rV3 D+7V7 D+7 B7V96 F+2V1 F+2V1 F+10V19 F+10V15 F+0V1 rV96 B7V96 C0V88 C0V88 F+1V96]

$$ALL
  [F+2V1 F+10V19 F+10V15 F+0V1 rV96 B7V96 C0V88 C0V88 F+1V96 D1V31 C0V31 B7V127 B7V127 D+7V7 D+7V255 rV3 D+7V3 C0V96 B6V37 rV31 B7V127 D+7V137 C0V255 rV4 rV93 rV88 rV93 rV88 rV89 rV84 rV89 rV84 rV93 rV88 rV93 rV88 rV89 rV84 rV89 rV84 G+13 C+7V127 G+7V127 C+7V127 G+7V127 D+7V127 A+7V127 D+7V127 A+7V127 G+7V127 D+8V127 G+7V127 D+8V127 G+7V127 D+8V127 G+7V127 D+8V127 E5V78 rV7 D+9V7 D+9V7 D+9V7 D+9V7 D+9V7]
  [D1V31 C0V31 B7V127 B7V127 D+7V7 D+7 B7V96 F+2V1 F+2V1 F+10V19 F+10V15 F+0V1 rV96 B7V96 B6V27 rV96 D0V1 B7V255 rV3 F+10V11 E11V96 C0V88 B6V165 rV93 rV88 rV93 rV88 rV89 rV84 rV89 rV84 rV93 rV88 rV93 rV88 rV89 rV84 rV89 rV84 rV65 D+0 C+7V112 G+7V112 C+7V112 G+7V112 D+7V112 A+7V112 D+7V112 A+7V112 G+7V112 D+8V112 G+7V112 D+8V112 G+7V112 D+8V112 G+7V112 D+8V112 r F+10V7 F+10V7 F+10V7 F+10V7 F+10V7 F+10V7]

$$ALL
  [D+9V7 D+9V7 D+9V7 D+9V7 D+9V7 D+9V7 D+9V7 D+9V7 D+9V7 D+9V7 D+9V80 rV3 D+8V3 C0V108 r E14V180 r F+10V7 F+10V7 F+10V7 F+10V7 F+10V7 F+10V7 F+10V7 F+10V7 F+10V7 F+10V7 F+10V7 F+10V7 F+10V7 F+10V7 F+10V7 F+10V7 F6 F+0V1 F+0V1 F+0V1 F+0V1 F+0V1 F+0V1 F+0V1 F+0V1 F+0V1 F+0V1 F+0V1 F+0V1 F+0V1 F+0V1 F+0V1 F+0V1 G6V84 C+0 C0 C0 C0 C0 C0 C0 C0 C0 C0 C0 C0 C0]
  [F+10V7 F+10V7 F+10V7 F+10V7 F+10V7 F+10V7 F+10V7 F+10V7 F+10V7 F+10V7 F6 F+0V1 D0V1 G6V84 D+0 E5V78 rV7 D+9V7 D+9V7 D+9V7 D+9V7 D+9V7 D+9V7 D+9V7 D+9V7 D+9V7 D+9V7 D+9V7 D+9V7 D+9V7 D+9V7 D+9V7 D+9V80 rV1 F+0V1 F+0V1 F+0V1 F+0V1 F+0V1 F+0V1 F+0V1 F+0V1 F+0V1 F+0V1 F+0V1 F+0V1 F+0V1 F+0V1 F+0V1 F+0V1 r C0 C0 C0 C0 C0 C0 C0 C0 C0 C0 C0 C0 C0]

$$ALL
  [C0 C0 C0 C0V255 rV5 D0V1 G+8V3 A+0 B14V1 r D+9V127 F0V110 D0V6 D0V6 F0V107 C+9 C11V112 D0V6 D+9V3 B8 D0V6 F0V3 D0V6 r rV105 B8 rV110 G+8 rV110 E9 G10V112 D+9V3 D0V6 B8V3 B9 G8 rV108 D+9 rV105 B8 rV113 D+9V128 F0V112 F0V3 F0V108 F0V108 rV180 r D10V103 B8 D0V7 F+8 D0V7 F+0V3 D0V7 D0V7 F+0V5 F+9 F6 F+2V23 D+0V129 B9V122 B1V3 C+10V3]
  [C0 C0 C0 B6V25 rV98 C0V103 rV65 E0 G6V84 r D0V6 D+9V3 F0V112 D+8V128 D0V6 F0V3 C+9V3 F0V110 D0V6 F0V3 B8 rV105 E5V78 rV3 D0V6 F0V3 D0V6 F0V3 D0V6 F0V3 D0V113 rV108 F0V107 rV65 F0 F0V3 D0V6 F0V3 D0V6 F0V3 D0V6 F0V3 C+9 D0V6 G+8V130 D+9V3 E5V78 rV7 D0V7 F+0V3 F+0V105 F+0V3 D+9 rV110 F+0V108 G+8V130 F+0V117 F+0V80 rV5 D+0V132 D+0V7 F+9 rV117 rV117]

$$ALL
  [F+2V23 D+0V117 D0V24 B1V3 B1V1 rV127 B1V125 D0V24 G+9 B1V3 B14V80 rV4 A+10V3 G+10V117 C1V124 rV115 D0V13 C1V3 D0V13 C1V236 B9V236 E0V120 B6V27 rV110 D0V5 C+9V255 rV6 D+0V131 D1 G+9V131 E5V78 rV31 G+7V107 G+7V107 G+7V107 G+7V107 G+7V107 G+7V107 G+7V122 G+7V122 G+7V122 G+7V107 G+7V107 B7V122 r B9V80 rV11 E5V78 rV3 G+0 G+9V255 rV7 B9V255 C+9V3 F0V110 D0V6 F0V3 B8 rV105 F0V112 D0V6 D+9 G10V108 F0V3]
  [D+0V132 rV115 B9 D0V24 G+9V3 G+10 D+10V3 B1V115 D0V24 D0V24 F6 F+2V13 G+10V115 C0 G+9V129 rV117 B9 rV124 G+9V129 B9V236 B9 G19V255 rV6 D+0V3 E0V108 B6V15 rV117 rV65 F0 A+13V180 r C+10V128 G+7V122 G+7V122 G+7V122 G+7V122 G+7V122 G+7V122 G+7V122 G+7V122 G+7V122 G+7V122 F+7V122 E5V78 rV7 F6 D0V13 r rV65 F0 B6V133 rV63 G10V112 D0V6 D+9V3 B8 D0V6 F0V3 D0V6 C+9V3 F0V110 F0V3 A+8 rV112]

$$ALL
  [D0V6 r F0V104 A+8 rV112 G8 rV108 D+9 G+10V112 D0V6 D0V6 D0V6 G6V84 C+0 F0V3 D0V6 F0V3 D0V6 F0V3 D0V6 F0V3 C+9 D0V6 G+8V129 D+9V3 E5V78 r A+2V103 F+0V4 rV12 C+9V237 A+2V108 G+19V35 B0V7 G+19V35 B0V7 G+19 A+2V110 F+0V4 B0V7 G+19V128 D2V7 D+0V12 F+0V4 rV65 F+0 D2V23 rV124 rV117 G+9V3 G+9 A+1V4 rV117 G+9 G+9 B1V3 D+10V3 B1V122 D0V24 G+10 C0V255 rV7 G10V125 B9V120]
  [E5V78 rV128 D0V6 F0V3 D0V6 F0V3 D0V6 F0V3 D2V6 F0V110 C+9V3 F0V105 r G8 rV108 D+9 rV105 B8 rV113 D+9V128 F0V112 F0V3 F0V108 F0V108 rV180 r G+8V112 D+0V35 B0V7 G+19V132 B0V7 D+0V12 F+0V4 rV12 F+0V4 rV12 D+9V237 D+0V35 E9V237 G10V12 G+8V237 A+2V117 G+19V35 B0V7 A12 D2V23 D2V23 C+10V3 D0V24 D0V24 A+1V4 B1V3 D0V24 B1V122 D0V24 D0V24 D0V24 G+9V3 B14V117 B1V129 B6V124 rV12 D0V13 G+10V12]

$$ALL
  [C19V129 A+9V3 B0V13 rV115 F+9 rV115 G+10V121 C1V5 G+10 G2V236 r E5V78 rV31 B14V80 rV8 B14V1 r D+0V128 F+0V4 F+0V4 F+0V4 F+0V4 B7 rV96 B7V107 B7V107 r B9V80 rV11 E5V78 rV3 G+0 D+10V255 rV8 F+10V1 D0V2 rV120 D0V2 C+0V3 D0V3 D0V3 D0V3 D0V3 B9 B9V3 D0V2 C+0V3 B9V3 C+0V3 B1 B9V3 D0V120 B6V18 rV15 A+10V180 r A+10V180 F6 F+2V4 A+8V7 D+9V7 A+8V7 D+9V7 rV100]
  [rV117 G+10V180 rV3 D0V13 C1V3 D0V13 G19V35 G+10V236 G19V3 G6V84 F0 r C10V131 F6 D0V13 G6V84 G+0 F+0V4 F+0V4 F+0V4 F+0V4 D0V4 D+0V3 D0V4 B7V122 E5V78 rV7 F6 D0V13 r rV65 F+0 B6V155 rV15 rV120 B9V3 B9V3 B9 rV120 C+0V3 C+0V120 B9 rV120 C+0V120 rV120 B9 D0V2 D0V2 rV65 G0 D0V2 B9V255 rV8 C10 E5V78 rV3 B14V80 rV4 G10V7 C+10V7 C+10V7 C+10V7 C+10V3 D0V4]

$$ALL
  [D+8 rV100 rV100 A0 E10V120 r rV65 G0 B6V9 rV129 r rV65 G+0 rV24 F+0 rV7 D+0 C0V4 B1V1 rV24 F+0 rV7 D+0 D+2V10 A0V28 A+0V10 G+7V11 rV91 A0 D+2V10 A0V28 A+0V10 r A0 D+2V10 A0V24 B1V1 rV24 F+0 rV7 A0 D+2V10 A0V25 A+0V10 G+7V11 rV93 A0 B1 C0V4 B1V1 rV65 G+0 rV244 D+0 rV11 C1V4 rV91 A+0V4 D+0 D+7V13 D+0 rV11 rV7 B6V42]
  [D+0V3 rV100 rV65 G0 E5V78 rV3 G+0 D+10V255 rV8 G6V84 D0 D+16 D+0 D+2V10 A0V28 A+0V10 G+7V11 rV91 A0 D+2V10 A0V28 A+0V10 rV24 F+0 rV7 D+0 C0V4 B1V1 rV24 F+0 rV7 G6V84 C0 rV24 F+0 rV92 A0 C2V10 A0V28 A+0V10 rV24 F+0 rV7 D+0 C0V4 B1V1 rV24 G+7V11 rV93 rV24 A+9 D1 B0V4 r A0V7 D+0 rV12 F+0 rV10 B0V4 r A0V39 D+0V255 rV9]

$$ALL
  [rV98 rV128 B0 G10V12 B6V13 rV88 E5V78 rV7 G6V84 F+0 D0 rV4 D0 rV3 D0 rV80 rV8 B7 rV93 C+8 rV91 B7 rV93 G+7 rV96 F+7 rV65 G+0 E11V93 G+7 C0V255 rV9 F6 rV65 A0 F6 B1V99 C0V4 B1V1 rV24 F+0 rV7 D+0 C0V4 B1V1 rV24 B7V11 rV96 A0 D+2V10 A0V28 A+0V10 A+7V11 rV95 A0 rV65 A0 A+7V11 rV95 rV7 D+0 C0V96 B1V1 rV24]
  [D+0V35 F+7V3 A+2V96 D0V255 rV9 A+10V180 r B0V1 r rV229 G+7V129 F+0 D+8V131 rV93 G+7 F6 D0 rV3 D0 rV3 D0 rV3 D0 rV3 D0 rV3 A2 G+7V129 D0 rV1 B6V6 rV80 rV11 G0 B14V80 r B7V11 rV96 A0 D+2V10 A0V28 A+0V10 A+7V11 rV95 A0 B1V99 C0V4 B1V1 rV24 F+0 rV7 D+0 C0V4 B1V1 rV24 A14 A+7 C0V4 B1V1 A+0V10 A+7V11 rV96 A0 B1]

$$ALL
  [B7V11 rV96 A0 D+2V10 A0V28 A+0V10 B7V11 F+0 rV7 D+8V11 F6 D5V89 D+0 F+7V13 D+0 rV11 C1V4 rV89 A+0V4 D+0 B7V13 D+0 rV4 r rV4 A+2V91 D0V35 C+8V3 r F+1V131 C1 D+8V12 F6 F+0 G+7V129 F+0 D+8V131 rV93 G+7 rV65 A0 rV3 D0 rV3 D0 rV3 D0 rV3 D0 rV3 G6V84 G+0 D0 rV3 B14V80 rV10 F0 G6V84 D0 D+16 D+0 D+2V10 A0V28 A+0V10]
  [C0V4 B1V1 rV24 F+0 rV7 D+0 C0V10 A0V28 A+0V10 C0V80 rV2 A0V7 rV10 B0V4 r A0V7 D+0 rV12 F+0 rV10 B0V4 B7V13 E5V78 r B0 G10V12 rV128 G6V84 E0 rV65 A0 B14V80 rV7 D0 rV4 D0 rV3 D0 rV12 E8 C+8 rV91 B7 rV93 G+7 rV96 F+7 rV98 G+7 rV98 r rV1 F+7V129 C11V180 F6 rV65 A0 r rV65 A+0 rV24 F+0 rV7 D+0]

$$ALL
  [D+8V11 rV100 A0 D+2V10 A0V28 A+0V10 rV24 F+0 rV7 D+0 C0V4 B1V1 rV24 F+0 rV7 G6V84 C0 rV24 F+0 rV88 A0 C2V10 A0V28 A+0V10 rV24 F+0 rV7 D+0 C0V4 B1V1 rV24 D+8V11 rV100 rV24 G9 G+7V13 A+0V4 D+0 D+8V13 D+0 rV11 C1V4 rV95 A+0V4 D+0 B0 G6V84 D+0 rV65 A+0 G6V84 F0 r B6V6 rV80 r B6V24 rV110 D0V19 G6V84 C+0 rV117 B11V129 G+10V105]
  [C0V4 B1V1 rV24 F+0 rV7 D+0 D+2V10 A0V28 A+0V10 D+8V11 rV100 A0 D+2V10 A0V28 A+0V10 r A0 D+2V10 A0V24 B1V1 rV24 F+0 rV7 A0 D+2V10 A0V25 A+0V10 D+8V11 rV100 A0 B1 C0V4 B1V1 rV65 A+0 rV12 F+0 rV10 B0V4 r A0V7 D+0 rV12 F+0 rV10 rV4 r B14 A+0 B14V1 r E5V78 rV255 rV11 F6 C0V255 rV12 D+9V3 F+1V122 r D1V3 D0V19 F+1V3 E0V15]
