
$UNKNOWN_0x83, $FM1,

!ALL

@T56.00

$Inst1,
$Inst2,
$Inst3,
$Inst4,
$Inst5,
$Inst6,
$Inst7,
$Inst8,
$Inst9,
$Inst10,
$Inst11,
$Inst12,
$Inst13,
$Inst14,
$Inst15,
$Inst16,
$Inst17,
$Inst18,
$Inst19,
$Inst20,
$Inst21,
$Inst22,

$$ALL
  [D+5 D+5 D+5 r r r rV4 r r r r r r r r r r r r E8V97 G2V32 C+9V101 B8V114 C8V117 G+8V97 G2V121 B8V99 D+18 C0 C0V126 C+6 rV27 F+8 rV190 C+9 rV97 C2 rV167 D+15 rV24 E16 rV204 C+19 rV134 F+14 rV145 D+4 rV107 D+11 rV111 F9 rV92 C+7 rV212 F17 rV127 G19 rV246 E8 rV26 C16 rV165 B10 rV230]
  [D+5 D+5 D+5 r r r G+20 r r r r r r r r r r r r C8V32 B8V114 D9V40 C8V41 G+8V70 D8V118 F9V99 F4 C0 r rV5 F0 rV7 F+0 rV9 G+0 rV10 A+0 rV13 G5 rV156 C+13 rV161 F+13 rV165 A13 rV168 C+14 rV173 F14 rV176 G14 rV178 A+14 rV181 C+15 rV184 E15 rV187 G15 rV189 A15 rV192 C16 rV1]

$$ALL
  [rV2 r D+0V2 C+0V4 C0V3 A0 D+0V4 rV2 r r r r r D+0V4 C+0V3 C0V1 r r r D5 C0 r r E8V97 F+9 D5 C7V62 r r r r r r r r r rV255 r rV255 r rV255 r rV255 r rV255 r rV255 r r F0V6 F0V59 B8 rV99 C5V10 rV99 C5V10 B8V48 F6V105 A0V111 F+9V116 E5V73 r E0V7 D1V17]
  [E0V6 C0V3 C0V1 F0 F0V8 C0V1 rV1 E0V5 C+0 r r r rV1 F+0V1 C0V1 C0 r r rV41 rV1 rV1 r r E8V101 r r r r D+1V1 D0V16 D+1V6 G0V16 D+1V11 C1V16 D+1 C+0V208 D+17V5 F+0V208 D+17V10 B0V208 D+17V15 C0V224 G18V4 F0V224 G18V9 A+0V224 G18V14 C0V1 E0V6 F0V6 rV5 D+6V71 D8V83 D+6V71 D+9V121 D9V107 D9V97 C5V114 C8V101 F9V101 r rV2 A0V12 G1V65]

$$ALL
  [A6 G5V82 rV3 C+4 E5 D8V79 E8V32 D+3V111 D+20 rV34 E5V31 F+2 rV5 F6V50 rV65 F9V99 G+8V101 F9V77 B2V244 D+5 rV65 C4V31 F+0 F6V78 r D8V114 E8V32 B2V244 E5 rV100 C8V31 F+0 F6V78 r B5V116 E5 C0V1 B0V11 F0V5 C0V255 r r D+1 F0V83 C6V83 D+0V78 G2V114 C0 F6V78 r rV77 G+5 A+10 C1V67 C9V97 rV49 D1V14 B0V12 A0V9 F+0V6 D+0V3 r rV1 C+1]
  [r rV1 C0V73 D+15V1 E8V116 F9V114 G+8V97 rV77 rV21 rV177 D+20 rV68 B15V69 rV184 G+5V101 A9V114 A+5V105 E8 G2V2 A+0V15 B0V36 D+2 G6V192 A6 G+1V69 G2V105 F+9 G2V26 G+2V10 F1V26 A+20 G6V192 D7 B0V72 D+9V110 rV255 D1V14 G+0V8 C+0V1 rV3 C0 F6V78 r F9 r rV97 rV77 G+5 D2 D+0V84 C+0 F6V78 r F+9V32 E6V104 r C+1V13 A+0V10 G0V8 E0V5 C+0 C0V253 r C0V1]

$$ALL
  [r rV255 r rV108 F+6V101 G2V117 D9V41 rV51 A2V31 F+2 D+5 E0V5 C+4 E5 D8V68 D+8V71 B5V103 D+20 rV17 F+5V31 F+2 rV5 F6V50 rV65 A+5V105 E8V49 rV19 B3V31 D+18V65 G+7 E0V5 C+4 E5 G+8V97 C+4V70 A+6V223 F+2V67 F+5 rV76 E0V1 r rV108 G5V115 A+5V105 F+8V44 rV77 G+0V23 C+1V17 D+20 rV68 B15V69 rV184 A6V100 B8V77 r C1V12 A0V9 F0V6 C+0V1 rV3 C0 B1 C+1V73 C+9V32]
  [C0 C6V83 C0V78 G9V105 F9V118 C8V32 E6 A+1V255 G+14 r G5 G+5V73 D+15V1 E8V116 G9V114 G9V114 rV77 G+0V23 rV177 D+20 rV68 B15V69 rV184 B6V73 F9V84 E6 G1V17 G1 r G5 G+5V73 D+15V1 C6V32 B6V110 rV7 F+20 rV17 rV4 rV32 C6V83 C0V78 G9V105 F9V101 F9V40 G8V110 D+20 rV17 F+5V31 F+2V84 rV5 F6V50 rV65 F+5V109 r C0V15 A+0V11 G0V7 D+0V3 C0V255 r F6V78 r G9V117 rV78]

$$ALL
  [A+6V89 F6V11 G2V105 A5 rV9 rV13 C1V105 rV2 B0V76 E0V1 r rV109 G9V83 E6 C+1V57 G+4 r G5 G+5V73 D+15V1 E8V116 G9V114 G9V114 G2V105 D+8V100 A5V36 F+2 D+5 rV51 E6V13 C0V6 rV32 C6V83 rV78 C8V32 D9V103 r C0V15 B0V11 F0V5 C+0V255 F+0V255 r C+4 E5 C10V98 F+8V114 rV54 D1V15 C1V12 A+0V10 G0V8 E0V5 C+0 C0V253 r C0V1 C0 C6V83 C0V78 G9V105 F9V101 F9V40 D8V97]
  [r C9V97 A5V36 F+1V79 F6 rV49 E6V13 r rV32 C6V83 C0V78 D8V32 G+3V71 rV52 C+4V19 F+2V78 F6 E0V5 C+4 E5 D8V68 D+8V71 B5V103 G8V98 C8V101 G2V32 rV16 D+3 F+0V251 rV2 B12V76 E0V1 r rV105 E8V32 E3V77 r C1V13 A0V9 D0V1 C0V1 rV1 G+5V73 D+15 C8V104 G2V76 E6V109 r C+1V13 B0V11 A0V9 F+0V6 D+0V3 r rV1 C+1 r rV255 r rV108 G5V115 A+5V105 F+8V41 G2V99]

$$ALL
  [C+9 G2V9 D+1 rV244 A+20 C+0V255 D+6V7 C0V78 r B8V99 F+9V111 G+8V97 G3V67 D8V97 C+9 G2V9 C+1V14 F+0V244 F+3 C+0V255 D+6V7 C0V78 rV110 C9V181 B11 rV255 rV255 r r r r r r r r r F+20V29 D+16V229 A+12V177 F+10V51 E6V127 F6V127 D+4V56 D15V51 A+10V129 G10V179 B16V225 C2V91 A0V19 G+18V62 A16V216 C+7V22 A1V6 G20V190 F+4V232 F2V38 A7V232 G4V73 D9V17 B14V170 G11V143 D13V188 D+20V9 F4V107]
  [B2V244 D+5 rV67 D4V31 C1V8 rV12 G2V80 A+6V132 F6V54 G+8V32 E8V32 D+3V105 C+9V41 G2V99 B2V244 D+5 rV67 D4V31 C1V8 rV12 G2V80 G6V232 E8V68 rV111 r rV255 rV255 r r r r r r r r r F+10V192 F+2V220 A10V162 F+14 D+8V244 G+13V250 C4V255 C13V45 G10V128 A15V146 B20V225 G8V44 D+5 F+7V30 C+8V58 F2V74 A+17V94 G+17V230 B16V205 C+0V50 A5V86 A+0V240 C17V199 D+14V212 G+15V133 E17V17 D+0V31 F5V127]

$$ALL
  [C7V31 C5V52 F+19V17 B20V17 A+0V37 G0V236 C+3V35 B20V3 A16V159 D16V254 A20V234 B16V205 F+0V33 D+19V194 A+1V238 G+17V201 F+1V6 A+20V251 D+0V49 F1V10 B7V85 A0V254 D20V246 A+15V179 G+10V156 C17V8 D3V51 F0V214 F+19V134 A+14V183 A+3V10 C+1V60 G6V24 E4V244 B16V184 C18V220 A3V10 B0V42 D+6V127 D+3V68 D16V225 A15V149 E15V242 G13V156 A+13V204 F+1V87 C2V53 D+4V35 G+20V14 A+2V2 D19V228 D15V219 A5V73 B6V123 D+4V45 rV214 D+18V173 G11V141 G2V21 C20V49 F18V24 G19V221 E14V214 C19V181]
  [D+3V247 F+18V219 A4V74 C+5V58 C1V55 B20V42 F19V240 G+16V201 D+14V188 D1V16 G+17V17 G+20V251 A+20V18 C19V26 A20V246 D+17V194 C+18V252 D+19V224 G7V25 D8V73 F+10V109 B4V33 rV218 F+12V128 A+14V224 A+20V60 D2V247 F+18V217 D13V192 B18V254 C4V127 B3V55 G0V13 F+17V224 F+17V193 F+0V89 D19 F+6V22 A+9V120 E6V227 G13V148 B15V182 C+18V190 G13V176 D15V211 E1V40 G+7V108 C+0V226 G20V63 F1V5 C+19V196 C18V12 D6V111 E7V82 F+0V16 G18V238 D+14V204 A14V248 A+12V17 G+18V17 C1V182 G+15V216 E1V222 D+3V69]

$$ALL
  [A+2V15 F+1V10 F7V74 F+10V119 G+0V255 A+14V188 D0V219 F11V128 F+12V129 A0V247 F+6V81 D+2V244 C+19V251 G19V209 G18V12 G4V53 D+9V124 B3V18 C20V218 A12V173 E3V127 F+8V20 rV247 G18V200 E15V158 D+13V180 A16V243 C+2 F+5V73 C+4V39 C7V61 G18V185 F+16V180 F+12V235 F+19V32 F+8V89 F+10V127 G+2V70 E16V175 C13V133 D11V195 D+16V209 C+3V52 F6V85 F7V12 D20V232 D18V234 F0V239 G1V82 E5V34 E6V30 D18V201 G+17V248 C19V244 F+19V219 G16V247 A+19V217 A+0V43 G4V53 A+18V238 B19V212 C18V252 E0V232 D2V255]
  [E1V30 C10V127 G4V78 D0V254 D1V15 A16V37 A20V230 F11V152 G17V233 E1V58 A+1V34 A18V216 E14V207 C13V206 A+2V69 E6V94 C6V45 C18V236 G18V227 F4V39 C7V115 D5V81 G18V1 G10V161 E12V150 G10V166 A19V1 E3V93 C9V103 A1V65 C7V10 C+16V206 F17V203 A17V5 F3V40 G+8V100 F+10V44 D+0V222 B12V151 G10V128 G14V202 C1V24 F3V68 D7V81 C4V3 B19V248 A18V175 E15V223 G+6V18 G9V52 C+17V178 C18V228 A18V249 B18V245 C20V207 C+18V247 A+3V55 G8V115 F+0V251 F20V241 A+17V192 A+19V244 F4V33 D+3V63]

$$ALL
  [E5V59 A+1V18 G+18V212 rV8 C1V44 D+17V28 F1V41 rV235 F+13V157 G+16V204 F+0V41 E2 G2V35 A5V54 C1V245 C+16V154 E16V226 A19V52 E5V107 D4V59 D20V247 D+0V233 F+1V226 D+1V242 F+14V156 F+18V210 A19V38 F+3V5 A+0V7 F0V253 A+15V251 G+18V33 F+6V63 F+4V83 F6V68 B3V28 A+19V182 G+17V159 F+19V233 E4V31 F18V250 F+17V215 G4V60 D+5V15 E4V61 A+15V211 D17V215 G+20V244 G20V238 G3V67 A+5V63 C+5V77 F3V209 G+18V217 A+13V223 F+1V18 E3V21 D5V40 E4V58 D20V14 E20V222 B15V220 E18V193 G0V246]
  [C+1V255 F1V10 G+18V236 C18V1 D+19V5 G+1V249 B3V48 B17V184 G+15V189 D+18V17 A3V66 D+5V38 G6V37 D+0V11 D+19V254 E15V217 E17V225 F20V53 A5V48 G+2V18 D17V240 E17V17 A20V242 C20V205 E13V251 C0V31 B20V33 D+1V251 D+20V37 G+15V201 G+15V4 A+19V15 D2V50 F+1V44 A20V63 A+20V215 F17V218 C+14V191 F+6V3 C18V8 C13V171 D20V240 C3V108 C+2V13 C2V42 A+13V189 F18V243 B18V226 D1V16 C2V67 A+1V53 B20V237 D+18V202 G+14V128 C18V243 G+19V15 F6V70 D4V25 C+1V45 C20V240 D20V211 C+17V229 E20V250 G19V201]

$$ALL
  [D+3V12 C+5V68 G4V46 E20V201 C18V212 G17V186 C16V188 E0V8 G20V27 F+0V3 C+3V78 D+1V45 G1V253 B0V35 D18V204 F+0V235 F+14V198 G12V177 C20V240 A+1V23 F3V47 E18V44 G7V109 B4V20 B16V203 B12V169 G0V16 B19V42 A+0V247 D+19V226 A19V44 G3V44 C+20V214 G19V222 E1V16 rV7 G17V248 C0V6 C4V19 A+0V250 D0V240 F17V242 C+17V226 G+16V10 G+2V43 F1V5 G+18V225 B5V231 D+6V34 G+0V248 G+16V219 E16V230 D19V218 E4V12 B6V59 A6V78 F+0V3 C+17V190 D17V201 G+13V169 A+1V27 C4V48 rV5 C4V41]
  [G+3V43 F+2V82 D+0V29 F+16V195 D20V220 A16V245 F14V221 G0V27 rV30 G1V28 C+7V61 D3V77 rV255 B17V210 F+18V229 E0V255 E15V189 C+18V233 B0V35 G20V2 F2V253 F+3V55 B2V13 A0V4 A+15V155 A18V199 rV246 F19V9 E2V240 B1V34 G+3V21 G1V249 D20V19 D17V210 C20V242 G+19V20 B1V229 F0V3 D3V6 A+6V48 F+20V236 C20V17 G14V185 A20V55 D0V23 D16V218 G+17V248 D6V6 F+4V2 G19V185 B15V202 G19V250 C+17V18 B5V100 G+4V60 A+2V22 D17V238 C+17V218 B14V175 A16V234 F+19V11 E4V52 A0V10 rV250]

$$ALL
  [D+1V24 G+20V253 C19V24 D15V164 E19V31 G2V44 F20V8 E20V16 A18V184 C19V219 C19V224 G3V90 D3V37 rV222 A13V171 G+16V191 G20V243 G+2V21 F4V63 D+3 G+19V222 C+18V249 E1V240 A2V73 C21V235 E19V3 A+17V1 C+1V220 G18V221 G18V2 A0V36 F+3V44 A+2V42 A+3V26 D20V215 G+19V209 G+0V70 A+3V33 B18V234 A16V234 C17V216 D15V211 F20V248 C5 A+2V39 E17V213 B16V191 C16V199 C20V11 B3V12 F5V23 B2V4 C0V246 E20V253 B18V234 C18V249 C18V219 B16V202 E18V243 F18V10 C+3V17 F+4V26 C+3V50 D3V5]
  [A0V11 G+20V238 C+1V246 A16V213 F+3V44 G3V72 F20V14 C+2V28 F17V221 A19V176 E5V51 D6V12 C+5V19 C18V197 C+14V175 A+20V235 E1V19 F+3V19 F+1V39 A0V252 C19V207 E19V14 rV8 A2V252 G20V33 F0V233 rV8 D16V214 D+20V224 G+19V15 C+20V239 B2V13 G0V55 B19V189 E20V9 C1V34 C+5V82 F19V244 C1V206 D+19V221 F20V208 F17V242 F+3V253 A+8V79 B4V24 F15V179 D19V219 C20V11 E4V79 G4V84 D+4V42 G+0V7 A+20V241 B20V243 B20V3 G+14V215 A+18V194 D+20V218 rV239 F+2V36 E2V43 F+2V44 D+3V29 F+2V249]

$$ALL
  [C+18V243 A15V202 D+0V253 D+0V239 C0V240 rV250 A0V245 C+19 G1V42 D+2V251 B0V20 C19V18 B20V223 F+19V14 D+17V239 G19V243 C+19 D0V237 C+3V14 A+18V246 C1V247 C0V14 F1V254 C2V35 E1V22 G+20V207 E19V6 G+18V8 E6V91 A1V13 E1V247 G16V2 C+20V15 A+19V230 A20 D+1V40 rV6 F+0 C21V11 A20V249 rV250 F+3V44 A0V251 D20V234 C+20V239 F20V11 D+1V19 B20V252 E20V243 A2V16 C1V242 A20V26 rV20 D+3V59 D+2V15 A+0V230 D+20V236 A17V194 A16V233 E19 C3V33 D1V4 F+1V13 D+0V244]
  [A+20V239 A+17V237 D0V59 C+1V10 A19V251 C+19V7 C21V219 A0V23 A+20V240 A+19V218 F1V5 C+19V253 G+20V224 F+3V20 A+19V54 C+0V46 E20V228 G+2V45 A+1V247 A+0V49 C21V247 G19V253 G+0V11 rV238 F+19V231 E18V174 G16V219 F1V22 A+5V19 G+20V244 C19V237 B19V9 A20V241 A+16V229 D0V26 A+5V51 D+0V252 E1V231 F20V221 F+0V25 D20V247 C2V26 D0V238 A20V226 B17V207 B18V245 F+1V54 F+20V248 F18V249 D2V7 G+19V221 G20V238 E0V24 B2V15 A1V7 E20V205 C21V246 F+16V198 G19V219 E1V33 G+2V23 G+20V19 D0V234 C0V246]

$$ALL
  [C17V212 G19V238 D1V3 F+2V19 C+2V32 C+0V243 G19V227 F19V242 B17V195 B1V252 E20V54 G+0V22 G+2V11 E18V235 D20V2 A+0V2 B0V239 F1V31 F3V23 D20V11 rV250 A20V33 C2V13 C+2V27 C+18V187 A+16V211 C20V251 C+0V14 rV247 E18V249 C+1V31 B2V12 B1V15 C+2V255 B20V226 F20V248 A19V15 E1V250 F1V11 A+17V232 C+20V240 D+17V255 D+1V1 A+1V2 G+1V6 A+20V251 F17V228 C2V7 A0V26 B20V242 rV250 rV241 F+18V240 D+20V251 F+3V52 D3 D+20V6 D+18V218 C16V220 A+18V214 F+1V20 D+1V26 D+0V11 E1V24]
  [A19V223 A+1V38 G+2V38 E3V61 E0V11 D17V215 F+20V249 A+18V198 A+19V252 E18V229 B1V42 E3V18 D20V218 C+20V5 G19V240 C19V234 F0V35 D+0V11 C0V5 A1V9 E20V247 E2V33 F2V44 D18V208 C19V215 B18V240 D1V23 G+1V31 C19V226 A0V10 F2V38 C1V18 A+0V20 D+1V6 A+18V228 A+19V252 A2V35 G+0V255 D+20V231 E19V242 F19V217 G2V27 D0V249 A2V23 C+20V239 E17V217 rV244 C21V2 F2V25 C+2V58 D+19V234 B17V230 A18V237 G+1V252 G3V42 A+2V8 G+0V6 F16V188 D20V243 rV17 F0V6 D1V20 G+20V248 D+0V248]

$$ALL
  [G+20V247 A+20V239 A+18V249 C20V244 D2V53 G+4V34 rV242 B0V251 G+18V236 C19 C+20V2 A+0V13 D5V55 B20V251 G19V216 A18V225 D1V10 E1V6 E20V254 D1V18 B19V247 A19V246 G0V15 C+0V20 A+1V8 B19V229 D+19V239 G18V231 G19V250 F20V250 F1V41 F+1V39 G2V33 B0V255 A+19V214 D17V226 B20V1 C+3V36 A2V29 F+0V11 D19V208 F+18V230 E19V229 A+18V250 F1V25 E1V27 F1V8 A+20 D+1V15 F0V15 F+19V218 A+19V253 D0V8 B0V27 D0V254 D0V252 D0V251 C21V1 E20V240 C+20V236 G+0V240 B19V242 rV255 A1V17]
  [C+2V20 C17V223 G18V236 G+20V1 F4V42 A4V39 C18V225 F18V236 G18V248 A20V242 E0V8 C2V21 B2V23 C0V249 A+17V232 D+19V243 G+1V17 G0V9 G19V252 A+20V10 D0V249 rV21 F+0V3 E1V16 F20V7 F19V247 B19V235 B18V231 A20V246 rV7 E3V27 F+4V46 F+2V17 C19V223 A+16V206 A+17V225 rV8 E2V30 A1V23 D+20V253 G18V223 F18V218 C19V215 C21V2 G+3V37 G+1V25 F+0 A20V2 C21V250 F0V239 D20V239 G+19V247 F+1V20 C+1V13 G+20V246 C21V252 D+0V2 D20V249 G20V249 A+19V4 rV7 E0V250 C+1V7 D2V39]

$$ALL
  [D2V25 B0V16 F20V227 F18V228 C0V236 F19V234 C+0V10 D+1V19 D+0V15 B1V15 A1V13 E20V234 rV242 D0V255 F0V231 D+20V254 G20V252 G+0V6 rV3 rV248 D+20V251 G+0V5 C0V11 G18V244 D+0V248 C0V254 G19V225 A1V24 G3V33 rV240 E19V246 G20 D1V18 D+0V1 A+0 F0V255 D+19V231 G+17V212 D+18V223 A+20V246 E0V16 D3V20 F+4V42 C+0V254 D19V234 rV249 C0V2 F1V2 F2V28 D+20V241 D19V228 F+19V255 B0V254 G+20V255 D0V13 D+2V21 F+1V14 A+16V206 E19V250 C+0V2 A+1V25 F+2V32 B0V253 C21V6]
  [B2V38 F+0V5 A+19V246 G18V214 E20V222 A+20V250 A+20V6 A+20V3 G+0V20 A+0V12 A20V1 B17V249 rV4 C1V14 C21V236 E20V240 D+0V2 E0V2 D20V242 G20V227 G+0V6 A0V6 E0V236 D+20 F+20V255 F+20V253 D+0V2 F3V41 C+1V11 C21V249 D+20V239 A19V245 C+1V12 F+1V9 rV15 G+20V249 A20V230 A18V246 F+19V240 D+20V8 G+3V51 E4V34 A2V6 F20V248 A18V233 C20V247 F0V4 E0V17 A+0V246 G+20V242 F+19V233 G+20V253 D+0V1 C+0V7 B2V33 A0V10 F+20V215 B17V225 D20V241 D+0V15 F+2V36 A20V8 C+1V12 G20V244]

$$ALL
  [D20V238 G+19V242 C21V7 D+0V10 G1V9 D20V234 A18V238 rV8 B0V23 A+1V24 F+0V18 G0V3 F+19V228 F18V224 D18V241 D+0V9 F+1V15 D+1V19 A0V15 D20V241 G+20V237 A18V229 E20V252 C0V1 C1V21 B1V25 rV7 A+20V251 F+0 F+20V235 D+20V248 E1V7 G0V252 rV1 C21V246 D19V234 G20V254 C+1V18 D2V39 F+1V8 E0V7 A20V239 C+18V215 A20V252 D0V253 G2V18 A0V16 F19V226 F+20V237 A+20V2 D0V246 C21V9 D1V8 rV253 G+20V252 A+20V249 C21V240 G20V245 rV255 C+0V11 C+1V6 G20V252 F+20V254 D0V2]
  [G18V235 B19V233 A+20V253 B0V5 B20V253 F18V213 A20V2 G1V19 C+2V16 D1V14 B0V6 A0V7 F19V229 D+19V229 rV244 F1V16 C3V35 A0V8 F20V255 rV2 F19V230 E20V238 B20V250 rV255 F2V30 C+2V15 E0V4 A+0V7 E20V248 G+19V242 G20V250 G0V7 G+20V255 G20V246 C20V235 E20V247 A+20 C1V8 F2V24 G+0V4 B20V250 F20V239 F+19V234 A+0V11 D1V22 D0 D0V251 C19V244 G19V234 C21V253 F+0V7 F0V10 G1V18 A0V8 F0V13 rV255 G+20V251 A+20V2 F+0V246 B0V10 F0V254 F20V243 C21V249 D0V4]

$$ALL
  [G+0V10 rV5 D19V227 C+20V238 C0V1 D+0V1 F1V13 F2V25 F2V17 E20V244 B20V248 G+20V242 F+20V241 rV3 rV2 F+20V255 C21V5 D+0 F0V6 B0V10 E0V4 F+20V250 E0V4 G+0V10 C0V255 rV5 C+0V253 G0V5 G0V6 C0V4 rV245 A19V244 F+19V234 B20V249 C0V7 C2V25 C2V28 D0V249 B20V5 rV9 G+0V11 F20V251 F20V241 F+19V234 B19V240 C21 A+0V16 A+1V16 rV1 E20V252 F+20V242 E20V250 C0V6 A1V13 D1V17 F+0V250 A+19V236 G+19V243 B20V248 G+20V253 E0V6 D+1V7 A0V3 rV244]
  [C1V7 E0V236 B18V234 F+19V239 D+0V2 F1V21 C+1V31 F+1V16 D0V250 A+19V247 D20V244 D19V236 F0V4 C0V8 F0V3 G20V250 C0V4 F+20V248 rV245 A+0 D+0V6 E20V227 D0V4 G+0V1 A+19V249 rV252 A+20V3 A+0V11 F+0V247 D0V4 C+19V228 D19V241 G20V254 D20V247 D+1V14 G1V18 D+1V5 D+20V237 C21V255 C+1V22 r C0V3 E20V233 F20V235 A20V243 C+0V17 D+1V13 A0V1 C20V238 B20V255 F+20V245 C21V253 A0V20 G+1V20 A0V10 F+19V251 C+19V230 C21V1 G0V249 C+0V3 F1V21 C0V3 A+20 A20V255]

$$ALL
  [A+19V228 D20 A20 B1V14 A+1V18 C21V2 E20V242 rV252 F+20V246 F+0V12 C+20V248 G20V241 G20 D+20V249 F+0V8 D+0V10 G+0V20 A20V251 D0V247 B20V252 rV250 E20V239 B20V253 D+1V18 rV255 G+20V254 F+20V250 C21V244 D0V1 G+20V247 F+20 A0V9 G0V11 G20V247 G20V241 D0V6 A0V5 G0V250 rV3 r F+20V245 B20V252 D0V7 G+0V4 F0V6 D+0V249 C20V240 rV9 F0V5 rV255 C+0V2 E1V14 A+0V10 rV245 F+19V227 F19V240 G20V254 D+1V11 E2V23 D0V254 rV254 rV245 A19V238 E20V249]
  [D+18V231 rV246 A0V14 F+0V13 C1V8 G+0V255 A20V7 C+0V250 C0V254 D1V255 B20V250 D+20V248 rV249 G+20V254 G+0V15 F+0V4 C+1V9 E0V255 B19V243 A+20V252 F0 A+20V253 C0V10 D1V6 C+0V4 C0V255 F20V254 F20V249 rV243 B20V247 B0V13 D+0V9 F+0V6 B20V251 D20V248 D0V9 F1V15 F20V247 rV252 C21V253 A+19V251 r C0V4 rV7 D+0V1 F19V250 A19V234 B20V253 D+0V8 C+0V252 G0V15 F+1V22 C1V7 E20V246 A18V229 D20V247 E1V17 E1V24 A+0V5 rV255 rV250 E19V237 G+19V241 A+20V9]

$$ALL
  [C+1V9 A0V14 D0V3 rV252 C0V2 C0V253 B20V252 A+20V252 G20V247 B20V2 G0V10 A+0V1 E20V248 G20V251 rV5 G+0V6 rV254 E20V253 A+19V242 A+20V248 D0V10 G1V20 D+0V3 E20V242 A19V246 rV255 rV5 F20V249 C21V253 G0V12 B20V249 F20V255 rV3 B20V252 rV1 C0V1 A+0V11 D+0V253 D20V247 G20V249 rV252 C0V5 D+0V2 F+20V249 A+20V254 A+20V254 rV9 A1V17 A0 rV252 A+20V249 G+20V247 A+20V255 C0V252 F+0V2 C+0V3 E0V3 F+0V9 A0V4 C20V241 A+20V250 A+20V252 D0V5 G0V5]
  [C+1V13 G0V8 r A20 C0V253 D+0V1 rV249 G+20V249 rV251 D+0 F+0V10 B20V247 B20V250 G20V252 A+0V10 D1V10 G+20V245 A20V252 rV251 F20V252 F1V15 A+1V16 C0V250 E19V233 A20V254 D0V6 D+0V253 rV251 D+0V7 D0V3 C21V255 D+0 C+0V254 C21V254 F+20V250 D+0V10 D1V12 A+20V248 G+20V244 C+20V248 rV3 F+0V6 C0 C21V251 B20V254 D0V254 G1V23 G+0V8 A20V251 C21 D20V243 A+19V246 C0V2 E0V7 C21V1 G0V5 D0V255 D0V2 A20V250 A19V237 G+20V250 F0V6 G+0V8 F+0V9]

$$ALL
  [G+0V8 C21V2 F+20V252 F20V248 A+20V2 rV2 B20V252 B20V247 r F0V255 G0V3 F+20V254 D+20V248 rV253 C0V254 A+20V2 E0V7 C21 rV6 B20V250 C+20V245 B20V255 rV3 F+0V7 F+0V10 F+0V7 C21V1 B19V245 B20V1 A+20V252 B20V255 F+0V17 G0V9 G+20V247 G20V249 C0V10 D+0V5 G0V1 C0V2 rV1 F20V244 F20V245 rV4 C+0V7 D1V14 F+0V6 B19V245 A20V250 C21V254 rV255 C+0V253 rV2 A0V8 D0V254 E20V249 F20V249 D0V2 C+0V254 rV252 C21 C+0V1 C21V250 A20V253 F+0V3]
  [rV253 rV255 G+20V254 A+20V254 D+0V5 C21V255 G+20V254 A+20 rV3 F0V12 A+20V252 C21V247 G+20V253 rV2 B20V252 F+0V5 G0V5 rV255 A+0V1 B20V245 rV4 A+20V250 D0V5 C1V9 G0V251 E0V3 rV249 B19V245 rV248 rV252 D0V8 G0V4 G+0V4 B20V254 F+20V241 F0V5 G0V10 G0V5 C+0V251 rV251 D+20V245 D+20V242 G+0V6 A+0V10 G0V7 B20V248 B20V251 G+19V241 C21 D0V7 rV254 G+0V9 F0 B20V248 E20V245 A20V253 D+0V6 rV254 C21 C+0V1 A20V253 G20V246 F0V6 F+0V10]

$$ALL
  [F0V4 rV254 D+0V2 rV2 C21V252 G20V245 A+20V247 B20V251 E0V6 D+0V5 C+1V6 G+0V10 A+20V253 G20V243 F+20V251 F0V10 E1V10 B20V254 G20V250 B20V255 D0V255 rV252 C+0V1 D+0V8 C0V2 B20V245 rV252 rV5 C+0V1 D+0V4 C0V255 rV1 r A+20V248 G+20 F+20V255 B20V253 D0V6 C0V2 rV1 D+0V2 A+20V248 C21V4 F0V6 rV1 rV253 A+20V250 rV3 D0V5 C21V251 rV255 D0V4 D+0V6 D+0 B20V248 rV253 E0V3 rV254 F0V5 rV1 G20V250 rV253 rV2 G0V6]
  [D+0 rV4 C+0V4 C21V254 G20V253 F20V249 C+20V247 A+20V250 A+0V9 A+0V17 D0V8 D+0V4 G20V247 B19V247 G+20V254 D1V13 G0V3 G+20V253 B20V251 rV255 A+20V251 E20V253 C+0V4 E0 C21V255 F20V250 C21V253 G+0V3 rV6 G0V4 rV255 C0V254 rV252 G20V249 A20V243 C0V2 C+0V3 D+0V5 rV252 C+0V255 C0V253 G20V251 C+0V255 C0V255 rV1 rV255 B20V250 C0V1 C21V249 rV253 C+0V4 C+0 F0V4 rV254 A+20V254 C21V253 rV1 C0V7 C+0V1 C21V247 A+20V250 B20V253 D+0V8 C+0V2]

$$ALL
  [G0V3 rV251 A20V247 rV250 C21V253 rV255 rV255 F0V5 A+0V6 C0V1 G+20V247 rV252 rV1 rV251 rV253 A+20V250 r rV254 rV250 rV1 C0V4 rV253 C0 C21V249 A+20V252 rV255 D+0V7 G+0V9 C0V1 C21V250 r A+20V254 rV253 D+0V2 C+0V2 G+20V251 A+20V253 C+0V7 C0V3 C21V255 D0V5 C+0V2 rV251 G+20V254 G0V5 D+0V2 C+0V254 C0V1 B20V251 B20V253 B20V251 C21V255 rV2 F0V6 F+0V5 rV254 A20V247 B20V254 rV3 F0V1 rV2 C0V1 rV253 F+20V249]
  [rV1 C21V1 A20V253 A+20V253 C21V255 rV254 D0V8 E0V7 E0V5 C+0V253 rV2 C21 C0 rV255 rV255 r rV254 C0 B20V253 rV1 D+0V2 r D0V3 G+20V250 B20V251 C0V1 F+0V8 C+0V255 C21V251 A20V254 C0V252 C21V254 rV1 rV255 C21V252 A+20V251 rV1 D+0V4 rV252 C0 G+0V3 A20V252 B20V251 C0V3 D+0V6 C0V2 rV1 r B20V252 A+20V250 B20V249 rV255 F+0V6 F+0V5 C+0V1 C21V249 F20V250 rV253 C0V4 C+0V2 C+0V2 rV3 rV251 B20V254]

$$ALL
  [rV254 rV255 rV255 C0 rV2 D0V3 D+0V255 rV253 rV251 r rV252 rV252 C21V255 C21V253 rV255 C+0V2 D0V3 C+0V255 B20V251 A+20V249 r D0 rV1 rV2 C+0V254 C21V254 r rV255 C0 rV255 C0 rV255 C21V255 B20V254 C21V254 rV255 D0V6 F0V3 D0V2 C21V251 C21V252 rV255 rV1 rV252 D+0V5 C0V1 C21V253 rV255 rV253 rV1 D0V4 C+0V1 D0V1 B20V251 C21V254 r C+0 D+0V2 D0V1 r A+20V251 B20V254 r C+0V4]
  [B20V254 C+0V1 rV255 A+20V253 E0V7 C+0V5 C21V255 A+20V254 rV1 C+0V5 C21V250 rV253 rV1 rV253 r E0V3 D0V1 rV254 B20V252 rV255 C0V4 rV2 C0V254 F0V5 C21V254 rV253 rV1 B20V255 rV255 rV2 C0V2 C21V251 rV251 r r rV255 G0V8 D+0V3 rV252 A20V251 A20V252 rV255 rV254 r D+0V1 C0V255 A20V254 C21V255 r r rV2 C+0V1 rV251 G20V249 B20V255 r D+0V3 C+0V3 C+0V2 rV252 B20V253 rV252 r D0V3]

$$ALL
  [D+0V2 C21V254 C21V255 rV254 C+0V5 C+0V2 rV1 C0V2 rV254 A+20V251 G+20V252 rV1 C+0V4 E0V5 C+0V1 rV254 rV254 A+20V251 rV255 rV1 C+0V3 D0V2 rV255 rV254 rV254 B20V253 rV255 rV255 r rV255 C21V253 C21V254 C0V1 r D0V3 rV255 rV255 rV255 C21V254 C0V2 rV255 C+0V1 C0V2 B20V251 C21V251 rV255 rV255 C0V2 C0V2 rV2 rV255 C21V253 B20V252 rV255 C0V2 D0V3 C0 rV254 rV255 rV255 r r rV253 C21V253]
  [r B20V251 rV254 C0V255 C+0 r rV1 D0V1 C21V252 A+20V249 A+20V252 C0V1 F0V3 C+0V2 rV255 C+0V1 B20V251 C21V252 rV254 rV2 E0V5 C+0V1 rV253 C0V1 rV254 rV254 rV1 C0V1 C0 rV253 C21V254 rV255 C0V1 rV1 C0 rV254 rV255 rV254 rV253 C+0V2 C+0V3 r C0V253 C21V254 C21V253 rV254 C+0V1 C0V3 D0V1 C+0 rV255 B20V251 C21V254 C0 C+0V1 C+0V2 rV254 C21V254 rV254 rV255 rV1 rV255 rV254 C21]

$$ALL
  [C+0V1 r C+0 C+0V1 C+0V2 rV254 rV255 rV255 C21V252 rV255 rV1 r C0V1 r r C0 C0V1 rV254 rV255 rV254 rV255 C+0V2 C+0 C0 r r rV255 rV253 C21V253 rV255 C0V1 C+0V2 C+0V2 r rV255 rV255 rV255 r rV255 rV254 rV255 r C0V2 C+0 rV254 r r r r r r rV255 rV254 rV255 r rV255 r r r rV254 C21V252 rV255 rV255 C0V1]
  [rV255 C+0V3 C0V2 r rV255 rV255 rV254 rV254 C21V253 rV1 C0 rV255 C0 r rV254 C0 rV255 B20V253 rV255 rV255 r C+0V2 r rV255 rV254 r C21V253 C21V253 rV254 rV255 C+0V2 C+0V2 C0 rV254 rV255 rV255 rV255 r rV254 rV255 rV255 rV1 C0V1 r rV254 r rV255 rV255 r rV255 rV1 rV255 rV253 r rV255 r C+0V1 r r r C21V254 rV255 r C+0V3]

$$ALL
  [C+0V2 rV1 rV254 rV254 rV254 r rV255 rV255 rV1 rV255 r r r r C0 r rV255 C21V253 rV255 rV1 r r rV255 rV255 rV255 rV254 r r rV1 rV255 rV255 r r rV255 r r rV254 rV255 r r r rV255 rV255 r rV255 rV255 r C0V1 r rV255 rV254 rV255 r r C0 r r rV254 rV254 rV255 r r r rV255]
  [C0 rV255 r rV254 rV255 rV255 r r rV255 r r r C0V1 r r r rV254 rV254 r C0V1 C0 rV255 rV255 rV255 rV254 rV255 C0V1 r rV255 rV255 rV255 r r rV255 rV255 rV255 rV255 rV255 r rV1 r r rV255 r r rV255 r rV1 rV255 rV255 rV254 rV255 rV1 C0V1 rV255 r r rV255 rV254 r C0 r r r]

$$ALL
  [r rV255 rV255 rV255 rV255 r r rV255 r r rV1 rV1 rV255 rV255 rV255 rV255 r C0V1 r rV255 r r rV255 rV255 rV255 r rV255 rV255 r r r r r rV254 rV255 rV255 rV255 r r rV255 rV255 rV255 r r r r rV255 rV255 rV255 rV255 r r r r r rV255 rV255 r r r r r r rV255]
  [r rV255 rV255 rV255 rV255 r r rV255 rV255 r C0V1 r rV255 rV255 rV255 rV255 r C0 r rV254 rV255 r rV255 rV255 r r rV255 rV255 r r r r r rV255 rV255 rV255 r r rV255 rV255 rV255 r C0V1 r rV255 r rV255 rV255 rV255 r rV255 r r r rV255 rV255 rV255 r r r r r r rV255]

$$ALL
  [rV255 rV255 r rV255 rV255 rV255 r r r r rV255 rV255 rV255 r r rV255 rV255 r r r C+4V34 G5V117 rV101 r rV255 rV255 r r r r r r r r C0V11 G2V235 F+1V254 A0V6 C0V247 C21V236 F20V254 F0V225 F+16V44 F19V179 B14V228 E18V252 G16V214 B19V9 G+1V26 C+4V42 F6V43 D7V104 A+7V93 B7V90 A7V76 G+4V62 B1V44 E20V46 C20V243 D+17V208 A15V166 F+12V158 F11V136 F11V132]
  [rV255 r r rV255 r r r r r r rV255 r rV255 rV255 rV255 rV255 rV255 rV255 r rV83 F5V115 C4V59 A+11 rV255 rV255 r r r r r r r r r A0V20 G0V16 A0V5 r G20V249 E18V7 G+18V236 E20V249 G+15V239 F17V189 D+20V216 E16V255 A19V231 A19V9 D+2V38 G5V45 C+7 F+7V101 C+8V81 A+6V88 C+7V69 F5V70 rV50 G1V252 E20V229 G+15V195 C+14V168 C12V164 C+11V136 A+10V131]

$$ALL
  [A10V130 A+10V132 G11V143 A12V157 D14V181 A15V198 F+18V235 F+1V14 G+3V58 B6V84 F8V108 D10V124 F+10V127 F+10V127 F10V125 D10V122 E9V111 D+8V97 C+7V83 A5V67 F4V47 D+2V12 C0V244 G+19V223 F+16V202 E14V175 A+13V163 E13V162 C+13V148 E12V146 G+12V150 G12V157 A+12V155 D+13V165 G14V174 G15V184 C16V196 A16V203 E17V209 C+18V219 A18V230 G+19V239 G20V250 C+0V2 D+1V16 A+1V29 G+2V36 A+3V47 D+4V55 B4V59 F+5V69 A+5V71 E6V78 A+6V87 D7V91 G+7V95 D8V100 E8V100 E8V101 C+8V96 G7V90 A6V84 G5V66 F4V54]
  [A10V131 D11V137 D12V149 G13V165 B14V183 B16V216 D+20V3 A+1V47 G+4V61 D+8V97 A9V119 E10V126 F+10V127 F+10V127 E10V124 A+9V116 A+8V104 G+7V90 F6V74 B3V44 D2V20 rV3 G18V231 E18V213 C16V196 G+14V167 C14V166 A12V150 D+12V153 C+12V149 D+12V144 A12V152 G+13V157 C14V175 G+14V180 D+15V188 A+15V195 E17V207 G+17V217 G18V224 F19V232 C+20V244 G+20 D+0V10 F1V20 D+2V31 D+3V42 C+4V49 A4V59 D5 F+5V68 C6V77 G+6V80 C7V87 G+7V93 C+8V96 F8V100 F8V103 E8V98 A7V93 E7V85 G6V76 G+5V63 E4V46]

$$ALL
  [E3V36 E2V25 B0V8 B20V252 G+19V233 F18V222 F+17V210 G+16V200 F+15V184 F14V172 G13V161 G+12V151 C+12V144 D+11V136 A+10V132 A10V130 A10V131 B10V133 G+11V142 F+12V154 G13V168 A+14V182 C+16V196 F17V212 B18V242 rV4 G+1V23 E3V46 C+5V69 A6V83 B7V96 B8V109 G9V118 C10V123 E10V125 E10V125 D+10V122 G+9V116 C9V108 C8V95 A6V81 E5V61 C4V46 G2V29 D1V10 A+20V248 G19V233 F+18V220 G17V210 G16V198 C+16V193 G15V189 F+15V188 F+15V187 G+15V187 B15V190 A+15V193 C+16V195 G16V201 B16V204 C+17V206 E17V210 A+17V215 D+18V218]
  [B2V33 F1V21 rV3 F+20V244 D+19V227 D18V216 D17V206 A+15V189 A+14V175 B13V168 C+13V158 F12V149 G11V139 D11V132 A+10V132 A10V130 A+10V132 D+11V137 C12V148 C+13V160 D+14V174 F15V189 G+16V205 F18V226 D20V248 C1V14 F2V34 E4V57 C+6V77 D7V92 F8V107 D+9V114 C10V122 E10V125 E10V126 E10V125 D10V121 E9V114 G8V103 F7V88 D+6V74 G+4V51 D3V36 B1V19 D+0 E20V242 B18V225 C18V215 D+17V204 D+16V197 A+15V191 G+15V188 E15V186 G15V187 A15V190 A+15V192 C+16V194 E16V198 A16V203 C17V206 D+17V208 F+17V214 A+17V217 D+18V221]

$$ALL
  [D+18V223 G+18V228 D19V232 E19V234 G+19V241 E20V247 G20V248 rV255 E0V7 G+0V11 E1V17 A1V24 E2V30 A2V35 D3V41 G3V45 B3V48 D+4V53 G4V56 A+4V57 A+4V61 C+5V62 C+5V60 B4V56 E4V54 C+4V45 A2V35 D2V25 D+1V14 C0 G20V243 E19V232 F18V217 F17V210 G+16V199 A+15V191 D+15V183 B14V179 F+14V176 D+14V171 E14V169 B13V168 D+14V171 E14V177 C15V187 B15V195 D17V212 G18V229 C+20V246 D0V10 A1V25 B2V43 G4V55 A5V70 G6V79 C+7V91 C8V98 F+8V104 B8V108 C+9V108 C9V108 C+9V104 D+8V101 A7V94]
  [F+18V223 A+18V229 F19V232 G+19V235 D20V244 E20V249 A20V253 C0V3 G+0V9 C1V15 G1V21 D2V26 F+2V32 B2V37 E3V41 A+3V46 C4V50 E4V54 G+4V61 B4V60 B4V62 D+5V62 A+4V59 E4V54 E4V51 D+3V38 F2V29 G+1V18 G+0V9 A+20V249 A19V235 A+18V224 A17V215 C17V205 E16V194 G15V188 D15V181 G14V177 F14V170 D+14V172 A+13V169 C+14V171 F14V175 A+14V183 F+15V190 G16V202 A17V217 C19V238 G20V253 C1V17 F2V37 A+3V46 A+4V65 C+6V75 A+6V84 F+7V94 D+8V100 G+8V106 B8V108 D+9V107 C+9V105 G+8V105 D+8V97 G+7V89]

$$ALL
  [D+7V86 C+6V74 C5V62 B3V47 G2V31 C1V12 B20V249 G+19V233 D18V217 B16V200 A15V188 B14V176 A12V155 E12V150 D12V142 C12V141 A+11V145 D+12V146 F12V147 B12V154 D+13V158 F+13V163 D+14V174 D15V185 F16V197 F+17V218 G+18V228 C20V244 rV4 C+1V15 B1V22 D2V30 C3V35 E3V42 A+3V45 D4V50 F+4V52 F+4V57 B4V62 D+5V63 F+5V69 F5V67 G5V70 G+5V70 C5 G+4V59 D4V48 D3V40 E2V26 D+1V13 D+0V2 B20V246 A+19V237 F19V234 F+19V230 D19V230 E19V234 G19V239 D20V246 G20V248 C0V255 E0V4 F+0V8 F+0V8]
  [A+6V81 A+5V66 F4V55 C3V41 A+1V19 E0V3 F20V243 C+19V222 F17V208 D+16V192 E15V180 F14V168 F12V152 B11V147 C12V144 C+12V145 A11V145 D12V148 E12V152 D13V156 E13V162 B13V168 G+14V181 G+15V191 C17V208 C+18V221 D+19V237 rV254 G0V6 E1V24 A1V26 G+2V36 D3V42 G+3V42 A3V47 D+4V52 F4V54 G+4V57 D+5V63 E5V66 G5V68 G+5V68 F+5V67 G5V67 C5V61 C+4V51 G+3V43 A2V32 G1V20 F0V5 C21V250 E20V243 G19V235 E19V229 C19V229 D19V232 A19V238 A+19V240 F20V246 C21V254 D0V1 E0V7 F+0V10 A+0V9]

$$ALL
  [F0V12 G0V7 E0V6 rV252 C21V249 E20V246 D20V241 G19V239 G19V236 F+19V234 D+19V234 F+19V239 C20V241 F+20V246 A+20 E0V5 A+0V13 E1V20 D2V25 F2V33 A+2V34 B2V36 G+2V33 G2V31 D+2V26 A1V20 E1V13 D+0V4 B20V249 E20V242 G19V234 C19V229 F+18V222 E18V216 B17V213 A17V212 G17V211 F+17V212 G17V212 G+17V214 A+17V213 B17V215 D18V217 F18V224 C+19V228 F19V235 C+20V243 A+20V252 F0V7 E1V22 E2V29 B2V39 G+3V47 E4V52 G+4V58 F+4V56 F4V50 A+3V46 C3V35 C2V23 G+0V9 A+20V247 A19V234 F18V218]
  [F+0V7 E0V3 C0V4 C21V252 A20V249 D+20V243 B19V238 G19V235 G19V234 G19V238 G19V236 A19V241 D20V245 G20V252 C0V3 G+0V9 C+1V17 A1V23 C+2V30 E2V32 A+2V37 G+2V36 A2V33 D+2V29 A+1V23 F+1V15 A0V7 rV1 A20V246 B19V239 D+19V231 G18V223 D+18V220 A+17V215 A+17V213 G+17V213 G+17V212 G+17V211 A17V211 A+17V215 B17V214 B17V217 D+18V222 G+18V223 C19V231 G+19V242 F+20V247 C0V3 C1V16 B1V24 G+2V35 D+3V42 B3V50 F4V55 F4V59 E4V54 C+4V50 E3V42 F2V30 F+1V17 E0V2 F20V241 B18V225 A+17V211]

$$ALL
  [F17V205 F16V196 G+15V187 E15V182 F15V186 A15V192 C+16V200 D+17V211 D+18V224 E19V234 F+20V248 C0V3 B0V14 A1V22 D+2V29 G2V32 A2V36 B2V38 C3V37 B2V37 C3V35 G+2V33 E2V32 D2V27 C2V25 A+1V23 G+1V22 F+1V19 F1V17 D+1V17 C1V15 C1V13 B0V12 B0V12 C1V12 C+1V14 D1V17 E1V18 G1V21 G1V20 A1V23 A1V21 G+1V19 D+1V16 B0V10 F0V3 B20V251 E20V242 G19V234 B18V226 E18V218 A17V212 E17V208 C17V204 G+16V203 A16V203 B16V205 D17V207 G17V213 C+18V219 G+18V226 D+19V235 A+19V241 G20V248]
  [A+16V200 C+16V192 F15V186 E15V185 F+15V186 C16V196 G+16V204 A+17V216 A+18V229 B19V242 A+20V255 F0V8 E1V18 C2V26 E2V29 G2V35 B2V36 B2V38 C3V37 B2V35 G+2V34 F+2V33 E2V29 C+2V25 B1V22 G+1V20 F+1V19 E1V17 D+1V17 D+1V15 C+1V14 C1V12 B0V12 B0V13 C1V12 C+1V15 E1V17 E1V19 G1V21 A1V20 G1V22 G+1V21 F+1V18 C1V13 G0V7 C0V254 G+20V248 B19V239 D+19V231 F+18V223 B17V217 G17V210 C+17V205 A+16V203 A16V202 B16V202 C17V205 E17V210 B17V217 E18V222 C19V231 G19V237 D20V245 B20V253]

$$ALL
  [rV255 D0V6 A0V11 C1V14 E1V18 G+1V21 A+1V23 C2V26 D+2V27 F2V30 F2V32 G2V32 G2V32 G2V32 E2V29 B1V24 F+1V17 B0V10 D+0V2 B20V251 E20V243 G19V236 C+19V230 A18V226 G18V223 F+18V223 G+18V226 D19V231 G19V238 D20V245 A+20V254 F0V7 B0V14 F+1V18 A+1V23 C+2V26 D2V27 C+2V25 B1V23 G1V19 C+1V13 A0V8 D+0V3 rV254 A+20V251 G20V247 F20V246 F20V246 F+20V247 G20V248 A20V250 B20V252 rV254 rV1 D0V3 D+0V4 D+0V5 D+0V4 D+0V4 D+0V3 D0V3 D0V2 C+0V2 C+0V2]
  [C+0V2 F+0V7 A+0V11 D+1V17 F1V19 G1V21 A+1V24 C2V26 D+2V28 F2V31 G2V31 G2V32 A2V32 F2V28 D2V26 A1V21 D1V14 G0V6 C0V255 G20V247 C20V239 E19V232 C19V227 G18V223 F+18V224 G18V225 B18V228 E19V234 B19V241 F+20V250 rV2 G0V9 D1V16 G+1V22 B1V25 D2V27 D2V27 C2V25 A1V21 E1V17 B0V11 F+0V6 C0 rV252 A20V248 F20V247 F20V246 E20V246 F+20V248 G+20V249 A+20V252 rV254 r C0V2 D0V3 D+0V4 D+0V4 D+0V4 D+0V4 E0V4 D+0V3 D0V3 C+0V2 C0]

$$ALL
  [C0V1 rV254 rV253 B20V251 A20V248 F20V245 D20V241 A19V238 F19V233 C+19V230 B18V227 A18V225 A18V227 C19V229 F19V235 B19V242 G+20V251 C+0V5 B0V14 A1V23 F2V32 C3V39 F3V44 G+3V46 A3V46 G3V43 C+3V37 G2V30 B1V22 C+1V12 F0V5 rV253 G20V248 D20V243 B19V240 A19V238 A19V237 G+19V237 G+19V237 A19V238 A+19V239 A+19V239 B19V240 C20V241 C20V241 B19V240 B19V239 A+19V239 A19V238 A19V238 A19V239 B19V240 C+20V243 E20V246 G20V249 B20V253 rV1 D+0V5 G+0V9 B0V12 D1V15 E1V17 F1V19 F+1V19]
  [r rV254 C21V252 A20V250 G20V247 D+20V243 B19V239 G19V235 E19V231 C19V228 A18V226 G+18V226 A18V228 D19V231 G19V237 D+20V246 rV255 G0V9 E1V19 D2V28 A2V36 E3V41 G+3V45 A+3V47 A3V46 E3V40 B2V34 D+2V26 F+1V17 A0V9 C+0V1 B20V250 F20V245 C20V241 A+19V239 A19V238 G+19V237 A19V237 A19V238 A+19V238 A+19V239 B19V240 C20V240 B19V240 B19V240 B19V240 A+19V239 A19V238 A19V238 A19V238 A+19V239 C20V241 D20V244 F+20V247 A20V251 rV255 D0V3 F0V7 A0V11 C1V14 D+1V16 E1V18 F+1V18 F1V19]

$$ALL
  [F1V18 F1V18 E1V17 D1V15 C1V13 A+0V11 G+0V9 G0V7 F0V5 D+0V4 C+0V2 C0 rV255 rV253 B20V252 A+20V250 G+20V249 F+20V247 F20V246 E20V245 D+20V244 D20V242 C20V241 C20V241 C20V241 C20V241 C20V242 C+20V242 D20V244 E20V245 F+20V247 G+20V250 C21V253 r D0V3 F0V7 A0V10 B0V12 C+1V14 D1V15 D1V15 C+1V14 C1V12 A+0V11 G0V7 E0V4 C+0V2 r rV255 rV255 rV255 C0V1 D0V3 E0V6 G0V8 A+0V11 C1V13 D1V15 D1V16 C+1V14 B0V11 G+0V8 D0V2 rV253]
  [F1V18 F1V17 D+1V16 D1V14 B0V12 A0V10 G0V8 F+0V6 E0V5 D+0V3 C+0V2 r rV254 C21V253 A+20V251 A20V250 G+20V248 F+20V247 F20V246 D+20V244 D20V243 C+20V242 C20V241 C20V240 C20V241 C20V241 C+20V241 C+20V243 D+20V244 F20V246 G20V249 A+20V251 rV255 C+0V2 D+0V5 G0V8 A+0V11 C1V13 D1V15 D1V16 D1V15 C+1V14 B0V11 G+0V9 F0V6 D+0V3 C0V1 rV255 rV255 rV255 r C0V2 D+0V4 F+0V7 G+0V10 B0V12 C+1V14 D1V15 D1V15 C1V13 A0V10 F0V5 C0 A+20V250]

$$ALL
  [G+20V247 D20V242 A19V237 E19V232 C+19V229 A18V226 G+18V224 G18V223 G18V225 A18V227 C+19V231 G19V237 C20V243 G20V250 rV1 F+0V8 C1V14 F1V18 A1V22 B1V25 C2V25 B1V24 A+1V22 G1V19 D+1V15 A+0V10 F+0V6 D0V2 rV254 B20V252 A20V250 G+20V249 G20V248 G+20V248 G+20V249 A20V250 B20V252 C21V254 rV255 r r C0V1 r rV255 rV254 C21V253 B20V252 A+20V251 A20V250 A20V250 A20V250 A20V250 A20V250 A+20V251 B20V252 B20V252 C21V253 rV254 rV254 rV255 rV255 rV255 rV255 rV253]
  [F20V245 B19V240 F+19V235 D19V231 A+18V227 G+18V225 G18V224 G18V224 G+18V226 B18V229 E19V234 A19V240 E20V246 B20V253 D0V5 A0V11 D1V16 G1V21 A+1V23 C2V25 C2V25 B1V23 G+1V21 F1V17 C+1V13 G+0V8 D+0V4 C0 C21V253 A+20V251 G+20V249 G+20V248 G20V248 G+20V249 A20V250 A+20V251 B20V253 rV254 rV255 r r r r rV255 rV254 C21V253 B20V251 A+20V251 A20V250 A20V250 A20V250 A20V250 A+20V251 A+20V251 B20V252 C21V253 C21V254 rV254 rV255 rV255 rV255 rV254 rV254 C21V253]

$$ALL
  [C21V252 A+20V251 A20V250 G+20V249 G+20V249 G+20V249 A+20V251 C21V254 rV1 D+0V5 F+0V8 B0V12 D1V16 F1V19 G1V20 G+1V21 G1V20 F1V18 D1V14 A+0V10 F0V5 C0 C21V252 G+20V249 F20V246 D+20V244 D+20V244 D+20V244 E20V245 F+20V248 A20V250 C21V253 r C+0V3 E0V5 F+0V7 G0V8 G0V8 F+0V7 F0V6 D+0V3 C0 rV253 A+20V250 G+20V248 F20V246 D+20V243 C+20V242 B19V240 A+19V239 A19V238 G+19V237 G+19V237 G+19V238 A+19V239 B19V241 D20V243 E20V246 G+20V250 C21V253 C0V1 D+0V5 G0V9 A+0V12]
  [B20V252 A+20V250 A20V249 G+20V249 G+20V249 A20V250 A+20V252 rV255 C+0V3 F0V7 A0V11 C1V14 E1V18 F+1V20 G+1V21 G+1V21 F+1V19 D+1V16 C1V12 G+0V8 D+0V3 rV254 A+20V250 G20V247 E20V245 D+20V244 D+20V244 E20V245 F20V247 G+20V249 A+20V252 rV255 C0V1 D0V4 F0V6 F+0V8 G0V8 G0V8 F+0V6 E0V4 C+0V2 rV255 C21V252 A20V249 F+20V247 E20V244 D20V242 C20V241 A+19V239 A19V238 G+19V237 G+19V237 G+19V237 A19V238 A+19V240 C20V242 D+20V245 F+20V248 A+20V252 rV255 D0V3 F0V7 A0V10 C1V13]

$$ALL
  [C+1V14 D+1V16 F1V18 F+1V19 F+1V19 F+1V18 E1V17 D+1V16 D1V14 C1V12 A0V10 G0V7 E0V5 D0V2 r rV254 B20V252 A+20V250 A20V249 G+20V249 G+20V249 G+20V249 G+20V250 A20V250 A+20V251 A+20V251 B20V252 B20V252 B20V252 B20V252 B20V252 A+20V251 A+20V251 A20V250 G+20V249 G+20V249 G20V248 G20V248 G20V248 G20V249 G+20V249 A20V250 B20V252 rV254 r C+0V2 D+0V4 F0V6 F+0V8 G+0V9 A0V10 A0V10 A+0V11 A0V10 A0V10 G+0V9 G0V8 F0V6 E0V4 D0V3 C0V1 rV255 C21V253 B20V251]
  [D1V15 E1V17 F1V19 F+1V19 F+1V19 F1V18 E1V17 D1V15 C1V13 A+0V11 G+0V8 F+0V6 D+0V3 C+0V1 rV255 C21V253 A+20V251 A20V250 G+20V249 G+20V249 G+20V249 G+20V249 A20V250 A20V250 A+20V251 B20V252 B20V252 B20V252 B20V252 B20V252 A+20V251 A+20V251 A20V250 A20V250 G+20V249 G+20V249 G20V248 G20V248 G20V248 G+20V249 A20V250 A+20V251 C21V253 rV255 rV1 D0V3 E0V5 F0V7 G0V8 G+0V9 A0V10 A0V11 A+0V11 A0V10 A0V9 G+0V8 F+0V7 F0V5 D+0V4 C+0V2 r rV254 B20V252 A+20V251]

$$ALL
  [A20V250 A20V249 G+20V249 G+20V249 G+20V249 G+20V249 A20V250 A+20V251 B20V252 B20V252 C21V253 C21V254 rV254 rV254 rV254 rV255 rV255 rV255 rV255 rV255 rV255 rV255 rV255 r r r C0V1 C0V1 C0V1 C0V1 C0V1 C0V1 C0V1 C0V1 C0 r r r r r r r r r r r r r r r rV255 rV255 rV255 rV255 rV255 rV255 rV255 rV255 rV255 rV255 rV255 rV255 rV255 rV255]
  [A20V250 G+20V249 G+20V249 G+20V249 G+20V249 A20V250 A20V250 A+20V251 B20V252 C21V253 C21V253 rV254 rV254 rV254 rV254 rV255 rV255 rV255 rV255 rV255 rV255 rV255 r r r r C0V1 C0V1 C0V1 C0V1 C0V1 C0V1 C0V1 C0V1 r r r r r r r r r r r r r r r rV255 rV255 rV255 rV255 rV255 rV255 rV255 rV255 rV255 rV255 rV255 rV255 rV255 rV255 rV255]

$$ALL
  [rV255 rV255 rV255 rV255 rV255 rV255 A+6V80 C9V49 rV143 rV255 rV255 rV255 r r r r r r r r C+2V34 F0V199 F13V206 B10V166 A+20V42 A2V36 A20V18 D8V94 F+8V81 rV8 C19V248 G+13V218 G+14V164 G+14V162 D15V186 F18V5 E5V35 C8V120 G8V94 C5V85 E3V20 D20V237 E18V211 E17V214 D19V175 A+15V200 G18V232 D+0V232 E0V17 C+2V28 D5V82 F+5V44 F1V15 E2V254 F19V16 D+0V248 B0V6 E20V244 A+16V236 rV11 C2V24 F+15V187 F+17V218 C21V4]
  [rV255 rV255 rV255 rV255 rV255 r D+4 D+4 r rV255 rV255 r r r r r r r r F0V14 A0V11 C18V168 D17V174 E17V22 G4V48 C+4V237 F+5V113 F+10V96 G4V45 F20V222 F17V167 C+15V168 E15V136 D15V175 F17V222 B0V44 B6V93 C9V127 E7V74 A3V65 G0V238 F17V216 A17V211 B18V232 B16V176 D16V227 B20V249 C21V15 D+2V27 C+3V58 F+6V66 B3V53 G20V23 F+0V245 C+20V229 D+19V241 B18V9 F+18V234 E19 B2V7 rV224 A+15V190 D19V255 F18]

$$ALL
  [G0 B20V242 G+2V17 A3V68 A+1V46 E6V44 D3V25 D3V31 D+19V235 E14V191 F15V169 A+15V184 B15V215 A+20V13 F+1V16 rV25 B0V19 F+3V54 F6 A+5V58 D5V40 F1V9 F20V233 A17V208 B15V197 F18V168 F14V219 F+17V204 B18V245 D19V253 C4V49 A6V88 E7V74 D+5V39 F5V63 C+20V14 E1V1 C+19V233 F17V213 C+14V197 B16V188 B17V204 F+19V243 F2V29 D2V18 C+4V52 D+4V63 G+2V29 F+1V24 B2V31 G+2V45 C21V235 D+17V196 A18V213 G+19V220 C+18V211 G20V235 E19V1 B20V7 D20V11 A+1V2 F+0V4 E1V24 F2V27]
  [C+20V255 A+20V30 G3V48 D+4V22 D4V112 C+3V43 B3V26 D1V240 D19V180 B15V204 G+14V184 A+16V190 G+19V224 E1V25 F+0V6 E2V254 C+4V27 A+3V56 D6V63 D4V55 D+3V25 G18V243 F1V6 D16V144 G+14V189 A+15V209 F+17V168 G+18V213 A+19V241 F2V40 D+6V51 F8V105 G+4V37 F3V82 D3V23 A1V253 B0V236 A+17V212 B15V177 A+17V185 E15V190 F18V214 F0V254 D+0V25 F3V28 C+1V36 D+4V53 D3V33 C+2V32 F3V59 G1V5 B19V231 F+16V191 G18V227 B15V207 G19V254 D19V235 C+1V9 E1V254 D1V16 A+0V248 G0V15 F+1V4 A3V27]

$$ALL
  [G+3V25 D20V231 F20V1 D1V34 B1V4 A18V228 E20V16 G0V2 rV242 D0V253 B20V234 F+20V243 D18V219 A+19V229 F+19V247 D1V24 C3V31 C4V49 G+1V15 F+0V14 D+0V7 F2V38 C+0V10 E0V13 E19V226 G18V209 F15V185 G17V218 C1V14 A+19V239 F+19V230 rV11 A2V30 G2V34 A+2V46 F+7V92 E4V43 F20V249 D20V226 A+18V231 A+15V201 B16V193 F17V216 E18V238 B16V231 F20V250 D+3V39 C2V26 C+3V36 A+2V48 B3V44 C+1V27 G+1V25 B0V23 rV254 C+20V230 G16V206 C+17V222 A+15V228 A16V221 C+19V241 D20V243 A1V32 F+3V42]
  [C+0V254 B19V230 G+20V6 D+1V5 B19V245 C+19V238 D0 rV253 A+19V250 E20V245 G+19V6 C+19V228 F18V225 A+19V236 rV11 A+1V37 D3V38 C2V27 F+1V17 B2V15 E0V15 F+2V11 G+1V21 C20 A+17V205 B17V208 D+15V195 C+19V254 B20V244 C20V241 F+20V234 D+2V5 D+1V28 D3V30 F+5V93 A6V66 C+3V23 E19V230 C+19V231 B17V198 G15V196 F17V215 D18V241 G+17V215 F+19V234 F+0V19 E3V33 F1V24 A2V29 G+4V56 A3V34 E2V30 C+1V24 G+1V8 A19V238 F+17V214 F+17V208 A+16V194 C18V208 C18V215 A0V253 rV9 F+3V44 D3V40]

$$ALL
  [D3V53 A2V26 C+2V29 rV252 A20V251 C1V21 C0V4 D19V218 D+18V221 D+19V220 A+19V241 rV252 D+0V236 A0V4 D0V252 C+0 B19V230 A+0V9 A+1V8 G0V11 E1V5 G+0V10 E1V29 F+2V21 rV240 G+19V237 C19V219 D19V221 G18V242 G20V2 A+0V11 C+1V9 F0 B19V241 G+20V251 D19V229 rV1 A+1V22 A2V42 D2V32 C+2V27 B1V13 D+0V254 C19V236 F+18V226 A+19V226 F+19V242 D20V240 D+19V234 A+20V249 rV6 G+0V19 E1V14 rV11 B20V251 D+1V15 A+1V8 A0V2 F+1V20 E2V19 C+0V250 D0V9 C+0V16 G+20V243]
  [E3V48 D+2V22 F2V28 D+0V6 A+1V5 G+0V7 E20V248 B17V208 C+19V217 C+18V231 C20V242 E0V9 D+20V250 rV17 rV9 F+0V244 rV255 A0V14 D+0V14 G+0V18 G+0V12 A+0V15 F+3V46 F1V13 G+19V237 B19V234 G18V232 B17V223 F+20V241 F+0V5 D0V6 rV3 D+20V251 A+20V249 E20V245 B20V245 rV1 A+1V30 D+3V23 D2V24 B2V30 D0V2 F20V238 C+20V238 A18V229 A+17V222 E20V242 F+20V240 D19V235 C+0V8 C1V14 F+1V15 rV4 F+0V254 A+0V13 D1V12 D+0V254 E1V21 E1V24 F0V250 F+20V247 F+0V13 F+0V252 A18V228]

$$ALL
  [A17V228 F18V222 F+17V197 D+18V233 F19V251 G2V33 D+3V41 F+1V14 D1V18 F+2V28 C1V14 B0V6 G0V13 D0V1 A+19V244 A+19V240 C+20V249 B18V233 D20V240 F19V239 F+19V231 A+19V246 A20V253 A0V252 B0V12 D+2V26 F3V35 F2V33 G+2V31 G+1V18 D0V251 G20V234 G19V231 D+20V232 E18V229 C18V221 A+17V214 B18V235 G19V241 F+0V8 C2V24 D+2V44 G+2V31 C2V24 E2V26 A1V13 G+0V5 A+20V253 G+20V250 C19V237 A19V245 D+19V233 E19V223 G+19V241 rV251 rV249 G+0V6 G1V15 B0V16 G0V8 B0V13 E1V16 D+2V19 rV7]
  [A+18V227 D+18V217 C+17V209 C19V229 G0V26 F2V30 G+2V37 B1V25 C+3V34 A1V30 E1V15 A0V15 G+0V246 F+20V247 E19V239 C20V239 F20V239 D20V237 G19V230 C+19V233 A19V246 A20V244 C0V4 D0V255 C+1V17 A+2V34 A+2V35 G+2V33 A+2V33 A+1V16 F0V255 A19V230 C+19V239 F+18V222 G19V229 D18V216 B17V218 F+20V239 F+0V5 F1V19 G+2V28 A2V26 A2V25 D2V25 A+1V25 rV7 C21V246 A20V245 G19V233 A+18V234 G+19V232 E19V236 D19V228 G+20V252 D20V243 G0V9 E1V21 G1V20 F0V6 E1V12 D+1V16 F+2V27 G0V10 A20V248]

$$ALL
  [D20V246 F+19V235 A+19V229 B19V242 rV2 A+0V3 B0V13 F0V3 A+20V254 B20V251 rV1 E19V231 rV249 C0V6 rV250 C21V255 B1V17 G1V19 rV251 D0V5 G+0V9 rV2 C21V3 F0V7 B20V241 E20V246 G20V249 C0V249 D20V240 D+20V245 rV3 B20V253 A+20V243 D+20V241 A20V249 B0V15 D+2V34 A2V42 G+2V28 F+2V30 G+0V2 F+19V222 B17V223 G18V224 A+18V233 A+19V233 B19V243 A+19V251 rV2 C+1V16 F1V17 F+2V34 F2V26 G1V18 F+0V5 E0 C0V2 A+20V251 F+20V253 F20V245 C+20V238 C20V238 G+19V232 C+20V246]
  [C20V246 A19V228 F+19V235 A20V254 D+1V19 F+0V9 D+0V1 rV253 F20V248 F20V253 F+20V241 rV2 rV5 G+0V14 F+20V251 G+0V18 C+1V18 A0V6 D20V255 A+0V7 D0V255 C0V254 F+0V8 F+0V254 D20V247 C+20V240 A+20V246 B19V239 E20V248 E20V252 C+0V5 A20 D20V248 G+20V253 E0V10 A1V24 C+3V38 D+3V33 F+2V30 A1V15 C21V243 C+18V223 E18V228 G18V226 E19V236 D+19V234 A+19V241 G+20V253 C21V6 A+0V15 A1V24 G+2V34 A+1V29 D+0V6 F0V7 F+0V1 C+0V1 C21V254 G20V250 C20V246 E20V241 D20V240 A+19V244 G20V251]

$$ALL
  [rV250 G+20V246 F+19V239 D0V12 G+1V21 B0V11 G+0V9 C1V12 B0V15 B0V11 D1V15 D1V17 C+0 F20V241 F+19V233 B18V229 G18V224 C20V239 G+20V246 G+20V248 rV2 A+0V14 G1V19 B1V27 C2V20 A0V11 F0V7 rV254 C21V249 A20V247 A+19V244 B20V255 C0V250 F+20V241 F20V246 D+20V249 A20V246 C21V251 C+0V4 G20V247 D+0V6 F1V21 D+1V19 E0V7 G0V13 E1V19 A+20V254 A+19V238 F+19V237 F20V247 G+20V249 G20V243 rV1 C+0V3 G+0V10 C+1V16 B0V5 A20V251 A20V248 B20V253 B19V242 G+20V253 A+20V254 G+0V7]
  [F20V255 F20V241 A20V252 C1V15 G+1V16 D1V13 G0V9 B0V19 D1V13 C1V14 F+1V16 F0V3 D0V250 A19V240 E19V228 F+18V226 A18V234 E20V246 G+20V248 A20V251 A+0V10 D+1V20 F1V24 D+2V27 A1V25 G0V2 D0V2 D0V255 G+20V247 D20V241 B19V248 C0V4 G20V246 C+20V241 C+20V246 F20V247 A+20V254 D+0V4 rV251 rV1 A0V17 G+1V18 E1V13 C1V10 E1V16 F0 A20V242 G19V236 C20V244 B20V250 G20V248 F20V249 r C+0V3 A+0V7 C1V14 rV252 C0V255 G+20V253 F+20V246 D20V246 rV250 C0V3 F0V6]

$$ALL
  [F+0V7 F0V7 F+0V8 F+0V6 C+1V6 F+0V4 C0V252 F20V250 E20V246 A20V251 F20V249 E20V244 B19V239 F+20V244 B19V243 D20V247 F0V10 A1V25 F2V30 B1V29 G+1V15 E0V3 rV1 G+20V249 F20V246 F20V246 E20V245 D20V242 A+19V238 F+20V243 C20V244 G+20 D+0V2 A0V11 D+1V16 F1V20 G1V19 E1V17 A0V6 r A+20V253 A+20V247 D+20V243 E20V245 G+20V249 F20V242 B19V243 C+20V243 A20V251 B20V252 C+0V4 A0V11 B0V11 A+0V12 F1V19 F+1V18 E1V15 A+0V8 C21V250 C+20V243 A+19V238 G19V238 F+20V246 E20V245]
  [G+0V8 A0V10 G0V5 G+0V12 F+0V10 F0V3 A+20V245 A20V247 C21V253 A20V245 G+20V249 C+20V241 C+20V246 E20V241 E20V241 A+20 D1V17 C+2V30 E2V24 B1V21 G+0V8 C21V255 B20V250 G20V248 F+20V247 C20V242 E20V243 C20V242 A+19V242 D+20V243 F+20V247 rV255 C+0V6 C1V15 E1V19 G+1V19 G1V19 C+1V12 D+0V2 rV253 B20V253 D+20V245 C20V241 F+20V247 B20V249 B19V239 C20V242 F20V247 B20V253 r D+0V5 G0V10 D1V14 C1V15 D1V15 D+1V18 D1V15 D+0V1 E20V242 C20V240 G+19V237 D20V243 G20V246 D20V245]

$$ALL
  [E20V245 G20V248 B20 D+0V8 A0V9 C+1V14 D+1V12 B0V11 A+0V10 G0V7 C+0 A20V246 D20V244 F20V247 F+20V247 G+20V251 C0V4 F0V4 rV255 A+20V251 D+0V6 E0V3 rV251 F20V245 G+20V253 r G0V10 A+0V12 C1V12 G0V6 C0V1 B20V251 G20V247 E20V247 B20V251 rV254 r r D+0V5 E0V4 rV255 B20V252 rV2 C0V255 rV254 A+20V252 B20V252 rV253 C+0V2 E0V8 A0V8 D+0V4 F0V5 D+0V5 C+0V3 C0V255 B20V252 D20V243 D20V243 D+20V246 F20V248 A+20V251 C21 D0V5]
  [D+20V245 A20V251 D0V2 F0V6 G+0V14 C1V12 B0V12 A0V8 G+0V11 G0V4 rV255 D+20V244 E20V245 G20V248 F+20V246 rV254 F0V6 D0V254 C21V251 C21V1 D+0V7 C0V255 G20V245 F20V249 C21V254 F0V6 G+0V8 D1V13 G+0V8 D0V1 rV254 A20V249 E20V248 F+20V248 C21V253 C21V254 rV254 D+0V4 G0V6 D+0V4 C21V252 B20V254 C0V2 C21V253 A+20V252 B20V251 B20V253 C21V255 E0V5 G+0V9 F0V6 D+0V5 F0V6 D+0V4 C+0V2 rV251 G+20V249 C+20V242 D20V243 F+20V246 A20V252 A+20V251 C0V2 G0V8]

$$ALL
  [F+0V9 A+0V10 C1V14 D+1V17 A0V6 C21V253 G20V248 A+20V251 A+20V253 A20V250 A+20V252 B20V251 A+20V251 G+20V250 A20V251 A+20V251 C21V253 rV2 D0V2 F0V7 G+0V9 D1V16 C+1V14 A0V9 F+0V7 rV252 F+20V247 D+20V243 C+20V241 C+20V241 D+20V244 E20V248 rV254 C0V1 F0V6 B0V13 D1V14 C1V12 A0V9 D0V2 rV254 rV253 B20V252 A+20V248 A20V249 C21V253 C21V254 B20V250 G+20V249 A+20V253 rV1 C0 r E0V6 G0V8 F0V7 G0V7 F0V7 C+0V3 rV255 A+20V250 F+20V247 G20V247 A20V249]
  [G+0V10 A+0V11 E1V15 D+1V13 D0V1 G+20V249 A20V250 B20V252 C21V251 G20V250 C21V253 B20V253 A20V250 G+20V250 A+20V251 C21V253 A+20V253 D0V3 D0V5 F+0V8 A+0V12 C+1V14 C1V14 F+0V6 D0V3 A20V249 F20V244 B19V240 C20V243 D20V244 D20V245 A20V252 rV1 C+0V3 G+0V10 D1V15 D1V13 G+0V10 F0V4 C+0V1 C21V252 C21V253 B20V252 G20V249 A20V252 B20V252 C21V253 G20V248 G+20V249 rV255 C+0V1 r C+0V4 F0V6 F0V5 F0V7 E0V6 F+0V5 D0V3 rV253 A20V250 F+20V249 G+20V249 G+20V249]

$$ALL
  [A+20V252 rV253 r C21 E0V6 F+0V7 F0V4 C+0 rV254 rV1 r rV254 r C0V2 C0V1 rV254 C21V253 r C+0 C0V1 rV255 C0V1 r rV254 rV252 C21V254 rV254 C21V255 C0V255 rV255 r C+0V3 E0V4 D0V2 D+0V4 C+0V1 rV255 rV255 rV2 rV255 C21V252 C21V254 C21V254 rV253 B20V252 B20V251 A+20V252 C21V253 C0V3 F0V7 F0V7 G0V8 E0V6 D0V3 rV254 C0V1 rV255 B20V252 G+20V248 G20V249 A+20V251 A+20V252 rV255 rV255]
  [rV254 B20V254 rV254 C+0V3 F+0V8 F0V5 E0V3 rV254 C21V252 r rV255 rV254 C0 C0V1 rV255 C21V253 C21V253 C0V1 C0V1 C0V1 rV1 C+0V1 C0 C21V253 C21V253 rV255 rV254 rV255 rV255 rV254 C0V1 C+0V3 D0V3 D0V4 D0V3 r rV255 r r rV255 B20V252 B20V251 rV255 B20V253 B20V251 A20V251 B20V252 r D0V4 F0V7 F+0V8 F+0V7 D0V3 C0V255 rV1 rV254 rV254 A+20V251 G20V248 G+20V250 A+20V251 rV255 rV255 rV255]

$$ALL
  [r C+0V3 D+0V4 D+0V4 D0V3 C+0V2 rV2 D0V3 C0V1 C0V1 C0V1 r C21V252 A+20V250 G+20V250 A20V250 A20V250 A20V251 B20V252 rV1 E0V6 F+0V7 G+0V9 G+0V9 F+0V7 C+0V2 rV255 A+20V251 A+20V251 G+20V250 A20V251 A+20V250 G+20V249 rV255 C0V2 D+0V4 D0V3 C0V1 C0 r C+0V3 D+0V4 D0V3 D0V2 rV255 B20V252 C21V252 C21V254 rV253 A+20V251 C21V253 C21V253 r C0V2 D0V3 C+0V1 r C0V1 D0V3 C+0V2 C0V1 C0 rV255 C21V252]
  [rV1 D+0V4 D+0V4 D0V3 D0V3 C0V1 D0V3 D0V2 C0V1 C0V1 C+0V1 rV254 B20V251 A+20V250 A20V250 A20V251 A20V251 A20V251 rV255 D0V4 F0V7 G0V8 G+0V8 G0V7 E0V4 C0 C21V252 A+20V251 A20V250 A20V250 A+20V252 G+20V249 A+20V252 r D0V3 D0V4 C+0V2 C0V1 C0 C0V2 D+0V4 D+0V4 C+0V3 C+0V2 rV254 B20V252 C21V253 rV255 C21V252 B20V252 B20V253 C21V253 rV1 C+0V3 D0V3 rV1 C0V1 C+0V2 D+0V3 C+0V1 C0V1 r rV254 A+20V251]

$$ALL
  [A+20V251 A+20V252 rV255 C0V1 C+0V2 C+0V2 D0V3 C+0V2 rV255 C21V253 B20V253 C21V254 C21V254 rV255 r rV255 C0V2 C+0V2 C+0V2 D0V3 D0V2 C+0V1 rV254 rV254 rV254 rV254 rV255 rV255 C21V253 A+20V251 C21V254 rV255 r r C0V1 C+0V2 D0V4 E0V5 F0V5 D+0V5 D0V2 rV254 A+20V251 G20V248 G20V249 A+20V251 A+20V251 C21V253 rV1 C0V2 D0V3 E0V5 F+0V7 F0V5 D0V3 C0 rV253 B20V252 A+20V251 C21V253 C21V254 rV253 rV255 r]
  [A+20V252 B20V253 r C+0V2 C+0V2 D0V2 D0V3 C0V1 rV254 C21V252 B20V253 rV254 C21V254 rV255 rV255 r C+0V2 C+0V2 C+0V2 D0V3 C+0V2 rV255 rV254 rV255 rV254 rV254 rV255 rV253 B20V251 B20V253 rV255 rV255 rV255 C0V1 C+0V2 C+0V2 D+0V4 F0V6 D+0V4 D0V3 C0V1 C21V252 A20V249 G20V249 G+20V250 A+20V251 B20V252 rV254 C0V1 C+0V2 D+0V5 F0V7 F+0V7 E0V4 C+0V2 rV254 B20V252 B20V252 B20V253 C21V253 C21V254 rV255 r r]

$$ALL
  [C0 rV255 rV254 rV254 r C0V1 C+0V2 D0V3 C+0V3 C+0V3 C+0V2 C0V1 r rV255 rV253 B20V251 A+20V252 B20V252 B20V252 C21V253 rV254 C0V1 D0V4 E0V5 F0V5 E0V4 C+0V1 rV255 rV254 rV254 rV253 C21V254 rV254 rV254 rV255 rV255 r rV255 r rV255 rV254 rV255 r C0V2 C+0V2 D0V3 D0V3 C+0V2 C0 rV254 rV254 C21V253 C21V252 A+20V251 B20V252 rV255 rV1 C+0V3 D0V3 D0V3 C+0V2 C0V1 rV255 rV255]
  [rV255 rV255 rV254 rV255 rV1 C+0V2 D0V3 C+0V2 D0V2 C+0V2 C+0V2 r r rV254 C21V253 A+20V251 B20V252 B20V252 B20V252 C21V253 r C+0V2 D+0V4 F0V6 E0V5 D0V2 C0 rV255 rV254 rV254 C21V253 rV254 rV254 rV255 rV255 r rV255 r rV255 rV254 rV255 r r C+0V2 D0V2 D0V3 D0V3 C0V1 rV255 rV254 C21V253 C21V253 B20V252 A+20V251 C21V254 r C0V1 D0V4 D0V3 D0V3 C+0V1 r rV255 rV255]

$$ALL
  [rV255 rV254 C21V253 rV254 rV255 r C+0V2 C+0V2 C0V1 r r rV255 C21V253 B20V252 B20V252 rV255 C0V1 C+0V2 C+0V2 D0V3 C+0V2 r r rV255 rV255 rV254 rV254 rV255 rV255 r rV255 rV254 rV254 rV255 rV255 r rV1 C0V1 C0V1 C0V1 C+0V3 D0V3 C+0V2 C0 rV255 C21V252 A+20V251 A+20V251 B20V252 C21V253 rV254 r C0V1 C+0V3 D+0V4 D+0V4 D0V3 C+0V1 r rV254 C21V253 C21V253 C21V253 rV254]
  [rV255 C21V253 C21V254 rV255 r C0V1 C+0V2 C+0V1 C0V1 r rV255 rV254 C21V252 B20V252 C21V253 r C0V1 C+0V2 D0V3 C+0V2 C0V1 r rV255 r rV255 rV254 rV254 rV255 r rV255 rV255 rV254 rV254 rV255 r r C0V1 C0V1 C0V1 C0V2 D0V3 D0V3 C+0V1 r rV254 B20V252 A+20V251 B20V252 C21V253 C21V254 rV255 rV1 C0V2 D0V3 D+0V4 D+0V4 C+0V2 C0V1 rV255 rV254 C21V253 C21V253 C21V253 rV254]

$$ALL
  [rV254 rV255 r r rV255 rV255 rV255 rV1 C+0V2 C+0V2 C+0V2 C+0V2 C0 rV255 rV254 rV254 rV254 C21V254 rV254 rV254 rV255 r C0V1 C0V1 C0V1 C0V1 rV1 r r rV255 rV255 rV255 rV255 rV255 r r r r r rV255 r r rV255 rV255 rV254 rV255 C0V1 C0V1 C0V1 C0V1 r rV255 rV255 rV255 rV255 rV255 rV255 rV255 r r r r r rV255]
  [rV255 r r rV255 rV255 rV255 r C0V1 C+0V2 C+0V3 C+0V2 C0V1 r rV255 rV254 rV254 rV254 rV254 rV254 rV255 rV255 r C0V1 C0V1 C0V1 C0V1 r r r rV255 rV255 rV255 rV254 r r r r r rV255 r r rV255 rV255 rV255 rV255 r C0V1 C0V1 C+0V1 C0 rV255 rV255 rV255 rV255 rV255 rV255 rV255 rV255 r r r rV255 rV255 rV255]

$$ALL
  [rV255 rV255 r r r C0V1 C0V1 C0V1 r rV255 rV255 rV254 rV254 rV254 rV254 rV255 rV255 r r C0V1 C0V1 C0V1 C0 r rV255 rV255 rV255 rV255 rV255 r r r r r rV255 rV254 rV254 rV255 rV255 r C0V1 C0V1 C0V1 C0V1 C0V1 C0V1 rV255 rV254 rV254 C21V253 rV254 rV254 rV255 r r C0V1 C0V1 C0V1 C0V1 C0V1 r r rV255 rV255]
  [rV255 rV255 r r C0V1 C0V1 C0V1 r r rV255 rV254 rV254 rV255 rV254 rV255 rV255 r r C0V1 C0V1 C0V1 C0V1 r r rV255 rV255 rV255 rV255 rV255 r r r r rV255 rV255 rV254 rV254 rV255 r r C0V1 C0V1 C0V1 C0V1 C0V1 r rV255 rV254 C21V253 rV253 rV254 rV254 rV255 r r C0V1 C0V1 C0V1 C0V1 r r r rV255 rV254]

$$ALL
  [rV254 rV255 r rV255 rV255 rV255 rV255 rV255 rV255 rV255 r r C0V1 C0V1 C0V1 C0V1 r rV255 rV255 rV254 rV254 rV254 rV254 rV255 r rV1 C0V1 C0V1 C0V1 r r rV255 rV255 rV255 rV255 r r r r r rV255 rV255 r r r r rV255 rV255 r rV255 r r r rV255 r r r r r r r r rV255 rV255]
  [rV255 rV255 rV255 rV255 rV255 rV255 rV255 rV255 rV255 rV255 r r C0V1 C0V1 C0V1 C0V1 r rV255 rV255 rV254 rV254 rV254 rV254 rV255 r C0V1 C0V1 C0V1 r r r rV255 rV255 rV255 rV255 r r r r r rV255 rV255 r r r r rV255 rV255 rV255 r r r rV255 rV255 r r r r r r r rV255 rV255 rV255]

$$ALL
  [rV254 rV255 rV255 rV255 r r r C0V1 C0V1 C0V1 r r rV255 rV255 rV254 rV254 rV255 rV255 rV255 r r r r r r r r r r r r rV255 rV255 rV255 rV255 rV255 rV255 rV255 rV255 r r r C0V1 C0V1 r r r r rV255 rV255 rV255 rV255 rV255 rV255 r r r r r r r r r rV255]
  [rV254 rV255 rV255 r r r r C0V1 C0V1 C0V1 r r rV255 rV255 rV254 rV254 rV255 rV255 rV255 r r r C0 r r r r r r r rV255 rV255 rV255 rV255 rV255 rV255 rV255 rV255 rV255 r r rV1 C0V1 r r r r rV255 rV255 rV255 rV255 rV255 rV255 rV255 r r r r r r r r rV255 rV255]

$$ALL
  [rV255 r r r r r r rV255 rV255 rV255 rV255 rV255 rV255 r r C0V1 C0V1 C0V1 r r rV255 rV255 rV255 rV255 rV255 rV255 r r r r r r r rV255 rV255 rV255 rV255 r r r r r r rV255 rV255 rV255 rV255 rV255 rV255 rV255 r r r r r r rV255 r r rV255 r r r r]
  [r r r r r r rV255 rV255 rV255 rV255 rV255 rV255 rV255 r C0V1 C0V1 C0V1 r r rV255 rV255 rV255 rV255 rV255 rV255 rV255 r r r r r r r rV255 rV255 rV255 rV255 r r r r r rV255 rV255 rV255 rV255 rV255 rV255 rV255 r r r r r r rV255 rV255 rV255 rV255 rV255 r r r r]
