
$FM2,

!ALL

$Inst1,
$Inst2,
$Inst3,
$Inst4,
$Inst5,
$Inst6,
$Inst7,
$Inst8,
$Inst9,
$Inst10,
$Inst11,
$Inst12,
$Inst13,
$Inst14,
$Inst15,
$Inst16,
$Inst17,
$Inst18,

$$ALL
  [r D+5 D+5 D+5 D+5 D+5 D+5 D+5 r r r r r r r r r r r r r r r r r r r r r r r r r r r r r r r rV104 D+9V69 D8V114 G2V101 r rV2 r r r E10 E0 rV167 rV7 A7 F+0 rV155 rV9 C+9 G+0 rV128 rV10 G+6 A+0 rV104 rV12 C+12 C+1 rV48 rV15 G12 E1 rV199 rV19 A4 G1 rV229 rV22 C+5 A+1 rV119 rV26 D19 D2 rV28 rV28 D4 E2 rV56 rV32 F+20 G+2 rV122 rV34 E3 A+2 rV172 rV37 D+14 C+3 rV67 rV40 B6 F3 rV243 rV46 G+7 A+3 rV148 rV49 A19 D4 rV4 rV52 B10 F4 rV247 rV55 A+9 G+4 rV186 rV59 C5 B4 rV42 rV62 C+14 D+5 rV234 rV66]

$$ALL
  [B16 F+5 rV15 rV69 F18 A5 rV27 rV74 D10 D6 rV73 rV78 E9 G6 rV174 rV83 C18 C7 rV22 rV89 C+5 F+7 rV188 rV93 B18 A+7 F0V2 F+0V9 B0V14 E1V19 B1V26 A1V5 C+0V4 G+0V11 C+1V16 F+1V23 C+2V27 E0V1 D+0V8 A+0V13 D+1V18 A+1V25 D2 C0V3 G0V10 C1V15 F1V20 C2V21 C0V1 C0V1 r rV49 C+4V87 r D5 rV1 C0 rV1 r C0 r r C8V101 D9 G9V115 A+3V108 G9V105 E8V116 D9V47 r r r A2 r C0 r C+0V208 rV255 D+17V5 r F+0V208 rV255 D+17V10 r B0V208 rV255 D+17V15 r C0V224 rV255 G18V4 r F0V224 rV255 G18V9 r A+0V224 rV255 G18V14 r C0V1 r D+0V6 F0V6 F0V6 F0V63 rV5 E9 D+6V71 rV99 D+9V121 C5V10 F+9V111 B8V99 B3V101 G+9V104 F9V97 C5V97 E8V110 C+9V105 G+8V107 C8V115 rV68 C2 r rV1 D+0V6 G+0V11]

$$ALL
  [C+1V16 G5V82 rV1 rV2 C0V68 D+0 r A+6V96 r F6V12 G2V97 G2V105 rV65 G0 rV1 D1V15 D1V15 D+0V3 rV1 rV1 r rV66 A+3V1 A+6 r rV6 C1 G+5V73 C+4 C15V2 E5 C+8V115 G8V108 E6V41 rV3 r A0V1 rV65 D+20V1 r B0V255 C0V1 A+5V4 r E1 r G0 C1 F6V78 A6 r F+0V80 G+9V50 E5 rV255 C0V1 F0V6 F0V4 r C+0V2 D+0V255 rV2 C+0V1 r rV66 F+6V1 F6V78 A6 r F+0V80 D+8V57 E5 rV255 C0V1 F0V6 F0V4 r C+0V4 D+0V255 rV2 C+0V1 r rV66 F+6V1 F6V78 C7 r A0V80 G+8V97 G+4V77 r r C0V5 F0V6 D+0V3 r D0V2 rV1 C+0V3 C0V255 rV3 F5 C0V69 F6V50 rV181 rV65 G6V115 C+4V117 rV65 G0 G+0V1 D+0V6 F0V6 C0 E5V2 A+20V4 r C0V2 r C0V255 D+0V79 rV78 A+6V86 r F6V11 G2V111 C9V110 E6V53]

$$ALL
  [rV10 r E0V6 F0V5 D0V255 rV3 C+0 C0V2 D0V12 rV1 D0V71 r G+5V73 C+4 C15V2 E5 B8V97 E6V74 rV25 r A0V11 A+0V10 G0V7 E0V3 C+0V1 C+0V255 rV12 G+0V255 r C0 C+0V3 r C+0V255 A1V239 F0V74 C8 D0 B1V55 F6V78 A+9 r B0V80 E8V100 D8V111 E5 rV255 C0V1 D+0V5 D+0V3 C+0V2 C0V1 r C0 C0 C0V2 rV1 B0V255 C0V1 A+5V22 D+5V6 F0V97 D+5V3 rV24 D+5V78 A+6V76 r F6V6 G2V114 E6V48 rV10 r F+0V4 D0V1 C0V255 rV12 r C0V12 rV1 D0V71 r G+5V73 C+4 C15V2 E5 C8V112 D8V111 E5 rV255 C0V1 D0V1 C0V1 rV1 B0V1 r B0V255 C0V1 A+5V4 D+5 C6V83 r C+0V78 rV32 G+8V116 rV65 G0 E0V1 C0V4 G0V8 E0V3 C0V2 rV1 C+0V71 r G+5V73 C+4 C15V2 E5 A+8V99 F+5V52 E5 rV255 C0V1 D1V8 C0V255 E5V1 G20V244 C0V255 r]

$$ALL
  [F+0 C0V3 C+1V7 C0V1 rV1 rV66 A+3V1 F6V78 C+8 r B0V78 C+9V114 F+5V52 E5 rV255 C0V1 A+0V6 C0V255 E5V2 rV1 r B0V255 C0V1 C+0V14 rV1 rV1 C0V71 r G+5V73 C+4 C15V2 E5 D8V97 G2V45 E6V61 rV11 r F0V13 G+0V7 C0V255 C0V1 A0V2 rV1 rV1 r C+1V6 C0V1 A+5V4 D+5 C6V83 r C+0V78 rV32 G9V99 F+9 F3V8 D+0V255 rV5 rV1 r C+0V255 C0V1 C0V255 rV3 F5 C0V69 F6V50 rV181 rV65 F6V104 G2V112 rV65 G0 rV1 E0V3 C+0V2 C+0V2 C0V1 C0V1 rV1 r B0V255 C0V1 rV66 F+6V1 F6V78 F7 r F+0V78 G+8V103 E5 rV255 C0V1 C1V11 G+0V7 E0V4 C+0V1 C0V255 rV20 r C0 C0V255 rV1 F5 C+0V69 E5V69 r r r C+0 r rV16 r A1 r rV30 r F+2 r rV31 r F2 r rV22 r D1 r rV7]

$$ALL
  [r C+0 r r r r r C+7V141 rV32 r F+2 r rV18 r C+2 r rV19 r A0 r rV2 r r r rV19 r F+1 r rV12 r G+0 r rV22 r D+0 r rV80 F6 r F+2V7 C0V24 rV4 B1V132 C+15V27 D+0V129 F+0V3 A+10V4 B1V115 D+0V135 F+9V25 C+8V27 D+0V129 F+0V27 D0 F+0 D+0 F+9V24 A10V182 C10V4 D0V7 D+0 F+9V24 F+11V182 F+9V4 D0V7 E5V78 r rV130 F+0 A+10V119 C0V131 F+0V1 D2V7 rV182 C10 A+10V122 D0V7 D+0 D+0 F+0 C+10 F+0V32 C+10V3 B1V97 D+0 B10V182 C10V4 D0V7 D+0 F+9V24 F+11V182 F+9V4 D0V7 E5V78 r rV3 A+10V182 G+9V131 rV119 C0 F+0V1 D0V7 C+15V3 G10V182 A+9V131 A+10V122 D0V7 D+10V3 B1V97 D+0 B10V1 D2V7 D2V7 G10V124 D+1V24 rV4 B1V132 C+15V27 D+0V128 rV65 A10 r F+0V7 C0V131 F+0V1 D0V7 C+15V27 D+0]

$$ALL
  [rV121 C0V131 F+0V3 C11V4 C2V4 D2V7 G+10V122 D2V7 rV122 rV1 D0V7 C+15V27 D+0V128 D0V7 D+0 F+9V24 F+11V182 F+9V4 D0V7 E5V78 r rV7 A0V1 G+9V128 D0V7 C10V129 F+0V24 rV119 rV3 D2V7 B10V122 B0V1 A+9V3 C0 F+0V3 E11V4 B1V115 D+0V134 rV8 F+0V4 D+0V4 D0V119 D+0V7 D0V117 D0V10 G+0V3 F+0V9 A+9V7 F+0V112 A+9V8 A0V121 D0V10 G+0V121 C+10V10 A0V121 C+10V7 A+0V121 A+9V3 D0V9 A0V119 D0V10 G+0V119 G+9V3 rV65 F+9 r F+9V10 D+0 F+9V24 D11V182 A+9V4 D0V7 C+10V131 C8V24 rV4 B1V115 C+15V98 C+10V4 D2V7 B10V182 F+0V27 D0V133 F+0V6 D+0 F+9V24 F+11V182 F+9V4 D0V7 E5V78 r rV130 F+0V24 rV4 B1V116 C+15V24 rV65 D11 r A+9V12 A0V117 A+9V3 D0V10 G+0V119 C10V3 D0V9 A0V121 A+9V3 D0V10 G+0V115 C10V3 D0V9 A0V119 C+10V3 D0V10 G+0V122 C+10V3 D0V9 A0V119 G+9V3 D0V10 G+0V117 F9V3 D0V9 A0V119 C10V3 D0V10 G+0V121 C+10V3]

$$ALL
  [D0V9 A0V122 C10V3 D0V10 G+0V119 C10V3 D0V9 A0V117 A+9V3 D0V10 G+0V119 A+9V3 D0V9 A0V121 D+9V3 D0V10 G+0V119 D+9V3 D0V9 A0V121 C+10V3 D0V10 G+0V122 C+10V3 D0V9 A0V122 C10V3 D0V10 G+0V117 G+9V3 D0V9 A0V112 A+9V3 D0V10 G+0V121 C10V3 D0V9 A0V122 D+9V3 D0V10 G+0V121 A+9V3 D0V9 A0V119 C10V3 D0V10 G+0V121 G6V84 r G0 G+0V3 D0V9 A0V119 G+9V3 D0V10 G+0V3 D0V9 A0V121 A+9V3 D0V10 G+0V3 D0V9 A0V122 D0V10 G+0V122 C+10V8 A0V121 C+10V7 F+0V121 G+9V3 F+0V9 G+9V3 D0V10 G+0V3 D0V9 A0V121 D0V10 G+0V121 C10V3 A0V114 C10V7 C+0V114 D0V9 A0V122 rV124 B1V27 D0V141 F+0V3 F11V182 D+10V136 F+0V24 D+10V3 C0V27 D0V132 rV65 F+10 r F+0V7 C0V131 F+0V1 D0V7 C+15V3 rV182 C10 A+10V122 C0V128 F+0V1 D2V7 G+10V122 D2V7 rV122 rV24 rV4 B1V132 G10V121 rV3 A+10V4 B1V115 D+0V139 C11V115 rV3 rV65 G+11 r F+9V131 rV117 C0 F+0V1]

$$ALL
  [D0V7 C+15V3 G10V182 C+10V128 A10V124 C0V131 F+0V3 rV124 F0V24 rV4 B1V132 C+15V25 rV124 rV126 D+1V27 D0V133 D0V128 F+0 F+0V16 D+10V3 C0 F+0V3 G+10V119 G6V84 r A+0 C+15V31 A0 C+15V31 F0 F+0V4 D+0 rV114 G+11V4 B1V100 D+0V130 D2V11 G10V121 G0V122 G0V1 C10V3 D0V11 D0V11 D0V11 D+0V128 D+8V24 A+10V9 G0V4 D+0V255 B6V142 r rV4 D+0 rV2 C0V115 D+0V132 D0V11 C+15V119 C0V3 G10V182 A+0V24 rV2 C0 A+0 D+10V139 C+8V24 G10V4 C0V24 D2V11 D2V11 G+10V124 D+1V24 G10V4 B1V117 C+15V24 D2V11 G10V182 A+0V27 D0V255 B6V189 r rV1 B1 G+0V4 D+9V3 D0V9 G+0V3 D0V9 G+0V121 D0V9 G+0V119 C10V1 G+0V114 A+9V7 A0V1 D+10 rV126 B1V1 G+0V4 C+0 C2V2 G+10V10 E10V27 D0V131 C0V27 D0V128 A+0V3 G10V119 D0V11 D+0V24 B1V133 rV119 rV3 E11V4 B1V100 D+0 A+10V8 F+0V4 G6V84 r C+1 E0V4 D+0 rV1 A+0V4 C0V3 G10V182 A+0V1]

$$ALL
  [C10V131 rV122 B1V1 C+0 rV119 rV3 F+11V4 B1V100 D+0V130 B1 A+0 A+0V16 D+10V3 C0 A+0 D+0V128 D+8V24 C11V4 D+0V27 D0V255 B6V158 r rV4 B1V100 B1V117 rV7 D+0V25 rV4 A+9V10 rV182 F+9 rV119 rV1 D0V7 C+15V3 A+10V182 A+9V133 F+9V25 C+8V27 D+0 F+0V32 C+10V3 B1V97 D+0 B10V182 C10V4 D0V7 D+0 F+9V24 F+11V182 F+9V4 C0V3 G10V182 E5V78 r rV3 A+10V182 G+9V131 rV119 C0 F+0V1 D0V7 C+15V3 G10V182 A+9V131 A+10V122 C0 F+0V27 D0V131 C8V24 rV4 C0V128 F+0 F+0V16 D+10V3 B1V97 D+0 B10V1 F+2V9 rV117 A+9V3 F+0V9 G+9V3 D0V9 G+0V3 D0V9 G+0V80 F6 rV17 F+0V9 G+9V3 D0V9 F+0 A+10V121 C0V131 F+0V1 D2V7 rV182 C10 rV122 C0 F+0V1 D0V7 C+15V3 rV182 A+9 D0V7 C+15V122 C0V3 rV182 F+0V182 F+0V182 F+0V182 F+0V182 F+0V182 F+0V182 F+0V1 C10V1 C+10V1 D+10V1 A+9V5 D0V7 D0V7 D0V7 F+0V7 C+15V121 C+15V122 C+15V124]

$$ALL
  [C+15V129 G+10V3 D+0V4 D+0V129 G+10V8 G+0V80 F6 rV18 D+0 F+0V4 D0V24 rV4 B1V117 G+0V4 D+0V129 G+10V5 D+0V4 D+0V131 A+10V182 B10V117 F+0V9 C+10V3 G+0V7 E0V119 F+0V9 D+10V5 G+0V7 F+0V122 F+0V9 G+9V9 G+0V7 G+0V124 F+0V9 A+9V10 G+0V7 A0V117 F+0V9 C10V8 G+0V7 F0V119 F+0V9 D+10V6 G+0V7 D+0V121 F+0V9 G6V84 r F+1 C+15V31 A0 F+10V3 D2V11 F+11V182 A+0 F10V132 D0V11 C+15V3 F11V182 D+10V128 A+0V24 D+10V3 B1V98 D+0V129 G+9V24 A+10V182 G+9V9 F+0V9 C+10V9 G+0V7 F+0V119 F+0V9 D+10V7 G+0V7 E0V122 F+0V9 G+9V3 G+0V7 D0V124 F+0V9 G6V84 r G1 C+15V31 A0 F+10V3 D2V11 F+11V182 A+0 F10V132 D0V11 C+15V3 D+11V182 A+0V27 D0V153 C+8V24 G+10V4 B1V118 G+0V4 D+0V129 G10V5 D+0V4 D+0V1 G6V84 r G+1 C+15V3 D11V4 B1V100 D+0V130 C+11V4 D+0V129 G+10V6 E0V4 D+0V129 G+10V1 C+15 A+9V2 F+0V10 G+9V4 A0V119 D0V10 G+0V3 F+0V9 D+9V7 G0V121 C10V9 A0V112 C10V7]

$$ALL
  [A0V112 C10V3 F+0V9 C10V3 D0V10 G+0V119 A+9V12 A0V121 A+9V3 D0V10 E5V78 r rV254 E5V78 r rV137 C0V119 D+0V128 G10V8 G+0V4 C0 F+0V141 A6V24 G10V4 C0V27 D+0V27 D0V128 F+0V16 C+15V121 rV3 C0V3 C0V3 C12V4 B1V100 D+0V131 A+10V8 F+0V4 G6V84 r B1 E0V4 D+0 rV1 F+0V4 C0V3 G10V182 F+0V1 C10V128 D0V7 D+0 D+8V24 G10V4 C0 F+0 D+10V139 C+8V24 G10V4 C0V24 D2V7 D2V7 G+10V124 D+1V24 G10V4 B1V117 C+15V24 D2V7 G10V182 F+0V27 D0V255 B6V175 r rV1 F+2V7 rV1 D0V7 C+15V3 A+10V182 F10V3 B1V98 D+0 G+9V24 G10V182 C+11V9 C0V3 C0V3 C0V3 C0V3 A10V182 F+0V182 F+0V182 F+0V182 F+0V182 F+0V1 C+11V1 C11V1 A+10V1 G+10V1 A+10 D0V7 C+15V134 C0V7 G0V1 D0V7 F+11V3 D2V7 rV65 E19 r C+15V31 G0 F+0V7 C+15V131 C+15V136 C0V7 G+0V182 F+0V182 F+0V182 F+0V182 F+0V182 F+0V182 F+0V3 C0V3 G+10V126 C+15V133 D0V7 D0V7 A+10V1 D+11V8]

$$ALL
  [F11V3 D0V7 F11V27 G+19V31 G+0V2 A+10V31 G0V1 F+0V237 D0V7 F+0V1 F+0V2 F10V27 G+19V27 G+19 F+0V119 C0V122 C+0V3 G10V182 G+10V128 G10V134 C0 F+0V128 F+0V16 D+11V130 F+2V7 rV80 F6V1 rV27 F+0V9 G+9V3 D0V10 G+0V117 F+9V3 D0V9 A0V119 C10V3 D0V10 G+0V121 C+10V3 D0V9 A0V122 C10V3 D0V10 G+0V119 C10V3 D0V9 A0V117 C+10V3 D0V10 G+0V119 A+9V3 D0V9 A0V121 F9V3 D0V10 G+0V119 F9V3 D0V9 A0V121 C+10V3 D0V10 G+0V122 C+10V3 D0V9 A0V119 C10V3 D0V10 G+0V3 D0V9 A0V119 G+9V3 D0V10 G+0V3 D0V9 A0V121 D0V10 G+0V121 C+10V8 A0V121 C+10V7 F+0V121 A+9V3 F+0V9 A+9V3 D0V10 G+0V3 D0V9 A0V119 D0V10 G+0V119 A+9V3 A0V112 A+9V7 C+0V112 A+9V3 rV65 F4 C0 F+9V10 F+9V133 D0V3 E11V119 D0V2 G+9V137 C+0V3 E11V117 D0V3 G+9V255 B6V121 rV1 rV115 D+0V1 D0V3 C+15V3 G10V182 D+0V128 D0V1 F+0V4 A0V1 D0V4 C+15V4 D0V4 C+15V7 D+0V10 C+15V3 G10V182 D+0V128 E0V1]

$$ALL
  [F+0V3 A0V1 D0V3 C+15V4 D0V3 C+15V80 F6 rV2 F+0V3 A0V182 F+9V129 G+10V115 C0V4 A0V3 G10V182 A+9V4 rV182 A+9V129 D+0V10 A+9V130 B10V117 D+0V128 C11V117 C0V4 A0V3 G+10V182 G+9V4 rV182 G+9V129 D+0V10 G+9V128 rV65 C10 C0 F+9V4 C0 D0V1 D0V3 C+15V4 G10V115 C0V134 D+0V4 C0V134 D+0V5 D+0V128 D+0V1 F+0V5 A0V1 D0V5 C+15V4 G10V117 C0V133 D0V4 C0V134 D0V5 D+0V128 D0V1 G6V84 r D+0 D0V4 C+15V3 G+10V182 F+9V128 D+0V4 D0V3 C+15V7 D+0V10 C+15V3 G+10V182 A0V3 A10V182 G+9V4 G10V182 G+9V128 D+0V4 D0V5 C+15V7 D+0V10 C+15V3 G+10V182 A0V3 G10V182 E5V78 r rV7 D+0V11 F+9V133 D0V7 E0V11 E0V11 A+9V5 B10V119 F+0V5 A+0V3 C11V117 F+0V3 A+0V4 A+0V7 E0V11 D+0V130 D0V80 F6 rV6 F+0V3 F+0V3 C0V137 G+10V9 G0V4 D+0V129 G+10V4 D0V4 C0V141 D0V4 C+15V3 G+10V182 B0V3 rV182 E5V78 r rV7 D+0V10 rV115 C0V129 D0V1 D+0V10 F+9V128 C+11V119]

$$ALL
  [D+0 C+11V119 E0V4 G10V119 C0V132 E0V4 C0V133 E0V1 D+0V10 G+9V129 C11V117 D+0 C+11V117 E0V4 G10V117 C0V255 B6V121 rV1 rV115 D+0V1 D0V3 C+15V3 G10V182 D+0V128 D0V1 F+0V4 A0V1 D0V4 C+15V4 D0V4 C+15V7 D+0V10 C+15V3 G10V182 D+0V128 E0V1 F+0V3 A0V1 D0V3 C+15V4 D0V3 C+15V80 F6 rV9 F+0V3 A0V182 F+9V129 G+10V115 C0V4 A0V3 G10V182 A+9V4 rV182 A+9V129 D+0V10 A+9V130 B10V117 D+0V128 C11V117 C0V4 A0V3 G+10V182 G+9V4 rV182 G+9V129 D+0V10 G+9V128 rV65 C10 C0 F+9V4 C0 D0V1 D0V3 C+15V4 G10V115 C0V134 D+0V4 C0V134 D+0V5 D+0V128 D+0V1 F+0V5 A0V1 D0V5 C+15V4 G10V117 C0V133 D0V4 C0V134 D0V5 D+0V128 D0V1 G6V84 r A+0 F0V4 C+15V1 C0V129 G10V182 D+0V128 G10V182 A+9V4 rV182 A+9V5 D+0V128 A10V182 D+9V4 C0 G+10V182 D+9V1 D+0V10 D+9V1 F+0V4 A0V1 D0V4 C+15V4 D0V4 C+15V80 F6 rV12 F+0V6 A0V182 D+9V1 C0V128 D+0V4 C0V128 C+11V119]

$$ALL
  [D+0 C+11V119 E0V4 G10V119 C0V132 E0V4 C0V133 E0V1 D+0V10 G+9V129 C11V117 D+0 C+11V117 E0V4 G10V117 C0V255 B6V119 rV1 rV112 D+0V1 C0V129 G+10V112 C+15V4 G10V112 C+15V7 D+0V10 C+15V1 E0V4 G10V119 C+15V7 D+0V10 rV112 C+15V1 C0V4 A0V1 C0V134 D+0V4 C0V134 D+0V5 D+0V128 D+0V1 G6V84 r C+1 F0V4 C+15V1 C0V129 G10V182 D+0V128 G10V182 A+9V4 rV182 A+9V129 D+0V10 A+9V130 G10V4 G10V117 D+0V128 C11V117 D+0 D+0V4 D0V5 C+15V4 A0V7 D+0V10 C+15V4 G10V4 G10V117 D+0V128 D+0V10 G+9 E0V10 E5V78 r rV7 A0V182 E11V119 C0V131 G0V1 D2V8 rV182 C10 A+10V122 C0 G0V24 rV182 C11V117 E0V10 rV117 C0V4 F+0V5 C+15V6 G+9V10 D+0 E0V5 D+0 E0V1 F0V7 A0V182 rV117 C0V4 F+0V3 C+15V4 F+0V3 C+15V6 G+9V10 D+0 D0V1 F0V7 D+0V182 F0V7 A0V182 rV117 C0V4 F+0V3 C+15V6 E5V78 r rV7 D+0V182 F0V7 A0V182 rV115 C0V4 F+0V3 C+15V6 F+9V4 A0V6]

$$ALL
  [F+9V10 D+0 D0V1 F0V7 A0V182 rV119 E0V10 rV119 C0V4 F+0V4 C+15V6 A+9V10 D+0 D+0V5 D+0 D+0V1 F0V7 A0V182 rV119 C0V4 F+0V5 C+15V4 F+0V5 C+15V6 G+9V10 D+0 E0V1 F0V7 D+0V182 F0V7 A0V182 rV117 C0V4 F+0V5 C+15V6 G+9V4 A0V6 G+9V10 D+0 D0V1 F0V7 A0V182 rV117 E0V10 rV117 C0V4 F+0V3 C+15V6 G+9V10 D+0V255 B6V45 rV1 rV115 E0V10 rV115 C0V4 F+0V3 C+15V6 F+9V10 D+0 D0V5 D+0 D0V1 F0V7 A0V182 rV115 C0V4 F+0V4 C+15V4 F+0V4 C+15V6 A+9V10 D+0 D+0V1 F0V7 D+0V182 F0V7 A0V182 rV119 C0V4 F+0V4 C+15V6 G+9V4 A0V6 G+9V10 D+0 E0V1 F0V7 A0V182 rV117 E0V10 rV117 C0V4 F+0V5 C+15V6 G+9V10 D+0 D0V5 D+0 D0V1 F0V7 A0V182 rV117 C0V4 F+0V3 C+15V4 F+0V3 C+15V6 G+9V10 D+0 D0V1 F0V80 F6V1 rV18 F+0V3 C+15V4 F+0V3 C+15V6 F+9V10 D+0 D0V1 F0V7 D+0V182 F0V7 A0V182 rV115 C0V4 F+0V3]

$$ALL
  [C+15V6 A+9V4 A0V6 A+9V10 D+0 D+0V1 F0V7 A0V182 rV119 E0V10 rV119 C0V4 F+0V4 C+15V6 A+9V10 D+0 E0V5 D+0 E0V1 F0V7 A0V182 rV117 C0V4 F+0V5 C+15V4 F+0V5 C+15V6 G+9V10 D+0 E0V1 F0V7 D+0V182 F0V7 A0V182 rV117 C0V4 F+0V3 C+15V6 G+9V4 A0V6 G+9V10 D+0 D0V1 F0V7 A0V182 rV65 G+3 C0 F+9V4 A0V6 F+9V10 D+0 D0V1 F0V7 A0V182 rV115 E0V10 rV115 C0V4 F+0V3 C+15V6 F+9V10 D+0 D+0V5 D+0 D+0V1 F0V7 A0V182 rV119 C0V4 F+0V4 C+15V4 F+0V4 C+15V6 A+9V10 D+0 D+0V1 F0V7 D+0V182 F0V7 A0V182 rV117 C0V4 F+0V5 C+15V6 G+9V4 A0V6 G+9V10 D+0 E0V1 F0V7 A0V182 rV117 E0V10 rV117 C0V4 F+0V3 C+15V6 G+9V10 D+0 D0V5 D+0 D0V1 F0V7 A0V182 rV117 C0V4 G6V84 C0 G1 D0V5 D+0 D0V1 F0V7 A0V182 rV115 C0V4 F+0V3 C+15V4 F+0V3 C+15V6 F+9V10 D+0 D0V1 F0V7 D+0V182 F0V7 A0V182]

$$ALL
  [rV119 C0V4 F+0V4 C+15V6 A+9V4 A0V6 A+9V10 D+0 D+0V1 F0V7 A0V182 rV117 E0V10 rV117 C0V4 F+0V5 C+15V6 G+9V10 D+0 E0V5 D+0 E0V1 F0V7 A0V182 rV117 C0V4 F+0V3 C+15V4 F+0V3 C+15V6 G+9V10 D+0 D0V1 F0V7 D+0V182 F0V7 A0V182 rV117 C0V4 F+0V3 C+15V6 E5V78 r rV7 D+0V182 F0V7 A0V182 rV115 C0V4 F+0V3 C+15V6 F+9V4 A0V6 F+9V10 D+0 D0V1 F0V7 A0V182 rV119 E0V10 rV119 C0V4 F+0V4 C+15V6 A+9V10 D+0 D+0V5 D+0 D+0V1 F0V7 A0V182 rV119 C0V4 F+0V5 C+15V4 F+0V5 C+15V6 G+9V10 D+0 E0V1 F0V7 D+0V182 F0V7 A0V182 rV117 C0V4 F+0V5 C+15V6 G+9V4 A0V6 G+9V10 D+0 D0V1 F0V7 A0V182 rV117 E0V10 rV117 C0V4 F+0V3 C+15V6 G+9V10 D+0V255 B6V27 rV1 rV115 C0V140 G+10V12 C1V4 C0V255 B6V142 rV1 rV112 E0V10 rV112 C0V4 F+0V6 C+15V6 D+9V10 D+0 F0V5 D+0 A0V1 F+0V4 A0V1 C0V129 D+0V10 A+9V1]

$$ALL
  [F+0V6 A0V182 D+9V1 C0V128 D+0V4 C0V128 C+11V119 D+0 C+11V119 E0V4 G10V119 C0V255 B6V118 rV1 rV112 D+0V1 C0V129 G+10V112 C+15V4 G10V112 C+15V7 D+0V10 C+15V3 G+10V182 A0V3 A10V182 G+9V4 G10V182 G+9V128 D+0V4 D0V5 C+15V7 D+0V10 C+15V3 G+10V182 A0V3 G10V182 E5V78 r rV7 D+0V10 rV112 C+15V1 C0V4 A0V1 C0V134 D+0V4 C0V134 G+10V182 A0V1 C0V132 F0V4 C+15V1 C0V129 G10V182 D+0V128 G10V182 A+9V4 rV182 A+9V129 D+0V10 A+9V130 rV65 F+17 C0 D+9V4 C0 G+10V182 D+9V1 D+0V10 D+9V1 F+0V4 A0V1 D0V4 C+15V4 D0V4 C+15V7 D+0V182 F0V7 A0V182 rV117 C0V4 F+0V5 C+15V6 G+9V4 A0V6 G+9V10 D+0 E0V1 F0V7 A0V182 rV117 E0V10 rV117 C0V4 F+0V3 C+15V6 G+9V10 D+0 D0V5 D+0 D0V1 F0V7 A0V182 rV117 C0V4 G6V84 C0 D2 D0V5 D+0 D0V1 F0V7 A0V182 rV115 C0V4 F+0V3 C+15V4 F+0V3 C+15V6 F+9V10 D+0 D0V1 F0V7 D+0V182 F0V7 A0V182 rV119]

$$ALL
  [C0V4 F+0V4 C+15V6 A+9V4 A0V6 A+9V10 D+0 D+0V1 F0V7 A0V182 rV117 E0V10 rV117 C0V4 F+0V5 C+15V6 G+9V10 D+0 E0V5 D+0 E0V1 F0V7 A0V182 rV117 C0V4 F+0V3 C+15V4 F+0V3 C+15V6 G+9V10 D+0 D0V1 F0V7 D+0V182 F0V7 A0V182 rV117 C0V4 F+0V3 C+15V6 E5V78 r rV24 G+19V105 D11V2 C0V128 rV80 F6 rV1 F+2 D0V1 D0V1 F+7 rV103 D0 C+15V3 G+10V91 C0 C0V3 rV182 A+8V129 rV1 D0V1 A+7 rV107 D0 C+15V3 G+10V93 C0 C0V3 rV182 G+8V129 rV1 D0V1 G+7 rV105 D0 C+15V3 G+10V93 C0 C0V3 rV182 D+8V129 rV1 D0V1 E5V78 r rV31 D1V3 C+15V3 G+10V91 C0 C0V3 rV182 F+8V129 rV1 D0V1 A+7 rV107 D0 C+15V3 G+10V95 C0 C0V3 rV182 A+8V129 rV1 D0V1 G+7 rV105 D0 C+15V3 G+10V93 C0 C0V3 rV182 G+8V129 rV1 D0V1 G+7 rV100 D0 C+15V3 rV65 D+15 C+0 F+7V15 rV182]

$$ALL
  [F+8V129 rV1 D0V1 F+7 rV103 D0 C+15V3 G+10V95 C0 C0V3 rV182 A+8V129 rV1 D0V1 A+7 rV107 D0 C+15V3 G+10V93 C0 C0V3 rV182 G+8V129 rV1 D0V1 G+7 rV105 D0 C+15V3 G+10V93 C0 C0V3 rV182 G+8V255 B6V184 rV2 rV91 D1 rV103 D0 C+15V3 G+10V91 C0 C0V3 rV182 F+8V129 rV1 D0V1 A+7 rV107 D0 C+15V3 G+10V95 C0 C0V3 rV182 G+8V129 rV1 D0V1 G+7 rV105 D0 C+15V3 G+10V93 C0 C0V3 rV182 G+8V129 rV1 D0V1 G+7 rV105 G6V84 r E0 C0V15 C0 C0V24 rV182 C0 C+15V103 C0 C0V1 D0V1 C+15V3 D+11V182 C0V1 D0V1 C+15V3 B10V182 C0V1 D0V1 C+0 G10V100 rV1 D0V1 C+15V3 rV182 E5V78 r rV27 D1V157 rV4 G+7V15 B10V93 C+15V3 C0V132 rV182 E5V78 r rV31 D1V3 C+15V3 G+10V91 C0 C0V3 rV182 F+8V129 rV1 D0V1 A+7 rV107 D0 C+15V3 G+10V95 C0 C0V3 rV182]

$$ALL
  [A+8V129 rV1 D0V1 G+7 rV105 D0 C+15V3 G+10V93 C0 C0V3 rV182 G+8V129 rV1 D0V1 G+7 rV100 D0 C+15V3 rV65 D+15 C+0 F+7V15 rV182 F+8V129 rV1 D0V1 F+7 rV103 D0 C+15V3 G+10V95 C0 C0V3 rV182 A+8V129 rV1 D0V1 A+7 rV107 D0 C+15V3 G+10V93 C0 C0V3 rV182 G+8V129 rV1 D0V1 G+7 rV105 D0 C+15V3 G+10V93 C0 C0V3 rV182 G+8V255 B6V184 rV2 rV91 D1 rV103 D0 C+15V3 G+10V91 C0 C0V3 rV182 F+8V129 rV1 D0V1 A+7 rV107 D0 C+15V3 G+10V95 C0 C0V3 rV182 G+8V129 rV1 D0V1 G+7 rV105 D0 C+15V3 G+10V93 C0 C0V3 rV182 G+8V129 rV1 D0V1 G+7 rV105 G6V84 r A0 rV15 C0 C0V3 rV182 F+8V129 rV1 D0V1 F+7 rV103 D0 C+15V3 G+10V95 C0 C0V3 rV182 A+8V129 rV1 D0V1 G+7 rV105 D0 C+15V3 G+10V93 C0 C0V3 rV182 G+8V129 rV1 D0V1 G+7]

$$ALL
  [rV105 D0 C+15V3 G+10V93 C0 C0V80 F6 rV11 F+2 D0V1 D0V1 D+7 rV100 D0 C+15V3 G+10V88 C0 C0V3 rV182 A+8V129 rV1 D0V1 A+7 rV107 D0 C+15V3 G+10V88 D1 rV100 D0 C+15V3 G+10V88 C0 C0V3 rV182 D+8V129 rV1 D0V1 A+7 rV107 D0 C+15V3 G+10V95 C0 C0V80 F6 rV12 F+2 D0V1 D0V1 D+7 rV100 D0 C+15V3 G+10V88 C0 C0V3 rV182 A+8V129 rV1 D0V1 A+7 rV107 D0 C+15V3 G+10V93 C0 C0V3 rV182 G+8V129 rV1 D0V1 G+7 rV105 D0 C+15V3 G+10V93 C0 C0V3 rV182 D+8V129 rV1 D0V1 E5V78 r rV31 D1V3 C+15V3 G+10V88 C0 C0V3 rV182 D+8V129 rV1 D0V1 A+7 rV107 D0 C+15V3 G+10V95 C0 C0V3 rV182 A+8V129 rV15 C0 C0V3 rV182 D+8V129 rV1 D0V1 D+7 rV100 D0 C+15V3 G+10V95 C0 C0V3 rV182 A+8V129 rV1 D0V1 E5V78 r rV31 D1V3 C+15V3 G+10V88]

$$ALL
  [C0 C0V3 rV182 D+8V129 rV1 D0V1 A+7 rV107 D0 C+15V3 G+10V95 C0 C0V3 rV182 A+8V129 rV1 D0V1 G+7 rV105 D0 C+15V3 G+10V93 C0 C0V3 rV182 G+8V129 rV1 D0V1 G+7 rV100 D0 C+15V3 rV65 E8 C+0 F+7V15 G15V93 rV182 G+8V129 rV1 D0V1 G+7 rV105 D0 C+15V3 G+10V93 C0 C0V3 rV182 G+8V129 rV1 D0V1 G+7 rV105 G6V84 r D+1 rV15 C0 C0V3 rV182 F+8V129 rV1 D0V1 F+7 rV103 D0 C+15V3 G+10V95 C0 C0V3 rV182 A+8V129 rV1 D0V1 G+7 rV105 D0 C+15V3 G+10V93 C0 C0V3 rV182 G+8V129 rV1 D0V1 G+7 rV105 D0 C+15V3 G+10V93 C0 C0V80 F6 rV17 F+2 D0V1 D0V1 F+7 rV103 D0 C+15V3 G+10V91 C0 C0V3 rV182 A+8V129 rV1 D0V1 A+7 rV107 D0 C+15V3 G+10V93 C0 C0V3 rV182 G+8V129 rV1 D0V1 G+7 rV105 D0 C+15V3 G+10V93 C0 C0V3 rV182]

$$ALL
  [D+8V129 rV1 D0V1 E5V78 r rV31 D1V3 C+15V3 G+10V91 C0 C0V3 rV182 F+8V129 rV1 D0V1 A+7 rV107 D0 C+15V3 G+10V95 C0 C0V3 rV182 A+8V129 rV1 D0V1 G+7 rV105 D0 C+15V3 G+10V93 C0 C0V3 rV182 G+8V129 rV1 D0V1 G+7 rV100 D0 C+15V3 rV65 D+15 C+0 F+7V15 rV182 F+8V129 rV1 D0V1 F+7 rV103 D0 C+15V3 G+10V95 C0 C0V3 rV182 A+8V129 rV1 D0V1 A+7 rV107 D0 C+15V3 G+10V93 C0 C0V3 rV182 G+8V129 rV1 D0V1 G+7 rV105 D0 C+15V3 G+10V93 C0 C0V3 rV182 G+8V255 B6V184 rV2 rV91 D1 rV103 D0 C+15V3 G+10V91 C0 C0V3 rV182 F+8V129 rV1 D0V1 A+7 rV107 D0 C+15V3 G+10V95 C0 C0V3 rV182 G+8V129 rV1 D0V1 G+7 rV105 D0 C+15V3 G+10V93 C0 C0V3 rV182 G+8V129 rV1 D0V1 G+7 rV105 G6V84 r G+1 rV15 C0 C0V3 rV182 F+8V129 rV1 D0V1]

$$ALL
  [F+7 rV103 D0 C+15V3 G+10V95 C0 C0V3 rV182 A+8V129 rV1 D0V1 G+7 rV105 D0 C+15V3 G+10V93 C0 C0V3 rV182 G+8V129 rV1 D0V1 G+7 rV105 D0 C+15V3 G+10V93 C0 C0V80 F6 rV22 F+0V1 D+0V154 F+0 C0V255 B6V187 rV2 rV88 D1 rV100 D0 C+15V3 G+10V88 C0 C0V3 rV182 D+8V129 rV1 D0V1 A+7 rV107 D0 C+15V3 G+10V95 C0 C0V31 D1V3 C+15V3 G+10V88 C0 C0V3 rV182 D+8V129 rV1 D0V1 A+7 rV107 D0 C+15V3 G+10V95 C0 C0V3 rV182 A+8V255 B6V184 rV2 rV88 D1 rV100 D0 C+15V3 G+10V88 C0 C0V3 rV182 D+8V129 rV1 D0V1 A+7 rV107 D0 C+15V3 G+10V95 C0 C0V3 rV182 G+8V129 rV1 D0V1 G+7 rV105 D0 C+15V3 G+10V93 C0 C0V3 rV182 G+8V129 rV1 D0V1 G+7 rV105 G6V84 r C2 rV15 C0 C0V3 rV182 D+8V129 rV1 D0V1 D+7 rV100 D0 C+15V3 G+10V95 C0]

$$ALL
  [C0V3 rV182 A+8V129 rV1 D0V1 D+7V15 rV182 D+8V129 rV1 D0V1 D+7 rV100 D0 C+15V3 G+10V95 C0 C0V3 rV182 A+8V129 rV1 D0V1 A+7 rV107 G6V84 r C+2 rV15 C0 C0V3 rV182 D+8V129 rV1 D0V1 D+7 rV100 D0 C+15V3 G+10V95 C0 C0V3 rV182 A+8V129 rV1 D0V1 G+7 rV105 D0 C+15V3 G+10V93 C0 C0V3 rV182 G+8V129 rV1 D0V1 G+7 rV105 D0 C+15V3 G+10V93 C0 C0V80 F6 rV27 F+2 D0V1 D0V1 F+7 rV103 D0 C+15V3 G+10V91 C0 C0V3 rV182 A+8V129 rV1 D0V1 A+7 rV107 D0 C+15V3 G+10V93 C0 C0V3 rV182 G+8V129 rV1 D0V1 G+7 rV105 D0 C+15V3 G+10V93 C0 C0V3 rV182 D+8V129 rV1 D0V1 E5V78 r rV254 E5V78 r rV7 C1V3 rV108 D0V15 B8 D1V3 rV108 D0V12 B8 D+1V3 rV108 D0V15 B8 D1V3 rV108 D0V16 B8 C1V3 rV108 D0V15 B8 D1V3 rV108]

$$ALL
  [B8V3 rV108 D0V16 B8 B0V3 rV108 D0V15 B8 D1V3 rV108 D0V12 B8 D+1V3 rV108 D0V15 B8 D1V3 rV108 D0V16 B8 C1V3 rV108 D0V15 B8 D1V108 B8 D1V3 rV108 D0V13 B8V3 rV65 B0 D0 B8 D1V3 rV108 D0V13 B8 D+1V3 rV108 D0V15 B8 D1V3 rV108 D0V16 B8 B0V3 rV108 D0V15 B8 D1V3 rV108 D0V12 B8 D+1V3 D0V15 C1V3 rV108 D0V15 B8 D1V3 rV108 D0V13 B8 D+1V3 rV108 D0V15 B8 D1V3 rV108 D0V16 B8 B0V3 rV108 D0V15 B8 D1V3 rV108 D0V12 B8V3 D0V16 B8 C1V3 rV108 D0V15 D1V80 F6V1 rV3 D0V12 B8 D+1V3 rV108 D0V15 B8 D1V3 rV108 D0V16 B8 C1V3 rV108 D0V15 B8 D1V3 rV108 D0V13 B8 D+1V3 rV108 D0V15 B8 D1V108 B8 D1V3 rV108 D0V12 B8 D+1V3 rV108 D0V15 B8 D1V3 rV108 D0V16 B8 C1V3 rV108 D0V15 B8]

$$ALL
  [D1V3 rV108 D0V13 B8 D+1V3 rV108 D0V15 D1V108 D0V15 B8 D1V3 rV108 B8V255 B6V13 rV3 rV108 D0V15 B8 D1V3 rV108 D0V16 B8 B0V3 rV108 D0V15 B8 D1V3 rV108 D0V12 B8 D+1V3 rV108 D0V15 B8 D1V3 rV108 D0V16 B8V3 D0V13 B8 D+1V3 rV108 D0V15 B8 D1V3 rV108 D0V16 B8 B0V3 rV108 D0V15 B8 D1V3 rV108 D0V12 B8V3 D0V15 B8 C1V3 rV108 D0V15 B8 D1V108 B8V3 D0V15 B8 D1V3 rV108 G6V84 r E0 B0V141 C1V141 B0V131 B0V7 C1V3 G+11V108 G+11V108 G+11V108 A+10V108 F+0V12 F+0V12 F+0V13 G6V84 r F0 C+1V129 rV10 G+0V4 D+0 rV5 D+0V4 D+0 G+10V180 B8V2 rV108 rV108 rV108 rV108 rV108 rV108 rV108 rV108 rV108 rV108 rV108 rV108 F+0V15 D0V15 B8V15 B8V13 B8V133 B0V3 rV108 D0V16 B8V24 rV65 B0 D0 B8 D1V3 rV108 D0V13 B8 D+1V3 rV108 D0V15 B8]

$$ALL
  [D1V3 rV108 D0V16 B8 B0V3 rV108 D0V15 B8 D1V3 rV108 D0V12 B8 D+1V3 D0V15 C1V3 rV108 D0V15 B8 D1V3 rV108 D0V13 B8 D+1V3 rV108 D0V15 B8 D1V3 rV108 D0V16 B8 B0V3 rV108 D0V15 B8 D1V3 rV108 D0V12 B8V3 D0V16 B8 C1V3 rV108 D0V15 D1V80 F6V1 rV8 D0V12 B8 D+1V3 rV108 D0V15 B8 D1V3 rV108 D0V16 B8 C1V3 rV108 D0V15 B8 D1V3 rV108 D0V13 B8 D+1V3 rV108 D0V15 B8 D1V108 B8 D1V3 rV108 D0V12 B8 D+1V3 rV108 D0V15 B8 D1V3 rV108 D0V16 B8 C1V3 rV108 D0V15 B8 D1V3 rV108 D0V13 B8 D+1V3 rV108 D0V15 D1V108 D0V15 B8 D1V3 rV108 B8V255 B6V12 rV3 rV108 D0V15 B8 D1V3 rV108 D0V16 B8 B0V3 rV108 D0V15 B8 D1V3 rV108 D0V12 B8 D+1V3 rV108 D0V15 B8 D1V3 rV108 D0V16 B8V3 D0V13 B8 D+1V3 rV108]

$$ALL
  [D0V15 B8 D1V3 rV108 D0V16 B8 B0V3 rV108 D0V15 B8 D1V3 rV108 D0V12 B8 D+1V3 rV108 D0V15 B8 D1V3 rV108 B8V3 rV108 D0V13 B8 C1V3 D0V15 E5V78 r rV3 rV108 D0V16 B8 C1V3 rV108 D0V15 B8 D1V3 rV108 D0V13 B8 D+1V3 rV108 D0V15 B8 D1V3 rV108 D0V16 B8 B0V3 rV108 D0V15 D1V108 D0V15 B8 D1V3 rV108 D0V16 B8 C1V3 rV108 D0V15 B8 D1V3 rV108 D0V13 B8 D+1V3 rV108 D0V15 B8 D1V3 rV108 D0V16 B8 B0V3 D0V15 D+1V3 rV108 D0V15 B8 D1V108 G6V84 C0 A+0 B0V3 rV108 D0V15 B8 D1V3 rV108 D0V12 B8 D+1V3 rV108 D0V15 B8 D1V3 rV108 D0V16 B8 C1V3 rV108 D0V15 B8 D1V3 rV108 B8V3 rV108 D0V16 B8 B0V3 rV108 D0V15 B8 D1V3 rV108 D0V12 B8 D+1V3 rV108 D0V15 B8 D1V3 rV108 D0V16 B8 C1V3 rV108]

$$ALL
  [D0V15 B8 D1V108 B8 D1V3 rV108 D0V13 B8V3 rV65 B0 D0 B8 D1V3 rV108 D0V13 B8 D+1V3 rV108 D0V15 B8 D1V3 rV108 D0V16 B8 B0V3 rV108 D0V15 B8 D1V3 rV108 D0V12 B8 D+1V3 D0V15 C1V3 rV108 D0V15 B8 D1V3 rV108 D0V13 B8 D+1V3 rV108 D0V15 B8 D1V3 rV108 D0V16 B8 B0V3 rV108 D0V15 B8 D1V3 rV108 D0V12 B8V3 D0V16 B8 C1V3 rV108 D0V15 D1V80 F6V1 rV13 F+0V12 D0V15 B8 D1V3 rV108 D0V16 B8 B0V3 rV108 D0V15 B8 D1V3 rV108 D0V12 B8 D+1V3 rV108 D0V15 B8 D1V3 rV108 D0V16 B8V3 D0V13 B8 D+1V3 rV108 D0V15 B8 D1V3 rV108 D0V16 B8 B0V3 rV108 D0V15 B8 D1V3 rV108 D0V12 B8 D+1V3 rV108 D0V15 B8 D1V3 rV108 B8V3 rV108 D0V13 B8 C1V3 D0V15 E5V78 r rV3 rV108 D0V16 B8 C1V3 rV108 D0V15]

$$ALL
  [B8 D1V3 rV108 D0V13 B8 D+1V3 rV108 D0V15 B8 D1V3 rV108 D0V16 B8 B0V3 rV108 D0V15 D1V108 D0V15 B8 D1V7 C+1V7 C1V3 rV108 D0V13 B8 B0 D1 B0 D1 D+1V3 rV108 D0V15 B8V15 B8V13 B8V8 B8 B0 D1V7 A0V3 rV108 rV108 F+0V13 B8V3 D0V15 C1 B0V7 C+1V3 rV108 D0V15 C1V108 G6V84 r D1 C+1V129 rV13 B0V4 D+0 rV8 F+0V4 D+0 rV3 C+0V4 F+0V15 F+0V15 F+0V15 F+0V15 F+0V15 F+0V15 F+0V15 F+0V15 F+0V15 F+0V15 F+0V15 F+0V15 F+0V13 F+0V12 D0V15 B8 D1V3 rV108 D0V16 B8 B0V3 rV108 D0V15 B8 D1V3 rV108 D0V12 B8 D+1V3 rV108 D0V15 B8 D1V3 rV108 B8V3 rV108 D0V13 B8 C1V3 D0V15 E5V78 r rV3 rV108 D0V16 B8 C1V3 rV108 D0V15 B8 D1V3 rV108 D0V13 B8 D+1V3 rV108 D0V15 B8 D1V3 rV108 D0V16 B8 B0V3 rV108 D0V15 D1V108]

$$ALL
  [D0V15 B8 D1V3 rV108 D0V16 B8 C1V3 rV108 D0V15 B8 D1V3 rV108 D0V13 B8 D+1V3 rV108 D0V15 B8 D1V3 rV108 D0V16 B8 B0V3 D0V15 D+1V3 rV108 D0V15 B8 D1V108 G6V84 C0 E1 B0V3 rV108 D0V15 B8 D1V3 rV108 D0V12 B8 D+1V3 rV108 D0V15 B8 D1V3 rV108 D0V16 B8 C1V3 rV108 D0V15 B8 D1V3 rV108 B8V3 rV108 D0V16 B8 B0V3 rV108 D0V15 B8 D1V3 rV108 D0V12 B8 D+1V3 rV108 D0V15 B8 D1V3 rV108 D0V16 B8 C1V3 rV108 D0V15 B8 D1V108 B8 D1V3 rV108 D0V13 B8V3 rV65 C1 D0 B8 D1V3 rV108 D0V13 B8 D+1V3 rV108 D0V15 B8 D1V3 rV108 D0V16 B8 B0V3 rV108 D0V15 B8 D1V3 rV108 D0V12 B8 D+1V3 D0V15 C1V3 rV108 D0V15 B8 D1V3 rV108 D0V13 B8 D+1V3 rV108 D0V15 B8 D1V3 rV108 D0V16 B8 B0V3 D0V15]

$$ALL
  [D1V3 rV108 D0V15 B8 D1V3 rV108 B8V3 D0V15 D1V3 rV108 D0V13 B8V255 B6V12 rV3 rV108 D0V15 B8 D1V3 rV108 D0V16 B8 B0V3 rV108 D0V15 B8 D1V3 rV108 D0V12 B8 D+1V3 rV108 D0V15 B8 D1V3 rV108 D0V16 B8V3 D0V13 B8 D+1V3 rV108 D0V15 B8 D1V3 rV108 D0V16 B8 B0V3 rV108 D0V15 B8 D1V3 rV108 D0V12 B8 D+1V3 rV108 D0V15 B8 D1V3 rV108 B8V3 rV108 D0V13 B8 C1V3 D0V15 E5V78 r rV3 rV108 D0V16 B8 C1V3 rV108 D0V15 B8 D1V3 rV108 D0V13 B8 D+1V3 rV108 D0V15 B8 D1V3 rV108 D0V16 B8 B0V3 rV108 D0V15 D1V108 D0V15 B8 D1V3 rV108 D0V16 B8 C1V3 rV108 D0V15 B8 D1V3 rV108 D0V13 B8 D+1V3 rV108 D0V15 B8 D1V3 rV108 D0V16 B8 B0V3 D0V15 D+1V3 rV108 D0V15 B8 D1V108 G6V84 C0 G+1 B0V3 rV108 D0V15]

$$ALL
  [B8 D1V3 rV108 D0V12 B8 D+1V3 rV108 D0V15 B8 D1V3 rV108 D0V16 B8 C1V3 rV108 D0V15 B8 D1V3 rV108 B8V3 rV108 D0V16 B8 B0V3 rV108 D0V15 B8 D1V3 rV108 D0V12 B8 D+1V3 rV108 D0V15 B8 D1V3 rV108 D0V16 B8 C1V3 rV108 D0V15 B8 D1V108 B8 D1V3 rV108 D0V13 B8V3 rV65 F6 D0 B8V15 C+1V4 B0V4 A0V4 G0V4 F0V4 D+0V4 C+0V7 G+0V108 F+0V15 F+0V15 F+0V15 F+0V12 C0V153 rV80 F6V1 rV23 D0V12 B8 D+1V3 rV108 D0V15 B8 D1V3 rV108 D0V16 B8 C1V3 rV108 D0V15 B8 D1V3 rV108 D0V13 B8 D+1V3 rV108 D0V15 B8 D1V108 B8 D1V3 rV108 D0V12 B8 D+1V3 rV108 D0V15 B8 D1V3 rV108 D0V16 B8 C1V3 rV108 D0V15 B8 D1V3 rV108 D0V13 B8 D+1V3 rV108 D0V15 D1V108 D0V15 B8 D1V3 rV108 B8V255 B6V12 rV3 rV108 D0V15 B8 D1V3]

$$ALL
  [rV108 D0V16 B8 B0V3 rV108 D0V15 B8 D1V3 rV108 D0V12 B8 D+1V3 rV108 D0V15 B8 D1V3 rV108 D0V16 B8V3 D0V13 B8 D+1V3 rV108 D0V15 B8 D1V3 rV108 D0V16 B8 B0V3 rV108 D0V15 B8 D1V3 rV108 D0V12 B8 D+1V3 rV108 D0V15 B8 D1V3 rV108 B8V3 rV108 D0V13 B8 C1V3 D0V15 E5V78 r rV3 rV108 D0V16 B8 C1V3 rV108 D0V15 B8 D1V3 rV108 D0V13 B8 D+1V3 rV108 D0V15 B8 D1V3 rV108 D0V16 B8 B0V3 rV108 D0V15 D1V108 D0V15 B8 D1V3 rV108 D0V16 B8 C1V3 rV108 D0V15 B8 D1V3 rV108 D0V13 B8 D+1V3 rV108 D0V15 B8 D1V3 rV108 D0V16 B8 B0V3 D0V15 D+1V3 rV108 D0V15 B8 D1V108 G6V84 C0 C+2 B0V3 rV108 D0V15 B8 D1V3 rV108 D0V12 B8 D+1V3 rV108 D0V15 B8 D1V3 rV108 D0V16 B8 C1V3 rV108 D0V15 B8 D1V3]
