
$UNKNOWN_0xC1, $FM1,

!ALL

$$ALL
  [D+5 D+5 D+5 r r r r r r r r r r r r r r r r B8V99 C6V116 D8 F9V103 G2V112 D+18 C0 C0V127 B3 rV42 B18 rV50 E8 rV210 C+8 rV201 C+8 rV49 G+0 rV93 D+18 rV48 r rV191 A9 rV181 D19 rV184 F7 rV152 A12 rV139 G+1 rV118 D+4 rV89 E0 rV67 C0 rV232 F+9 rV46 D+5 rV39 C0 rV160 E18 rV240 F4 rV159 E3 rV138 G11 rV109 D18 rV87 G+1 rV120 A8 rV94 B9 rV47 E5 rV219 C7 rV234 A+20 rV146 A18 rV32 F7 rV65 C+12 rV249 F17 rV111 E12 rV27 C13 rV2 D5 rV122 B0 rV178 E0 rV137 D1 rV217 A+12 rV114 A9 rV11 G5 rV12 C+9 rV94 A+13 rV153 G18 rV152 B7 rV4 D+19 rV58 G18 rV253 F+1 rV199 D11 rV30 D5 rV195 A0 rV99 C0V1 C0V1 D+0V4 F0 C0V1 A0V8 B0V12 r D0V5 F+0V8 D1V17 G1V20 A+1V25 E2V29 F+2V33 r D0V3 E0V5 D0 r C1V14 D+1V16 F+1V19 rV2 D0V3 D+0V7 r rV10 C+1V15 D+1V18 G1V20 r D0V6 F0V3 G0V8 A+0V10 C+1V15 E1V19 G+1V1 rV1 D+0V4 D0V3 G0V3 A0V12 D1V16 G1V20 rV2 D+0V4 F+0V7 A0V10 D1V17 G+1V22 B1V26 C0V2 C+0V3 F0V2 F+0V8 B0V13 E1V18]
  [D+5 D+5 D+5 r r r r r r r r r r r r r r r r G+8V97 F8V114 B5V32 C8V32 E8 C0 r rV11 B0 rV13 C1 rV14 C+1 rV15 D1 rV17 F+1 rV20 G+1 rV24 C2 rV27 D+2 rV31 G2 rV34 A+2 rV36 C3 rV40 E3 rV43 G3 rV47 B3 rV50 D4 rV53 F4 rV58 B4 rV63 E5 rV68 A5 rV75 D+6 rV78 G6 rV82 A+6 rV86 C+7 rV89 G7 rV95 C8 rV100 F8 rV105 A+8 rV110 D+9 rV112 E9 rV114 G9 rV116 A+9 rV121 C+10 rV124 F10 rV127 F+10 rV128 G+10 rV131 A+10 rV134 D+11 rV137 F11 rV141 A11 rV142 A+11 rV150 B12 rV158 F+13 rV168 C+14 rV171 D14 rV172 F14 rV177 A14 rV181 D15 rV185 F15 rV188 G+15 rV192 C16 rV196 F16 rV200 G16 rV204 D17 r C0V1 C0V3 E0V5 rV5 E0V5 A+0V13 C1V13 rV2 D+0V4 G+0V12 F1V18 G+1 D+2V29 E2V30 G2V32 C+0V2 D0 F+0V7 rV8 A0V12 D1V14 F1V18 G1 D0V3 rV5 D0V3 G0 A0V13 D1V16 F+1V19 C0V2 C0 D+0V4 D0V3 D0V3 B0V14 D+1V16 G1V20 D0 rV3 F0V6 D0V8 G+0V11 D1V14 E1V17 F+1V21 D0V5 C+0V2 G0V9 C1V14 F1V19 C+0V2 C+2V10 r D+0V4 F+0V7 A0V10 A0V15 F1V21]

$$ALL
  [A+1V2 C+2V26 r D+0V4 F0V7 G0V8 G0V4 D+0V4 A0V1 C1V13 r r C0V1 r r r r r C0V2 D+0 F0V6 F+0V7 A0V11 C1V12 D1V15 D+1V18 D0V5 rV4 F0V4 F+0V7 A+0V10 B0V13 D1V17 r r r r r r r r rV1 C0V1 D+0V4 D+0V4 C0V1 r F0V6 r G0V8 D0V3 D0 r r r r r rV4 r r C8V71 D+3V83 r r r r r r r r r r r rV255 r rV255 r rV255 r rV255 r rV255 r rV255 r r F0V6 F0V6 F+8 C6V4 E5V73 rV65 r r rV18 A1V22 rV31 B0V9 G+6V81 G+7V94 A1V38 A+2V53 rV8 F6 E0V127 C0V131 C8V1 E11V97 C0V131 F8V1 rV65 r D8V1 A+10V107 C0V137 D8V1 A+10V97 C0V131 D8V1 r E11V99 C0V131 D8V1 E11V99 C0V131 F8V1 A+10V99 F6 C2V229 E11V99 C0V137 D8V1 A+10V99 C0V131 D8V1 rV65 r C0V137 C8V1 A+10V111 C0V137 G+8V1 rV65 r D2V16 A+3V52 D2V28 E7V90 G+2V51 r A6V82 A+6V120 B2V136 C0V5 F6 B1V1 r r rV65 r C0V137 B7V1 r rV80 rV11 A+10V180 C0V131 C+3 A7V1 A+11V94 C0V143 D8V80 rV13 E11V94 C0V137 D8V1 B6V9 rV94 r r C+0V20 rV26 D7V88 rV31 rV25 A6V82 A+6V83 C8V85 A+2 B4V1 C0V137 E11V2]
  [B1V24 A0V1 C+0V1 D+0V5 F+0V7 G0V8 E0V4 A0V10 B0V13 r r r D0 r E0 r r r E0V5 D+0V6 D+0V4 F+0V7 A0V11 C1V14 E1V17 rV1 D+0V4 F0V6 rV7 G0V10 B0V13 C+1V15 D+1V16 r r r r r r r r C0V1 C0V3 D0V4 C0V1 C+0V1 F0V6 F+0V6 G0V8 C+0V1 D0V3 r r r r rV128 C0 C0 rV150 rV83 E8V105 r r r C+4 C0 C+0V16 D+1V5 F+0V16 D+1V10 B0V16 D+1V15 C0V208 D+17V4 F0V208 D+17V9 A+0V208 D+17V14 rV224 G18V3 E0V224 G18V8 A0V224 G18V13 D1V224 r F0V6 rV11 A+0 r r A6 E5V78 rV125 A+0V16 C4 B6V97 F7V120 D+4V68 F0V255 A6V83 G4V17 rV80 rV1 C8V1 E11V97 C0V131 C8V1 E11V105 C0V131 D+6 D8V136 C0V131 D8V1 A+10V102 C0V137 A+8V1 E11V99 G6V84 D0 D8V1 A+10V99 C0V131 D8V1 A+10V107 C0V137 D8V80 rV4 C0V131 C8V1 A+10V99 C0V137 D8V1 E11V99 C0V131 C+5 C8V1 A+10V107 C0V137 C8V1 A+10V107 C0V137 B8 r G+1V22 B9V255 F+2V8 rV81 G7V93 rV19 D+1V32 E1V97 A0V4 rV80 rV7 B14V56 E5V78 rV1 C+2 C7V1 E14V95 G6V84 A0 F6 C0V143 G+6V1 rV65 r C0V143 C8V1 A+11V94 F6 C0V137 A7V1 E12V97 C0V255 r G6V84 r F+1V20 A1V22 F+2V8 F+0V9 G+6V81 A+7V120 E4V67 F+5V63 rV65 C0 B1V3 C0V24 B1V8]

$$ALL
  [E5V78 rV1 D4 A11V180 D+2V20 rV15 A1V91 G1V21 C0 rV109 G0V85 C0V128 A+9V1 C9V16 C0V128 G9V1 G10V112 C0V128 D+9V33 G10V116 C0V128 B15V8 G10V119 C0V128 D+1V1 G10V121 C0V128 D+9V1 G10V119 G+2V109 G9V1 B7V18 A1V22 rV31 G0V10 E1V48 B6V43 rV87 F+10V4 D9V5 rV77 G+1 D7V18 rV2 F+10V4 rV108 rV87 F+10V4 D9V4 rV100 E0V127 G+10V111 rV255 G1V21 rV87 G+1 E0V127 D+0 D+0 E0V127 G+10V111 D+0 A+7V1 D+2V20 rV15 A1V91 G1V21 C0 F+10V4 D9V5 D7V129 F+10V127 rV95 A+2V8 rV4 D9V4 rV87 F+10V4 D9V5 B9V4 rV104 G+10V111 rV87 D1V127 F+10 F+10V35 B3 G+10V111 D+0 E0V127 G+10V111 rV120 D+0 B14V255 G1V21 A1V120 G0V31 G+0V255 G+6V92 B9V255 F+5V16 rV17 B3V255 rV1 rV65 C0 B0V11 G2V49 B6V84 E7V90 B2V52 F0V6 A6V82 A+6V120 B9V8 F6 E0V127 C0V131 D8V1 A+10V102 C0V137 A+8V1 E11V99 G6V84 A0 E0V7 C0V131 D8V1 E11V99 C0V131 F8V1 A+10V99 r A+10V126 D+10V4 C8V131 A+10V118 G9V4 F8V131 D+0V131 A+10V107 G+8V5 D+0V131 A+10V99 C8V5 A+18 rV111 G+1V22 B9V255 D1V8 rV8 C+0V85 D9V1 A+10V111 C0V131 F8V1 A+10V99 C0V131 D9V1 A+11V99 D+2V20 A2V49 D2V28 E7V90 A+2V55 G+1 A6V82 C+0V56 rV65 C0 A+10V120 C0V131 C10V1 A+10V127 C0V131 A+10V127 G+4V128 A+10V128 D+4V1 A+10V131 C+4V1 r rV115 G+0V16 rV25 D7V88 rV17 D5V8 A+10V99 C0V131 D9V1 A+11V99]
  [r rV65 C0 rV108 C2V86 B9V255 D1V35 G6V84 D+0 B9V99 rV1 G10V121 C0V128 D+9V1 G10V119 G+2V109 G9V1 G10V116 G0V128 A+9V1 G10V112 C0V128 C10V1 G10V192 C0V128 A+9V1 C9V1 C0V128 G9V1 G10V112 C0V125 G0V28 B3V77 F+7V82 F7V56 C8V255 rV1 D+0 E0V127 G+10V111 F+10 A+7V125 G0V28 D+0 D+0 D7V129 D+0 E0V127 D+0 G8V4 D9V5 D7V129 F+10V127 rV95 A+2V8 rV4 D9V4 rV87 F+10V4 D9V5 B9V4 rV104 rV96 C2V86 B9V255 D1V35 G6V84 F0 E0V127 G+10V111 rV255 G1V21 rV87 G+1 E0V127 D+0 D+0 E0V127 G+10V111 D+0 A+7V5 D7V129 D+0 F+1V20 E11V255 G1V21 D9V5 B9V4 F+10V4 D9V5 D7V129 G8V4 rV95 rV27 G1V47 C+2V27 D+7V89 F+2V33 C2V7 A6V82 A+6V83 C0V32 B6V10 rV2 C+8 rV72 G+1V22 B9V255 D+0V12 rV81 G7V93 rV22 D+1V35 E1V4 rV80 rV9 D8V1 A+10V107 C0V137 D8V1 A+10V97 C0V131 D8V1 r F+10V1 D8V1 E11V99 C0V137 D8V1 A+10V102 C0V131 E5V78 rV5 D8V131 E0V122 B9V5 D8V131 E0V114 A+10V99 C9V5 D8V131 A+10V102 E8V5 F8V131 rV65 C0 rV8 F3V48 G+6V91 E7V90 B3 D+0V2 C0V131 D8V1 A+10V99 C0V131 D8V1 A+10V99 C0V131 rV96 G+1V22 B9V255 F+2V31 rV81 G7V93 rV31 F+0 D0V1 G9 B9V131 C+10V1 A+10V131 C0V131 B10V1 B10V56 D+10V1 C0V131 C+11V25 C0V131 C11V25 G6V84 C+1 F+1V20 A1V22 D1 D+0V9 F+0V97 E1V129 D8V1 A+10V99 C0V131 D9V1]

$$ALL
  [C0V131 D9V1 A+10V111 C0V131 F+1V20 A1V22 F+2V24 G+1V9 G+6V81 A+7V120 C4V73 rV255 B3V80 rV15 B14V1 G10V180 G+4V132 A+10V132 C+0V21 F0V25 B0V25 F1V25 B1V57 rV1 A+10V255 D+0V131 E8V1 F+1V20 A1V22 F+2V8 F+0V9 G+6V81 A+7V120 E4V67 F+5V255 B3V84 G6V84 D+1 A+10V8 G0V131 A+10V8 G0V131 A+10V8 G0V131 A+10V8 G0V131 A+10V8 G0V131 A+10V8 G0V131 A+10V8 r C0V24 B1V16 D+1V24 B1V1 C0V24 B1V16 D+1V24 B1V1 C0V24 B1V16 D+1V24 B1V1 C0V24 B8 r G+1V22 B9V255 F+2V8 rV81 G7V93 rV19 D+1V32 E1V97 A0V4 rV80 rV19 B14V56 rV18 A1V22 rV31 G0V10 G0 C7V2 r D1V120 G+0V48 D7V129 D+0 E0V120 D+0 D+0 D+0 D7V129 D+0 E0V120 D+0 B8V4 D11V87 B9V4 B8V5 G9V4 B9V4 B8V4 rV87 B9V4 B8V125 rV127 G6V84 G+1 E0V128 C6V1 G10V114 D+0V128 F9V4 G10V85 G10V180 D+0V128 C+8V4 G10V98 E0V114 C0V128 F9V4 G10V114 D+0V128 C7V128 B14V1 G10V98 D+0V128 C+8V4 B6V157 rV61 A6V229 B8V136 C19V128 G12V1 G10V180 C0V128 B14V33 G10V192 G+2V108 B15V229 B8V216 C19V128 D+19V1 G10V180 C0V255 rV1 rV27 G1V47 C+2V27 D+7V89 F+2V33 C2 A6V82 A+6V83 C7V217 D+0V82 C7V85 D1V229 B14V97 rV128 C19V2 C8V15 G10V180 C+0 D1V229 B14V97 rV128 C19V2 C8V15 G10V180 C+0V128 C19V2 C8V3 B14V97 rV128 C19V2 D1V229 B14V80 rV24 F1V19 A1V22 F+2V7 A+1V8 G+6V81 C7V85 rV218 B14V25 C2V1 C0V129]
  [A+10V111 C0V131 D8V1 r D1V20 rV26 D7V88 rV16 G1 A6V82 B6V85 rV2 F6 E0V127 C0V128 C+11V1 G+1V131 B10V57 rV25 G+0V25 D1V25 G+1V25 C+0V85 C0V131 D0V19 A+10V105 rV111 F0V20 rV26 D7V88 rV31 rV25 A6V82 A+6V83 D+0V1 rV72 r C8V1 B1V1 C0V24 B1V16 D+1V24 B1V1 C0V24 B1V16 D+1V24 B1V1 C0V24 B1V16 D+1V24 G6V84 E1 A+10V8 G0V131 A+10V8 G0V131 A+10V8 G0V131 A+10V8 G0V131 A+10V8 G0V131 A+10V8 G0V131 rV65 C0 D2V16 A+3V52 D2V28 E7V90 G+2V51 r A6V82 A+6V120 B2V120 C0V5 F6 B1V1 r G0V28 B3V77 F+7V82 F7V120 rV4 G6V84 G1 F+1V20 G+10V108 rV87 B9V4 B8V4 rV87 B9V4 rV112 rV87 B9V4 B8V4 rV100 D+0 D+0 E0V120 G+10V108 D+0 E0V120 D+0 D+0 E0V120 F+6V18 rV2 r C7V25 G10V180 C0V128 C+8V4 G10V98 D+0V128 C0V128 C7V4 G10V114 D+0V128 F9V4 B14V1 G10V98 D+0V128 C+8V4 G10V98 G10V73 D+0V128 F9V4 G10V114 D+0V255 rV1 F9V31 C0V128 B14V33 G10V192 G+2V108 B15V229 B8V176 C19V128 B15V1 G10V180 C0V128 B14V33 G10V192 G+2V108 B15V229 B6V65 rV255 G1V21 A1V120 G0V31 G+0V255 G+6V92 B9V255 F+5V16 D5V4 rV114 rV3 C0V128 F0V176 C10V240 G10V192 B11V1 G18V15 B15V121 C0V128 G+1V96 C10V200 G10V192 D+5V1 D+15V30 B15V121 G10V192 G2V1 D+13V39 C10V152 G10V192 C0V128 B3 F6 E10V255 D+2V6 F5V255 C19V87 B9V255 F+6 D5 F+10V3 F0V1 C0 rV96]

$$ALL
  [G+10V180 B14V25 C2V1 C0V129 G+10V180 B14V25 C2V1 C0V129 G+10V180 B14V80 rV25 C7V255 C0 C8V1 rV97 C0 C7V1 rV109 C0 C8V1 rV97 F6 B1 C0V131 B7V1 A+10V108 C0V128 B8V1 r r C+0V20 rV26 D7V88 rV31 rV25 A6V82 A+6V83 D+0V1 G2V29 D0V24 r E1V33 C2V91 D+7V89 C8V17 F6 F11V97 C0V128 B14V29 G10V109 E2V120 C8V8 G10V180 E2V111 C9V8 B9V16 G0V128 B14V1 D9V1 G0V128 D+1V1 G10V180 C0V128 C0V1 G10V180 r B9V16 G0V128 B14V1 D9V1 G0V128 D+1V1 G10V180 C0V128 C0V1 G10V180 C0V128 B14V1 G10V180 C0V128 B14V29 G10V97 C0V128 B14V29 G10V109 G6V84 F2 C+11V118 C0V134 B14V29 C+11V109 E2V127 A8V1 C+11V106 E2V127 A8V1 G10V180 C0V134 B14V29 C+11V114 C0V255 rV1 G10V180 C0V128 C0V1 G10V180 C0V128 B14V1 G10V180 C0V134 B14V1 D9V16 G0V128 C0V1 G10V180 C0V128 C+12 A9V8 G10V180 E2V104 C9V8 G8V16 G0V128 B14V1 G8V1 G0V128 B14V29 G10V109 E2V104 D9V8 G10V180 G6V84 G+2 B14V1 G10V180 C0V128 B14V29 G10V106 C0V128 B14V29 C+11V106 C0V128 D+1V1 G10V180 C0V128 B14V1 G10V180 r G0V128 C0V1 G10V180 C0V134 B14V29 C+11V118 E2V88 A9V8 G6V1 G0V128 C0V1 G10V180 C0V134 B14V29 rV65 C+0 F+10V20 rV15 F6 D11V255 E1V25 C8V131 G+8V1 A+10V105 C0V131 G+8V1 A+10V102 C0V131 G+8V1 A+10V105 C0V255 rV2 C9V28 F+2 A+10V102 C0V131 G+8V1 A+10V105 C0V131 F8V1 A+10V105 C0V131 G+8V1 rV65]
  [B7V18 G+1V1 C0 rV96 B7V33 B2V1 C0 rV96 B7V48 F6 B1 B14V1 G+10V180 C0V129 B14V1 G+10V180 C0V129 B14V1 G+10V180 C0V129 B14V80 rV26 B8V1 G10V180 C0V131 B14V1 A+10V180 G6V84 D2 F+1V20 A1V22 F+2V8 F+0V9 G+6V81 A+7V120 E4V67 F+5V255 D+0V1 C0V197 C+11V255 G1V21 A1V120 A0 G+0V255 D0V80 rV28 E1V1 G10V109 G0V128 E1V1 G10V180 C0V128 C9V1 G10V180 C0V134 B14V29 G10V85 C0V134 B14V29 C+11V109 E2V127 C7V1 C+11V109 E2V127 E5V78 rV132 B14V29 G10V85 C0V134 B14V29 C+11V109 E2V127 C7V1 C+11V109 E2V127 C9V8 F+10V17 C0V128 C9V8 F+10V17 G0V128 E1V1 G10V109 G0V128 E1V1 r G0V128 B14V1 D9V1 G0V128 D+1V1 G10V180 C0V128 C0V1 G10V180 E2V111 C9V8 D9V1 G0V128 B14V1 B6V145 rV118 A9V1 C+11V111 E2V127 C9V8 F+10V17 C0V134 A8V8 F+10V17 C0V134 B14V29 C+11V111 E2V127 A9V1 rV65 C0 C0V134 D9V1 G10V180 C0V134 B14V29 C+11V106 C0V134 B14V29 C+11V106 G0V128 E1V1 G10V180 C0V134 F9V1 r B9V17 C0V134 D9V8 B9V17 G0V128 E1V1 C+11V106 G0V128 E1V1 C+11V109 E2V120 D9V8 B9V17 C0V134 E5V78 rV29 C+11V118 E2V108 A9V8 D+8V16 G0V128 D+1V1 G10V180 C0V134 B14V29 C+11V118 E2V68 A9V8 B4V16 G0V128 D+2 rV120 C2V86 rV80 rV1 F+10V28 F+2 A+10V107 C0V131 D8V1 A+10V107 C0V131 A+8V1 A+10V102 C0V131 A+8V1 B6V120 rV121 E1V25 C8V131 A+8V1 A+10V102 C0V131 A+8V1 A+10V99 C0V131 F8V1 A+10V107 C0V131 A+17]

$$ALL
  [C+0 A1V17 A6V97 G10V119 C0V128 D+9V1 G10V119 C0V128 A+9V1 G10V112 C0V128 A+9V1 G10V112 C0V128 D+9V1 G10V119 C0V128 D+9V1 G10V119 C0V128 A+9V1 G10V112 r C9V28 F+2 G10V110 C0V128 E9V1 G10V115 C0V128 A9V1 G10V120 C0V128 D10V1 G10V125 C0V128 G10V1 G10V130 C0V128 C11V1 G10V135 C0V128 F11V1 G10V140 F6 C10V255 C2V86 G10V180 C0V128 B14V1 G10V180 C0V128 B14V1 G10V180 C0V128 B14V1 G10V180 C0V128 B14V1 G10V180 C0V128 B14V1 G10V180 C0V128 B14V1 G10V180 G6V84 F0 G1V7 A+1V4 r rV18 C+7V81 B14V1 A+10V180 C0V131 B14V1 A+10V180 C0V131 B14V1 B6V215 rV255 F+0V31 D+0V1 G10V107 C0V128 G+8V1 G10V105 C0V128 A+8V1 G10V107 C0V128 C9V1 G10V102 C0V128 A+8V1 G10V102 C0V128 F8V1 G10V105 C0V128 A+8V1 rV65 C+0 A1V17 A+6V97 G10V107 C0V128 A+8V1 G10V107 C0V128 A+8V1 G10V107 C0V128 A+8V1 B8V127 C0V131 A+10V1 E11V144 rV80 rV10 D+2V20 rV23 G8V1 G10V104 C0V128 G8V1 G10V104 C0V128 G8V1 G10V104 C0V128 G8V1 G10V104 C0V128 G8V1 G10V104 C0V128 G8V1 G10V104 C0V128 G8V1 r rV18 C+7V81 G8V1 G10V104 C0V128 G8V1 G10V104 C0V128 G8V1 G10V104 C0V128 G8V33 A+10V115 C0V137 A+10V1 A+10V12 A+17 rV100 F+2V31 C0V128 D+8V1 G10V100 C0V128 D+8V1 G10V100 C0V128 D+8V1 G10V100 C0V128 D+8V1 G10V100 C0V128 D+8V1 G10V100 C0V128 D+8V1 G10V100 C0V128 E5V78 rV121 E1V25 C8V128 G8V1 G10V104 C0V128 G8V1 G10V104 C0V128 G8V1]
  [rV109 F+2V31 C0V128 C10V1 G10V109 C0V128 G9V1 G10V116 C0V128 C9V1 G10V121 C0V128 G9V1 G10V116 C0V128 C10V1 G10V109 C0V128 G9V1 G10V116 C0V128 E5V78 rV121 E1V25 C8V128 B14V1 G10V180 C0V128 B14V1 G10V180 C0V128 B14V1 G10V180 C0V128 B14V1 G10V180 C0V128 B14V1 G10V180 C0V128 B14V1 G10V180 C0V128 B14V80 rV5 D+2V20 rV23 G11V1 G10V138 C0V128 D11V1 G10V133 C0V128 A10V1 G10V128 C0V128 E10V1 G10V123 C0V128 B9V1 G10V118 C0V128 F+9V1 G10V113 C0V128 C+9V1 r rV18 C+7V81 G6V84 F+0 G1V7 A+1V4 C0V137 B8V1 A+10V106 C0V137 F+8V1 E11V101 C0V255 rV2 F1V22 G+6V83 C0V128 F8V1 G10V105 C0V128 F8V1 G10V99 C0V128 G+8V1 G10V105 C0V128 D8V1 G10V107 C0V128 G+8V1 G10V105 C0V128 A+8V1 G10V107 C0V128 F+13 rV104 F+2V31 C0V128 G8V1 G10V104 C0V128 G8V1 G10V104 C0V128 G8V1 G10V104 C0V128 B8V1 A+10V132 C0V131 B11V32 F6 C10V255 C2V86 G10V107 C0V128 A+8V1 G10V107 C0V128 A+8V1 G10V107 C0V128 A+8V1 G10V107 C0V128 A+8V1 G10V107 C0V128 A+8V1 G10V107 C0V128 A+8V1 G10V107 G6V84 A+0 G1V7 A+1V4 C0V128 D+8V1 G10V100 C0V128 D+8V1 G10V100 C0V128 D+8V1 G10V100 C+0V131 E10V1 A+10V131 C0V131 rV65 C+0 A1V17 A+6V97 G10V104 C0V128 G8V1 G10V104 C0V128 G8V1 G10V104 C0V128 G8V1 G10V104 C0V128 G8V1 G10V104 C0V128 G8V1 G10V104 C0V128 G8V1 G10V104 r D+8V28 F+2 G10V100 C0V128 D+8V1 G10V100 C0V128 D+8V1 G10V100 C0V128]

$$ALL
  [G10V104 C0V128 rV1 A+10V98 C0V143 rV80 rV14 D+2V20 rV23 G8V1 G10V104 C0V128 G8V1 G10V104 C0V128 G8V1 G10V104 C0V128 G8V1 G10V104 C0V128 G8V1 G10V104 C0V128 G8V1 G10V104 C0V128 G8V1 r rV18 C+7V81 G8V1 G10V104 C0V128 G8V1 G10V104 C0V128 G8V1 G10V104 C0V128 G8V1 G10V104 C0V128 G8V1 G10V104 C0V128 G8V1 G10V104 C0V128 G8V1 B6V215 rV255 F+0V31 D+0V1 G10V102 C0V128 F8V1 G10V102 C0V128 F8V1 G10V102 C0V128 F8V1 G10V102 C0V128 F8V1 G10V102 C0V128 F8V1 G10V102 C0V128 F8V1 rV65 C+0 A1V17 A+6V97 D2 rV111 F+2V31 rV65 C+0 A1V17 A+6V97 G10V104 C0V128 C8V1 G10V97 C0V128 G8V1 G10V104 C0V128 C8V1 G10V97 C0V128 G8V1 G10V104 C0V128 C8V1 G10V97 C0V128 G8V1 G10V104 r A7V28 F+2 G10V102 C0V128 A7V1 G10V94 C0V128 F8V1 G10V102 C0V128 A7V1 G10V94 C0V128 F8V1 G10V102 C0V128 A7V1 G10V94 C0V128 F8V1 G10V102 F6 C0V128 A8V1 G10V106 C0V128 D8V1 G10V99 C0V128 A8V1 G10V106 C0V128 D8V1 G10V99 C0V128 A8V1 G10V106 C0V128 D8V1 G10V99 C0V128 A8V80 r F+1V22 C+7V7 B6V122 rV125 A2 D8V6 C0V131 F8V35 C0V131 A+8V25 C0V131 A+8V1 A+10V102 C0V131 A+8V1 B6V144 rV121 F+7V82 C8V131 A+8V25 C0V131 A+10V99 B2V1 C0V131 F+1V131 A+10V107 A+8V42 F+3V1 C0V131 A+10V107 G6V84 D0 A2 C5V6 C0V128 G9V1 G10V116 C0V128 C9V1 G10V121 C0V128 G9V1 G10V116 C0V128 C10V1 G10V109]
  [D+8V1 G10V12 C0V143 B8V1 A+10V12 F6 C10V255 C2V86 G10V107 C0V128 A+8V1 G10V107 C0V128 A+8V1 G10V107 C0V128 A+8V1 G10V107 C0V128 A+8V1 G10V107 C0V128 A+8V1 G10V107 C0V128 A+8V1 G10V107 G6V84 D1 G1V7 A+1V4 C0V128 D+8V1 G10V100 C0V128 D+8V1 G10V100 C0V128 D+8V1 G10V100 C0V128 D+8V1 G10V100 C0V128 D+8V1 G10V100 C0V128 D+8V1 G10V100 C0V255 rV2 F1V22 G+6V83 C0V128 A8V1 G10V106 C0V128 A8V1 G10V106 C0V128 A8V1 G10V106 C0V128 A8V1 G10V106 C0V128 A8V1 G10V106 C0V128 A8V1 G10V106 C0V128 D2 rV99 F+2V31 rV65 C+0 A1V17 A+6V97 A+17 rV94 F+2V31 C0V128 A7V1 G10V94 C0V128 F8V1 G10V102 C0V128 A7V1 G10V94 C0V128 F8V1 G10V102 C0V128 A7V1 G10V94 C0V128 F8V1 G10V102 C0V128 E5V78 rV121 E1V25 C8V128 G8V1 G10V104 C0V128 C8V1 G10V97 C0V128 G8V1 G10V104 C0V128 C8V1 G10V97 C0V128 G8V1 G10V104 C0V128 D8V1 G10V99 C0V128 A8V80 rV21 G10V102 C0V128 A7V1 G10V94 C0V128 F8V1 G10V102 C0V128 A7V1 G10V94 C0V128 F8V1 G10V102 C0V128 A7V1 G10V94 C0V128 F8V1 G10V102 F6 E10V255 rV15 F0V255 rV3 D8V19 A+6V86 F8V1 A+10V105 G+8V1 A+10V105 A2V1 A+10V102 C0V131 G+8V1 A+10V105 C0V255 rV3 C9V33 D0 A+10V102 A2V1 F+1V131 F8V25 C2V19 F+1V131 F+1V131 A+10V105 G+8V25 C2V19 F+1V131 G+8V1 r rV19 A+6V86 D+9V1 G10V119 C0V128 A+9V1 G10V112 C0V128 A+9V1 G10V112 C0V128 D+9V1 G10V119 C0V128 D+9V1]

$$ALL
  [C0V128 G9V1 G10V116 C0V128 C9V1 G10V121 C0V255 rV3 F+1V22 C+7V4 C0V128 B14V1 G10V180 C0V128 B14V1 G10V180 C0V128 B14V1 G10V180 C0V128 B14V1 G10V180 C0V128 B14V1 G10V180 C0V128 B14V1 G10V180 C0V128 A+17 rV141 D1V7 C0V128 F+11V1 G10V137 C0V128 C+11V1 G10V132 C0V128 G+10V1 G10V127 C0V128 D+10V1 G10V122 C0V128 A+9V1 G10V117 C0V128 F9V1 G10V112 C0V128 E5V78 rV121 F+7V82 C8V24 B1V255 rV24 B1V255 rV24 B1V255 rV24 B1V255 rV24 B1V255 rV24 B1V255 rV24 B1V255 rV24 B1V255 rV24 B1V255 rV24 B1V255 rV24 B1V255 rV24 B1V255 rV24 B1V255 rV24 B1V255 rV24 B1V255 rV24 B1V255 rV24 B1V255 rV24 B1V255 rV24 B1V255 rV24 A+7 rV111 D1V7 C0V137 C9V1 E11V107 C0V131 G8V1 E11V102 C0V131 E5V78 rV121 F+7V82 C8V128 F8V16 G10V48 F8V32 C0V25 F+1V8 E7V105 F+1V128 G10V105 D+1V1 B3V19 G2V89 C2V19 G0V128 G+8V16 G10V48 G+8V32 C0V25 F+1V8 E7V109 F+1V128 G10V109 D+1V1 B3V19 G2V89 C2V19 G0V128 G+8V16 G10V48 G+8V32 C0V25 F+1V8 E7V102 F+1V128 G10V102 D+1V1 B3V19 G2V89 C2V19 G0V128 C9V16 rV65 D0 A1V91 G0V97 F+1V128 G10V107 A+8V25 C2V19 F+1V128 G10V107 A+8V25 C2V19 F+1V128 G10V107 A+8V25 C2V19 B8V6 F+9V25 C0V137 A+10V131 D1V1 G6V84 A0 A2 E1V4 D2V1 C0V128 G10V104 G8V31 G2V1 C0V128 G10V104 G8V36 C3V1 G10V104 C0V128 G8V1 G10V104 C0V128 G8V1 G10V104 C0V128 G8V1 G10V104 C0V128]
  [G10V119 C0V128 A+9V1 G10V112 C0V128 A+9V1 B6V215 rV255 rV15 D+0V1 G10V111 C0V128 F9V1 G10V116 C0V128 A+9V1 G10V121 C0V128 D+10V1 G10V126 C0V128 G+10V1 G10V131 C0V128 C+11V1 G10V136 C0V128 F+11V1 rV65 D0 A1V91 D+0V97 G10V180 C0V128 B14V1 G10V180 C0V128 B14V1 G10V180 C0V128 B14V1 G10V180 C0V128 B14V1 G10V180 C0V128 B14V1 G10V180 C0V128 B14V1 G10V180 r D9V12 F+0V39 rV2 C+0 rV1 C0 rV2 C+0 rV1 C0 rV2 C+0 rV1 C0 rV2 C+0 rV1 C0 rV2 C+0 rV1 C0 rV2 C+0 rV1 C0 rV2 C+0 rV1 C0 rV2 C+0 rV1 C0 rV2 C+0 rV1 C0 rV2 C+0 rV65 D0 A1V91 C+0V97 A+10V180 C0V131 B14V1 A+10V180 C0V131 B14V1 A+10V180 r D8V16 F+0V39 F+1V128 G10V99 D+1V16 B3V19 G2V89 C2V19 G0V128 F8V16 G10V48 F8V32 D+1V25 F+1V8 E7V107 F+1V128 G10V107 D+1V16 B3V19 G2V89 C2V19 G0V128 D8V16 G10V48 D8V32 D+1V25 F+1V8 E7V107 F+1V128 G10V107 D+1V16 B3V19 G2V89 C2V19 G0V128 A+8V16 G10V48 A+8V32 D+1V25 F+1V8 E7V107 F+1V128 G10V107 G+16 rV104 D1V7 C0V128 G10V104 G8V29 F2V1 C0V128 G10V104 G8V34 A+2V1 C0V128 G10V104 G8V39 D+3V1 C0V128 A+10V108 G+0V1 F+1V131 F11V25 G2V2 r rV19 A+6V86 A+8V25 C2V19 F+1V128 G10V107 A+8V25 C2V19 F+1V128 G10V107 A+8V25 C0V128 A+8V1 G10V107 C0V128 A+8V1 G10V107 C0V128 A+8V1 G10V107 C0V128 A+8V1 G10V107]

$$ALL
  [G8V1 r rV19 A+6V86 G8V25 C2V19 F+1V128 G10V104 G8V25 C2V19 F+1V128 G10V104 G8V25 C2V19 F+1V128 G10V104 G8V57 C0V131 A+10V125 B0V1 E11V144 B0 r D+8V26 F+0V39 G10V100 D+8V28 E2V1 C0V128 G10V100 D+8V33 A2V1 C0V128 G10V100 D+8V1 G10V100 C0V128 D+8V1 G10V100 C0V128 D+8V1 G10V100 C0V128 D+8V1 G10V100 C0V128 E5V78 rV121 F+7V82 C8V128 G10V104 G8V25 C2V19 F+1V128 G10V104 G8V25 C2V19 F+1V128 G10V104 G8V25 C2V19 F+1V128 F+1V2 F+10V4 B9V4 G10V112 D+0V128 E0V127 G10V120 G10V124 D+0V128 C3V98 G6V84 C+1 A2 E1V4 D2V1 C0V128 G10V104 G8V31 G2V1 C0V128 G10V104 G8V36 C3V1 G10V104 C0V128 G8V1 C0V128 G10V104 G8V33 G2V1 C0V128 G10V104 G8V28 D2V1 G10V104 D+2V1 G10V104 E5V78 rV121 F+7V82 C8V128 G10V104 G8V25 C2V19 F+1V128 G10V104 G8V25 C2V19 F+1V128 G10V104 C0V128 G8V1 G10V104 G8V25 C2V19 F+1V128 G10V104 G8V25 C2V19 F+1V128 G10V104 C0V128 G10V104 C2V19 B6V245 rV255 rV15 D+0V1 C0V128 G10V102 F8V35 A2V1 G10V102 G+2V1 G10V102 G2V1 G10V102 C0V128 F8V1 C0V128 G10V102 F8V36 C3V1 C0V128 F8V1 G10V102 F8V1 G10V102 C0V128 rV65 D0 A1V91 C8V128 B14V1 G10V180 C0V128 B14V1 G10V180 C0V128 B14V1 G10V180 C0V128 B14V1 G10V180 C0V128 B14V1 G10V180 C0V128 B14V1 G10V180 C0V128 B14V80 rV18 G1V34 D3V4 C0V128 G10V1 G10V126 C0V128 D10V1 G10V121 C0V128 A9V1 G10V116 C0V128 E9V1 G10V111 C0V128 B8V1 G10V106]
  [G6V84 A+0 A2 E1V4 D2V1 C0V128 G10V100 D+8V31 G2V1 C0V128 G10V100 D+8V36 C3V1 C0V128 G10V100 D+8V41 F+1V2 E11V125 B10V25 C0V131 A+10V144 E5V78 rV121 F+7V82 C8V128 G10V104 G8V25 C2V19 F+1V128 G10V104 G8V25 C2V19 F+1V128 G10V104 C0V128 G8V1 G10V104 C0V128 G8V1 G10V104 C0V128 G8V1 G10V104 C0V128 G8V1 G10V104 r D+8V26 F+0V39 G10V100 D+8V28 E2V1 C0V128 G10V100 D+8V33 A2V1 C0V128 G10V100 D+8V38 D3V1 C0V128 G10V15 D+0V131 E0V127 D+0V128 E9V19 F+10V4 B9V5 F+9V128 G9V4 F+10V4 rV4 C0 rV19 A+6V86 A+8V25 C2V19 F+1V128 G10V107 A+8V25 C2V19 F+1V128 G10V107 A+8V25 C0V128 A+8V1 G10V107 C2V19 F+1V128 G10V107 A+8V25 C2V19 F+1V128 G10V107 A+8V25 C0V128 A+8V25 C0V128 G10V107 r D+8V26 F+0V39 G10V100 D+8V28 E2V1 C0V128 G10V100 D+8V33 A2V1 C0V128 G10V100 D+8V1 G10V100 C0V128 D+8V36 A+2V1 C0V128 G10V100 D+8V31 F2V1 C0V128 G10V100 D+8V1 G10V100 D+8V1 C0V255 rV3 F+1V22 C+7V8 C2V19 F+1V128 G10V106 A8V25 C0V128 A8V25 C0V128 A8V25 C0V128 A8V1 G10V106 C2V19 F+1V128 G10V106 A8V25 C2V19 G10V106 C0V128 G10V106 C0V128 A8V1 F+1V128 G+17 rV99 D1V7 G10V100 C0V128 F+8V1 G10V105 C0V128 B8V1 G10V110 C0V128 E9V1 G10V115 C0V128 A9V1 G10V120 C0V128 D10V1 G10V125 C0V128 G10V1 G10V130 F6 C10V207 A6V83 B14V1 G10V180 C0V128 B14V1 G10V180 C0V128 B14V1 G10V180 C0V128 B14V1 G10V180 C0V128 B14V1 G10V180 C0V128 B14V1]

$$ALL
  [C0V128 F+8V1 G10V101 C0V255 rV3 F+1V22 C+7V4 C2V19 F+1V128 G10V104 C8V25 C0V128 G8V25 C0V128 C8V25 C0V128 G8V1 G10V104 C2V19 F+1V128 G10V104 C8V25 C2V19 G10V104 C0V128 G10V97 C0V128 G8V1 F+1V128 C1 rV94 D1V7 C0V128 G10V94 F8V36 A+2V1 C0V128 F8V1 C0V128 A7V1 C0V128 F8V1 G10V102 C0V128 G10V94 F8V35 B2V1 C0V128 G10V102 C3V1 C0V128 F+1V128 F+1V128 F+1V128 F+1V128 F+1V128 F+1V255 rV3 E3V16 G+4V102 A8V1 D+1V33 F8V44 C0V57 G+2V99 A3V16 G+4V94 D8V1 D+1V33 A7V49 C0V57 G+2V106 D4V16 G+4V102 A8V1 D+1V33 F8V54 C0V57 G+2V99 G4V16 G+4V94 D8V1 D+1V33 A7V59 C0V57 G+2V106 C5V16 G+4V102 A8V1 D+1V33 F8 C0V57 G+2V99 F5V16 G+4V94 D8V1 D+1V33 A7V69 C0V57 G+2V106 A+5V16 G+4V102 A8V1 r F10V6 B1V8 G1V24 A+2V20 G1V24 G+0V20 B1V34 G1V133 B1V8 G1V24 A+2V20 G1V24 G+0V20 B1V34 G1V133 B1V8 G1V24 A+2V20 G1V24 G+0V20 B1V34 G1 D1V6 G1V24 F+2V20 B1V37 F+0V20 B1V11 G1V24 F10V6 G1V24 F+2V20 B1V37 F+0V20 B1V11 G1V24 C11V6 G1V24 F+2V20 B1V37 F+0V20 B1V11 G1V24 E5V78 rV121 C8V24 G+0V20 B1V34 G1V133 B1V8 G1V24 A+2V20 G1V24 G+0V20 B1V34 G1V133 B1V8 G1V24 A+2V20 G1V24 G+0V20 B1V34 G1 B1V8 G1V24 A+2V20 B15V20 F+0V20 B1V11 G1V24 F10V6 G1V24 F+2V20 B1V37 F+0V20 B1V11 G1V24 G+10V6 G1V24 F+2V20 B1V37 F+0V20 B1V11 G1V24 A+10V6 G1V24 F+2V20 B1V37]
  [G10V180 C0V128 B14V1 B6V245 rV255 B9V15 D+0V1 C0V128 G10V102 A7V35 A2V1 G10V102 G+2V1 G10V94 G2V1 G10V102 C0V128 A7V1 C0V128 G10V102 A7V36 C3V1 C0V128 A7V1 G10V94 F8V1 G10V102 C0V128 rV65 D0 A1V229 D+0V97 F+1V128 G10V97 G8V25 C2V19 G10V97 C2V19 G10V104 C2V19 G10V97 C0V128 G8V1 F+1V128 G10V97 G8V25 C2V19 F+1V128 G8V25 C2V19 F+1V128 F+1V128 F+1V128 F+1V128 F+1V128 F+1V128 B6V197 rV15 B0V8 G0V128 D1V19 G0V128 G10V12 F+1V8 G10V15 B0V8 G0V128 D1V19 G0V128 G10V12 F+1V8 G10V15 B0V8 G0V128 D1V19 G0V128 G10V12 F+1V8 G10V15 B0V8 G0V128 D1V19 G0V128 G10V12 F+1V8 G10V15 B0V8 G0V128 D1V19 G0V128 G10V12 F+1V8 G10V15 B0V8 G0V128 D1V19 G0V128 G10V12 F+1V8 G10V15 B0V8 G0V128 E5V78 rV121 C8V24 G+0V20 B1V34 G1V133 B1V8 G1V24 A+2V20 G1V24 G+0V20 B1V34 G1V133 B1V8 G1V24 A+2V20 G1V24 G+0V20 B1V34 G1 B1V8 G1V24 A+2V20 B15V20 F+0V20 B1V11 G1V24 F10V6 G1V24 F+2V20 B1V37 F+0V20 B1V11 G1V24 F10V6 G1V24 F+2V20 B1V37 F+0V20 B1V11 G1V24 A+10V6 G1V24 F+2V20 B1V37 r F10V6 B1V8 G1V24 A+2V20 G1V24 G+0V20 B1V34 G1V133 B1V8 G1V24 A+2V20 G1V24 G+0V20 B1V34 G1V133 B1V8 G1V24 A+2V20 G1V24 G+0V20 B1V34 G1 D1V6 G1V24 F+2V20 B1V37 F+0V20 B1V11 G1V24 F10V6 G1V24 F+2V20 B1V37 F+0V20 B1V11 G1V24 C11V6 G1V24 F+2V20 B1V37 F+0V20 B1V11 G1V24 E5V78]

$$ALL
  [r F10V6 B1V8 G1V24 A+2V20 G1V24 G+0V20 B1V34 G1V133 B1V8 G1V24 A+2V20 G1V24 G+0V20 B1V34 G1V133 B1V10 G1V24 A+2V20 G1V24 D1V20 B1V37 G1V133 B1V16 G1V24 E3V20 G1V24 F1V20 B1V37 G1V133 B1V16 G1V24 E3V20 G1V24 F1V20 B1V37 G1V24 A4V20 B6V9 rV180 r rV20 C+7V81 G6V84 D+0 D+4 B3V4 C0V128 D+9V1 G10V114 C0V128 G+9V1 G10V119 C0V128 C+10V1 G10V124 C0V128 F+10V1 G10V129 C0V128 B10V1 G10V134 C0V128 E11V1 G10V139 C0V255 rV4 G1V22 G+6V83 C0V128 B14V1 G10V180 C0V128 B14V1 G10V180 C0V128 B14V1 G10V180 C0V128 B14V1 G10V180 C0V128 B14V1 G10V180 C0V128 B14V1 G10V180 C0V128 A+7 rV111 F+2V31 C0V137 C9V1 E11V107 C0V131 G8V1 E11V102 C0V131 E5V78 rV121 A+6V25 C8V128 D7V1 G10V95 C0V128 G+7V1 G10V93 C0V128 A+7V1 G10V95 C0V128 C8V1 G10V90 C0V128 A+7V1 G10V90 C0V128 F7V1 G10V93 C0V128 A+7V80 rV9 D+2V52 rV48 G9V1 G10V116 C0V128 G9V1 G10V116 C0V128 G9V1 G10V116 C0V128 B0V2 E11V125 C0V131 F11V1 C+0V255 rV4 G1V22 G+6V83 C0V128 A+9V1 G10V119 C0V128 A+9V1 G10V119 C0V128 A+9V1 G10V119 C0V128 A+9V1 G10V119 C0V128 A+9V1 G10V119 C0V128 A+9V1 G10V119 C0V128 F+13 rV112 F+2V31 C0V128 D+9V1 G10V112 C0V128 D+9V1 G10V112 C0V128 D+9V1 G10V112 C0V128 B8V1 A+10V132 C0V131 B11V32 F6 C10V255 C2V86 G10V116 C0V128 G9V1 G10V116 C0V128 G9V1 G10V116 C0V128 G9V1 G10V116 C0V128 G9V1]
  [rV121 C8V24 G+0V20 B1V34 G1V133 B1V8 G1V24 A+2V20 G1V24 G+0V20 B1V34 G1V133 B1V8 G1V24 A+2V20 G1V24 A+0V20 B1V34 G1V133 B1V13 G1V24 E3V20 G1V24 F1V20 B1V37 G1V133 B1V16 G1V24 E3V20 G1V24 F1V20 B1V37 G1V133 B1V16 G1V24 E3V20 B1V54 C0V255 rV4 G6V84 F0 D+4 B3V4 r rV20 C+7V81 B14V1 G10V180 C0V128 B14V1 G10V180 C0V128 B14V1 G10V180 C0V128 B14V1 G10V180 C0V128 B14V1 G10V180 C0V128 B14V1 G10V180 C0V128 B14V1 B6V215 rV255 rV31 D+0V1 G10V139 C0V128 D+11V1 G10V134 C0V128 A+10V1 G10V129 C0V128 F10V1 G10V124 C0V128 C10V1 G10V119 C0V128 G9V1 G10V114 C0V128 D9V1 rV65 D+0 A1V83 A+6V97 A+10V180 C0V131 B14V1 A+10V180 C0V131 B14V1 A+10V180 r D7V28 F+2 G10V90 C0V128 A+7V1 G10V90 C0V128 F7V1 G10V93 C0V128 A+7V1 G10V87 C0V128 G+7V1 G10V93 C0V128 D7V1 G10V95 C0V128 G+7V1 G10V97 F6 C10V255 C2V86 G10V119 C0V128 A+9V1 G10V119 C0V128 A+9V1 G10V119 C0V128 A+9V1 G10V119 C0V131 E10V1 A+10V131 C0V131 B6V215 rV255 rV31 D+0V1 G10V116 C0V128 G9V1 G10V116 C0V128 G9V1 G10V116 C0V128 G9V1 G10V116 C0V128 G9V1 G10V116 C0V128 G9V1 G10V116 C0V128 G9V1 rV65 D+0 A1V83 A+6V97 G10V116 C0V128 G9V1 G10V116 C0V128 G9V1 G10V116 C0V128 G9V1 B8V127 C0V131 A+10V1 E11V144 rV80 rV12 D+2V52 rV48 D+9V1 G10V112 C0V128 D+9V1 G10V112 C0V128 D+9V1 G10V112 C0V128 D+9V1 G10V112 C0V128]

$$ALL
  [G10V116 C0V128 G9V1 G10V116 C0V128 G9V1 G10V116 G6V84 C1 D+4 B3V4 C0V128 D+9V1 G10V112 C0V128 D+9V1 G10V112 C0V128 D+9V1 G10V112 C+0V137 E9V1 A+10V115 C+0V255 rV4 G1V22 G+6V83 C0V128 A+9V1 G10V119 C0V128 A+9V1 G10V119 C0V128 A+9V1 G10V119 C0V128 A+9V1 G10V119 C0V128 A+9V1 G10V119 C0V128 A+9V1 G10V119 C0V128 A+17 rV112 F+2V31 C0V128 D+9V1 G10V112 C0V128 D+9V1 G10V112 C0V128 D+9V1 G10V112 C0V128 D+9V1 G10V112 C0V128 D+9V1 G10V112 C0V128 D+9V1 G10V112 C0V128 E5V78 rV121 A+6V25 C8V128 A9V1 G10V118 C0V128 A9V1 G10V118 C0V128 A9V1 G10V118 C0V128 A9V1 G10V118 C0V128 A9V1 G10V118 C0V128 A9V1 G10V118 C0V128 A9V80 rV17 D+2V52 rV48 F6 C10V255 C2V86 rV80 rV19 D+2V52 rV48 F9V1 G10V114 C0V128 A8V1 G10V106 C0V128 F9V1 G10V114 C0V128 A8V1 G10V106 C0V128 F9V1 G10V114 C0V128 A8V1 G10V106 C0V128 F9V1 r rV20 C+7V81 C9V1 G10V109 C0V128 G9V1 G10V116 C0V128 C9V1 G10V109 C0V128 G9V1 G10V116 C0V128 C9V1 G10V109 C0V128 A9V1 G10V118 C0V128 D9V1 B6V197 rV106 C0V128 F9V1 G10V114 C0V128 A8V1 G10V106 C0V128 F9V1 G10V114 C0V128 A8V1 G10V106 C0V128 F9V1 G10V114 C0V128 A8V1 G10V106 C0V255 rV5 F+10V6 D1V99 G+1V24 A2V21 B1V44 F1V21 B1V22 G+1V24 F10V17 G+1V24 A2V21 B1V44 F1V21 B1V22 G+1V24 G+10V17 G+1V24 A2V21 B1V44 F0V21 B1V21 G+1V24 G3V57 G+1V24 G+1V21 B1V40 C2V21 B1V20]
  [D+9V1 G10V112 C0V128 D+9V1 G10V112 C0V128 D+9V1 r rV20 C+7V81 G9V1 G10V116 C0V128 G9V1 G10V116 C0V128 G9V1 G10V116 C0V128 G9V33 A+10V115 C0V137 E9V33 B6V215 rV255 rV31 D+0V1 G10V116 C0V128 G9V1 G10V116 C0V128 G9V1 G10V116 C0V128 G9V1 G10V116 C0V128 G9V1 G10V116 C0V128 G9V1 G10V116 C0V128 G9V1 rV65 D+0 A1V83 A+6V97 G10V116 C0V128 G9V1 G10V116 C0V128 G9V1 G10V116 C0V128 G9V1 G10V116 C0V128 G9V1 G10V116 C0V128 G9V1 G10V116 C0V128 G9V1 G10V116 r F9V28 F+2 G10V114 C0V128 F9V1 G10V114 C0V128 F9V1 G10V114 C0V128 F9V1 G10V114 C0V128 F9V1 G10V114 C0V128 F9V1 G10V114 C0V128 F9V1 G10V114 F6 C10V255 C2V86 rV80 rV18 D+2V52 rV48 F6 C10V255 C2V86 G10V109 C0V128 G9V1 G10V116 C0V128 C9V1 G10V109 C0V128 G9V1 G10V116 C0V128 C9V1 G10V109 C0V128 G9V1 G10V116 C0V128 C9V1 G10V109 G6V84 G1 D+4 B3V4 C0V128 F9V1 G10V114 C0V128 A8V1 G10V106 C0V128 F9V1 G10V114 C0V128 A8V1 G10V106 C0V128 F9V1 G10V114 C0V128 A8V1 G10V106 C0V255 rV4 D9V1 G10V111 C0V128 A9V1 G10V118 C0V128 D9V1 G10V111 C0V128 A9V1 G10V118 C0V128 D9V1 G10V111 C0V128 A9V1 G10V118 C0V128 D9V1 B6V153 rV192 D5V21 F1V21 B1V22 G+1V24 F10V17 G+1V24 A2V21 B1V44 F1V21 B1V22 G+1V24 F10V17 G+1V24 A2V21 B1V44 F1V21 B1V22 G+1V24 B15V21 G+1V24 A1V21 B1V42 G+1V82 B1V20 G+1V24 F3V21 G+1V24 G+1V21]

$$ALL
  [G+1V24 F3V21 G+1V24 G+1V21 B1V40 C2V21 B1V20 G+1V24 F3V21 G+1V24 G+1V21 B1V40 G6V84 C0 B1V18 G+1V24 C3V21 rV63 B1V18 G+1V24 C3V21 C11V126 F+1V21 B1V34 G+1V24 B1V18 G+1V24 C3V21 C11V126 F+1V21 B1V34 G+1V24 B1V18 G+1V24 C3V21 rV192 F1V21 B1V22 G+1V24 D1V21 G+1V24 A1V21 B1V42 E1V21 B1V21 G+1V24 G3V25 G+1V24 A1V21 B1V42 E1V21 B1V21 G+1V24 G3V25 G+1V24 A1V21 B1V42 F6V1 E7V131 B1V19 G+1V24 D+3V21 F10V17 B1V19 G+1V24 D+3V21 G+1V24 G1V21 B1V37 G+1V133 B1V19 G+1V24 D+3V21 G+1V24 G1V21 B1V37 G+1V133 B1V21 G+1V24 D+3V21 C8V131 B1V25 G+1V24 A3V21 G+1V24 C+2V21 B1V42 G+1V133 B1V25 G+1V24 A3V21 G+1V24 C+2V21 B1V42 G+1V133 B1V25 G+1V24 A3V21 B1V68 G+1V1 r rV80 rV4 B0V66 rV66 C+9V1 G10V112 C0V128 F+9V1 G10V117 C0V128 B9V1 G10V122 C0V128 E10V1 G10V127 C0V128 A10V1 G10V132 C0V128 D11V1 G10V137 C0V128 G11V1 r rV21 A+6V86 B14V1 G10V180 C0V128 B14V1 G10V180 C0V128 B14V1 G10V180 C0V128 B14V1 G10V180 C0V128 B14V1 G10V180 C0V128 B14V1 G10V180 C0V128 B14V1 B6V153 rV255 rV15 D+0V1 C0 rV2 C+0 rV1 C0 rV2 C+0 rV1 C0 rV2 C+0 rV1 C0 rV2 C+0 rV1 C0 rV2 C+0 rV1 C0 rV2 C+0 rV1 C0 rV2 C+0 rV1 C0 rV2 C+0 rV1 C0 rV2 C+0 rV1 C0 rV2 r rV21 A+6V86 B14V1]
  [B1V40 C2V21 B1V20 G+1V24 F3V21 G+1V24 G+1V21 B1V40 C2V21 B1V20 G+1V24 F3V21 C0 A+10V17 F+1V21 B1V34 G+1V24 E1V15 F+1V21 B1V34 G+1V24 B1V18 G+1V24 C3V21 C11V126 F+1V21 B1V34 G+1V24 B1V18 G+1V24 C3V21 C11V129 F+1V21 B1V34 G+1V24 E1V6 G+1V24 A2V21 B1V44 D1V21 B1V21 G+1V24 G3V25 G+1V24 A1V21 B1V42 E1V21 B1V21 G+1V24 G3V25 G+1V24 A1V21 B1V42 E1V21 B1V21 G+1V24 G3V80 rV2 C8V24 G1V21 B1V37 G+1 D+0V24 G1V21 B1V37 G+1V133 B1V19 G+1V24 D+3V21 G+1V24 G1V21 B1V37 G+1V133 B1V19 G+1V24 D+3V21 G+1V24 A1V21 B1V37 G+1 G+1V24 C+2V21 B1V42 G+1V133 B1V25 G+1V24 A3V21 G+1V24 C+2V21 B1V42 G+1V133 B1V25 G+1V24 A3V21 G+1V24 C+2V21 B1V42 G+1V24 B5V21 G6V84 D0 F6 C10V255 A6V83 G10V180 C0V128 B14V1 G10V180 C0V128 B14V1 G10V180 C0V128 B14V1 G10V180 C0V128 B14V1 G10V180 C0V128 B14V1 G10V180 C0V128 B14V1 G10V180 G6V84 E0 F5 F5V4 C0V128 F11V1 G10V136 C0V128 C11V1 G10V131 C0V128 G10V1 G10V126 C0V128 D10V1 G10V121 C0V128 A9V1 G10V116 C0V128 E9V1 G10V111 C0V255 rV5 G+1V22 C+7V85 B1V255 rV24 B1V255 rV24 B1V255 rV24 B1V255 rV24 B1V255 rV24 B1V255 rV24 B1V255 rV24 B1V255 rV24 B1V255 rV24 B1V255 rV24 B1V255 rV24 B1V255 rV24 B1V255 rV24 B1V255 rV24 B1V255 rV24 B1V255 rV24 B1V255 rV24 B1V255 rV24 B1V255 rV24 G6V84 F+0 F5 F5V4 C0V137]

$$ALL
  [A+10V180 C0V131 B14V1 A+10V180 C0V131 B14V1 B6V83 rV207 D1 C2V21 C2V21 C2V21 C2V21 C2V21 C2V21 C2V21 C2V21 C2V21 C2V21 C2V21 C2V21 C2V21 C2V21 C2V21 C2V21 C2V21 C2V21 C2V21 C2V21 C2V21 C2V21 C2V21 C2V21 C2V21 C2V21 C2V21 C2V21 C2V21 C2V21 C2V21 C2V21 r rV21 A+6V86 A+9V25 C2V21 G+1V128 G10V119 A+9V25 C2V21 G+1V128 G10V119 A+9V25 C2V21 G+1V128 G10V119 A+9V57 D+0V128 E0V127 G+1V128 D+0V128 E2V127 A+10V128 D+0V128 E2V127 B11V131 B6V237 rV255 G10V15 D+0V1 C0V128 G10V116 G9V35 B2V1 C0V128 G10V116 G9V40 E3V1 C0V128 G9V1 G10V116 C0V128 G9V1 G10V116 C0V128 G9V1 G10V116 C0V128 G9V1 G10V116 C0V255 rV5 G+1V22 C+7V85 C2V21 G+1V128 G10V116 G9V25 C2V21 G+1V128 G10V116 G9V25 C2V21 G+1V128 G10V116 G9V25 G+4V108 G10V108 F+10V4 G10V120 G10V132 F+10V15 G10V120 G10V138 F+10V18 A+10V12 G+19 rV112 D1 C0V128 G10V112 D+9V34 A+2V1 C0V128 G10V112 D+9V39 D+3V1 C0V128 G10V112 C0V128 D+9V1 G10V112 C0V128 D+9V1 G10V112 C0V128 D+9V1 G10V112 C0V128 D+9V1 rV65 E0 A1V229 C7V97 G+1V128 G10V116 G9V25 C2V21 G+1V128 G10V116 G9V25 C2V21 G+1V128 G10V116 G9V25 C2V21 B8V21 E0V127 G10V120 D+0V128 F0V4 B9V5 F+9V128 D+0V128 B9V4 B9V5 E5V78 rV121 C19V82 C8V128 G10V119 A+9V25 C2V21 G+1V128 G10V119 A+9V25 C2V21 G+1V128 G10V119 C0V128 A+9V1 G10V119 A+9V25 C2V21 G+1V128 G10V119 A+9V25 C2V21 G+1V128 G10V119 C0V128 G10V119]
  [B8V1 A+10V106 C0V137 F+8V1 E11V101 C0V255 rV5 G+1V22 C7V97 C2V21 C2V21 C2V21 C2V21 C2V21 C2V21 C2V21 C2V21 C2V21 C2V21 C2V21 C2V21 C2V21 C2V21 C2V21 C2V21 C2V21 C2V21 C2V21 C2V21 C2V21 C2V21 C2V21 C2V21 C2V21 C2V21 C2V21 C2V21 C2V21 C2V21 C2V21 G6V84 G+0 F5V128 F5V4 G2V1 C0V128 G10V116 G9V36 C3V1 C0V128 G10V116 G9V41 F3V1 C0V128 G10V116 G9V46 G+1V2 F+10V4 B9V29 G10V125 F+10V4 G10V120 G10V131 F+10V4 G10V120 C+0V255 rV5 G+1V22 C+7V85 C2V21 G+1V128 G10V119 A+9V25 C2V21 G+1V128 G10V119 A+9V25 C2V21 G10V119 C0V128 A+9V1 G10V119 C0V128 A+9V1 G10V119 C0V128 A+9V1 G10V119 C0V128 A+9V1 B6V245 rV255 G10V15 D+0V1 C0V128 G10V112 D+9V35 B2V1 C0V128 G10V112 D+9V40 E3V1 C0V128 G10V112 D+9V45 A3V1 C+0V128 D+0V128 E2V127 E10V128 D+0V131 B9V5 A+10V128 D+0V131 B9V5 rV65 E0 A1V229 C7V97 G+1V128 G10V116 G9V25 C2V21 G+1V128 G10V116 G9V25 C2V21 G+1V128 G9V1 G10V116 C0V128 G9V1 G10V116 C0V128 G9V1 G10V116 C0V128 G9V1 G10V116 C0V128 A20 rV112 D1 C0V128 G10V112 D+9V34 A+2V1 C0V128 G10V112 D+9V39 D+3V1 C0V128 G10V112 D+9V44 G+3V1 C0V128 rV4 B9V5 D+10V4 G10V113 E0V127 A+10V120 G10V115 G10V116 E0V127 G10V120 r G9V31 D+5 G10V116 G9V33 A2V1 C0V128 G10V116 G9V38 D3V1 C0V128 G10V116 G9V1 G10V116 C0V128 G9V41 D+3V1 C0V128 G10V116 G9V36 A+2V1 C0V128 G10V116 G9V1 G10V116 G9V1]

$$ALL
  [C2V21 B6V5 rV255 G10V15 D+0V1 C0V128 G10V112 D+9V35 B2V1 C0V128 G10V112 D+9V40 E3V1 C0V128 D+9V1 G10V112 C0V128 G10V112 D+9V39 C+3V1 C0V128 G10V112 D+9V34 G+2V1 C0V128 D+9V1 C0V128 D+9V34 F6 C10V255 A6V83 G10V118 A9V25 C2V21 G+1V128 G10V118 C0V128 G10V118 C0V128 G10V118 C0V128 A9V1 G10V118 A9V25 C2V21 G+1V128 G10V118 A9V1 G10V118 C2V21 G10V118 C0V128 A9V25 G6V84 E1 F5V15 D+0V1 G10V113 C0V128 G9V1 G10V118 C0V128 C10V1 G10V123 C0V128 F10V1 G10V128 C0V128 A+10V1 G10V133 C0V128 D+11V1 G10V138 C0V128 G+11V1 rV65 E0 A1V82 C8V128 B14V1 G10V180 C0V128 B14V1 G10V180 C0V128 B14V1 G10V180 C0V128 B14V1 G10V180 C0V128 B14V1 G10V180 C0V128 B14V1 G10V180 C0V128 B14V80 rV19 D3V66 rV66 F9V38 C3V1 C0V128 G10V114 A8V1 G10V106 F9V1 G10V114 A8V1 G10V106 C0V128 F9V33 A2V1 C0V128 G10V114 A8V38 C0V128 F9V1 C0V128 A8V1 G10V106 D+3V1 C0 rV21 A+6V86 C9V25 C2V21 G+1V128 G10V109 G9V1 G10V116 C9V1 G10V109 G9V1 G10V116 C0V128 C9V25 C2V21 G+1V128 G10V109 G9V25 C0V128 G10V111 A9V25 A2V25 G2V25 A2V25 B2V25 C+3V25 D+3V80 rV21 C0V128 G10V106 F9V44 G+3V1 C0V128 G10V114 A8V49 C+4V1 C0V128 G10V106 F9V54 F+4V1 C0V128 G10V114 A8V59 B4V1 C0V128 G10V106 F9 E5V1 C0V128 G10V114 A8V69 A5V1 C0V128 rV65 F0 D2V16 A+3V52 D2V28 E7V90 G+2V51 r A6V82 A+6V120 B2V112 F6 E2V127 B1V6 C0V80]
  [C0V255 rV5 G+1V22 C+7V85 C2V21 G+1V128 G10V116 G9V25 C2V21 G+1V128 G10V116 G9V25 C2V21 G10V116 C0V128 G9V1 G+1V128 G10V116 G9V25 C2V21 G+1V128 G10V116 G9V25 C2V21 G10V116 C2V21 G10V116 G9V80 rV16 D3V66 rV66 F9V38 C3V1 C0V128 G10V114 F9V1 G10V114 F9V1 G10V114 F9V1 G10V114 C0V128 F9V33 A2V1 C0V128 G10V114 F9V38 C0V128 F9V1 C0V128 F9V1 G10V114 D+3V1 r rV21 C+7V85 C0V128 B14V1 G10V180 C0V128 B14V1 G10V180 C0V128 B14V1 G10V180 C0V128 B14V1 G10V180 C0V128 B14V1 G10V180 C0V128 B14V1 G10V180 C0V128 G+17 D17V143 D+5 G10V142 C0V128 F+11V1 G10V137 C0V128 C+11V1 G10V132 C0V128 G+10V1 G10V127 C0V128 D+10V1 G10V122 C0V128 A+9V1 G10V117 C0V128 F9V1 G10V112 F6 C10V255 C19V83 G10V109 G9V25 C2V21 G+1V128 G10V116 C0V128 G10V109 C0V128 G10V116 C0V128 C9V1 G10V109 G9V25 C2V21 G+1V128 G10V116 C9V1 G10V109 C2V21 G10V116 C0V128 C9V25 G6V84 G1 F5V99 F5V4 C+3V1 C0V128 G10V106 F9V34 C0V128 A8V33 C0V128 F9V32 C0V128 A8V1 G10V106 G+2V1 C0V128 G10V106 F9V37 C+3V1 G10V106 F9V36 A+2V25 G+2V25 G+2V25 A+2V25 C3V25 D3V25 F6V1 C2V21 G+1V128 G10V111 A9V25 C2V21 G+1V128 G10V118 D9V25 C2V21 G+1V128 G10V111 A9V25 C2V21 G+1V128 G10V118 D9V25 C2V21 G+1V128 G10V111 A9V25 C2V21 G+1V128 G10V118 D9V25 C2V21 G+1V128 C+8 rV108 G+1V22 B9V255 F+2V8 rV81 G7V93 rV19 D+1V32 E1V97 rV80 rV1 E16V1 C0V137 F6]

$$ALL
  [rV2 F6 rV1 F1V19 A1V22 F+2V8 D+0V8 G+6V81 C8V8 C3V51 F+4 G0V128 r A0V254 r rV80 rV6 rV18 A1V22 rV31 G0V14 G+6V81 G+7V94 F+1V36 G2V55 C8V85 B3V255 rV6 F1V19 E1V85 C0V129 B14V1 G+10V180 C0V129 B14V1 G+10V180 C0V129 B14V1 G+10V180 C0V129 B14V1 G+10V180 C0V129 B14V1 G+10V180 C0V129 B14V1 G+10V180 C0V129 F3 rV75 F+10 C0 D6V1 rV75 C0 D6V1 rV75 C0 D6V1 rV78 C0 D6V1 rV75 C0 D6V1 rV75 C0 D6V1 rV75 C0 F+1V20 A1V22 G0V31 G0V4 G+6V81 G0V120 D4V69 D+5V255 G10V80 rV9 E10V255 G+2V2 E5V255 E2V87 B9V255 E5 rV82 A+6V83 D1V4 D+1 r rV80 rV11 A0V255 rV6 C0V131 F6V1 E10V255 F+0V31 D+0V255 A6V83 G4V20 G+10V87 F7V128 G10V90 A+7V128 G10V93 F7V128 G10V90 G+7V128 G10V95 G+7V128 G10V93 A+7V128 G10V97 D7V128 G10V87 F7V128 G10V95 G+7V128 G10V93 F7V128 G10V90 A+7V128 G10V95 G+7V128 G10V95 E5V78 rV125 G1V7 A+1V4 F+7V82 C19V56 C7V129 G10V90 A+7V128 G10V95 G+7V128 G10V90 G+7V128 G10V93 D7V128 G10V93 A+7V128 G10V95 G+7V128 G10V87 F7V128 G10V90 A+7V128 G10V93 F7V128 G10V90 G+7V128 rV27 G1V47 C+2V27 D+7V89 F+2V33 C2 A6V82 A+6V83 C0V36 B6V206 rV15 C0V128 C7V4 G10V114 D+0V128 F9V4 B14V1 G10V98 D+0V128 C+8V4 G10V98 G10V73 D+0V128 F9V4 G10V114 D+0V128 C0V128 C+8V4 G10V98 D+0V128 C+8V80 rV16 F+2V5 C0V128 F9V4 G10V114 D+0V128]
  [rV80 rV3 E10V255 F1V31 A5V255 E2V87 B9V255 G5 rV82 A+6V83 C+0V48 E5V78 rV29 E5V78 rV24 F6 rV125 D+1V33 D+4V65 D+2V29 F7V120 D4V65 rV255 A6V83 B9V63 D+9V16 B6V215 rV255 F+10V127 F+0V1 rV75 C0 D6V1 rV75 C0 D6V1 rV75 C0 F6V1 rV75 C0 D6V1 rV75 C0 D6V1 rV75 C0 D6V1 rV65 F0 F+1V20 C7V97 G+10V180 C0V129 B14V1 G+10V180 C0V129 B14V1 G+10V180 C0V129 B14V1 G+10V180 C0V129 B14V1 G+10V180 C0V129 B14V1 G+10V180 C0V129 B14V1 r F+2V26 rV26 D7V88 rV19 r A6V82 A+6V83 B3V85 F6 B1V1 F1V19 A1V22 F+2V31 C+1V7 G+6V81 A7V95 B2V56 F+4V67 C7V229 E5V78 rV5 F6 B1V1 B6V16 rV10 rV80 rV13 F1V22 G+6V83 D+1V34 D3V16 F+10 E0V114 F9V5 E0V120 B9V5 E0V114 F9V5 E0V120 B9V5 E0V114 F9V5 E0V120 B9V5 E0V114 F9V5 E0V120 B9V5 E0V114 F9V5 E0V120 B9V5 E0V114 F9V5 E0V120 B9V5 E0V114 r B4V18 C+7V81 rV16 D0V39 F+10V127 B9V5 E0V114 F9V5 E0V120 B9V5 E0V114 F9V5 E0V120 B9V5 E0V114 F9V5 E0V120 B9V5 E0V114 F9V5 E0V120 B9V5 E0V114 F9V5 E0V120 A+10V255 G1V21 A1V120 G0V31 G+0V255 G+6V92 B9V255 F+5V16 rV17 G0V255 rV6 C2V89 G10V180 D+0V128 C+8V4 G10V98 E0V114 C0V128 F9V4 G10V114 D+0V128 C7V128 B14V1 G10V98 D+0V128 C+8V4 F9V1 G10V85 D+0V128 F9V4 G10V114 F6 C5V85 B14V1 G10V98 D+0V128 C+8V4 G10V98]

$$ALL
  [C7V128 B14V1 G10V98 D+0V128 C+8V4 F9V1 G10V85 D+0V128 F9V4 G10V114 E10V255 F1V31 A5V255 E2V87 B9V255 G5 rV82 A+6V83 C+0V48 E5V78 rV61 A1V22 B6V21 rV255 A4V69 F6V1 E10V15 B4V70 A+11V255 G1V21 A1V120 D+0V112 A+1V255 G+6V91 G2V8 C+0V130 C0V130 C0V130 C0V130 C0V130 C0V130 C0V130 C0V130 F1V19 A1V22 F+2V8 D+0V8 G+6V81 C8V8 C3V51 F+4 G0V128 r F+10V24 C0V137 F+1V20 A1V22 F+2V8 F+0V9 G+6V81 A+7V120 G4V67 F+5V255 C19V8 E16V1 E5V78 rV24 G+12V180 A+2V8 F3V48 G+6V91 E7V90 B3 rV120 r D7V18 rV2 E0V120 G+10V108 rV87 rV104 G+10V108 rV116 E0V120 G+10V108 rV87 rV104 D+0 G7V5 D7V129 D+0 D+0 D7V129 D+0 D+9V5 D7V129 D+0 F+1V20 G0V255 rV6 B9V35 B3 D7V129 D+0 E0V120 D+0 D+0 D+0 D7V129 D+0 E0V120 D+0 B8V4 D11V87 B9V4 B8V5 G9V4 B9V4 B8V4 rV87 B9V4 B8V125 rV127 E1V1 F1V19 A1V22 F+2V31 C+1V7 G+6V81 A7V95 B2V56 F+4V67 C7V229 F6 C5V125 G8V5 E10V134 D+0V128 E0V114 C+11V104 G10V117 F9V4 G8V5 B8V1 F9V4 G8V5 B8V134 D+0V128 E0V114 C+11V104 G10V122 F9V4 r E10V2 E0V114 C+11V104 G10V125 F9V4 G8V5 G+9V134 D+0V128 E0V114 G10V104 C+11V108 F9V4 G8V5 B14V24 B0 C7V48 F+8 C7V254 F1V19 A1V22 F+2V31 C+1V7 G+6V81 A7V95 B2V53 F+4V67 C7V229 F6 E10V255 G+2V2 E5V255 E2V87 B9V255 E5 rV82 A+6V83 D0V4 C0V255 rV7]
  [G10V73 D+0V128 F9V4 G10V114 D+0V128 C0V128 C+8V4 G10V98 D+0V128 C+8V1 F1V19 A1V22 F+2V8 D+0V8 G+6V81 C8V8 C3V51 F+4 G0V128 r F+10V26 C0V255 rV6 A1V22 B14V80 rV19 A1V22 C+0V197 rV28 G1V34 C2V17 D+7V89 D+1V47 E0V32 rV29 C0V130 C0V130 C0V130 C0V130 C0V130 C0V130 C0V130 E10V255 F1V31 A5V255 E2V87 B9V255 G5 rV82 A+6V83 C+0V48 E5V78 rV61 A1V22 r C+0V20 rV26 D7V88 rV31 rV25 A6V82 A+6V83 D+0V1 E2V127 B1V6 r E11V2 rV84 G+1V22 B9V255 D1V8 rV8 A0V85 E5V78 rV125 G0V28 D+1V4 B8V5 D7V129 D+0 D+9V5 D7V129 G8V4 B8V5 D7V129 D+0 D+9V4 rV104 G+10V108 rV87 B9V4 rV112 rV87 rV104 G+10V108 rV87 D5V120 F+10 B6V80 rV255 G1V21 G+10V108 rV87 B9V4 B8V4 rV87 B9V4 rV112 rV87 B9V4 B8V4 rV100 D+0 D+0 E0V120 G+10V108 D+0 E0V120 D+0 D+0 E0V120 D6V18 rV2 E10V255 G+2V2 E5V255 E2V87 B9V255 E5 rV82 A+6V83 D0V4 D+1V80 rV24 F+2 G10V104 G10V125 F9V4 G8V5 G+9V128 D+0V128 E0V114 G10V104 D+0V128 E0V114 G10V104 G10V112 F9V4 G8V5 C+10V128 D+0V128 G6V84 C2 rV4 G8V5 E10V128 D+0V128 E0V114 G10V104 G10V112 F9V4 G8V5 B8V128 D+0V128 E0V114 G10V104 rV65 F0 rV65 F0 B14V120 G+2V2 E5V255 E2V87 B9V255 E5 rV82 A+6V83 D0V4 E1V80 r F1V19 A1V22 F+2V31 C+1V7 G+6V81 A7V95 B2V56 F+4V67 C7V229 B6V27 rV60]

$$ALL
  [C0V24 B1V1 B6V7 rV255 rV7 E13V255 G1V21 A1V120 F+2V8 D+0V255 G+6V91 B9V255 G+5V16 r G6V84 D+0 G6V84 E0 B6V103 rV185 F+1V20 A1V22 F+2V8 F+0V9 G+6V81 A+7V120 G4V67 F+5V255 C19V8 E5V78 rV121 G1V21 C8V24 D6V1 rV75 C0 D6V1 rV75 C0 D6V1 rV75 C0 D6V1 rV75 C0 D6V1 rV75 C0 D6V1 rV75 C0 D6V1 C0 rV18 C+0V17 D1V1 rV75 C0 D6V1 rV75 C0 D6V1 rV75 C0 F6V1 rV75 C0 D6V1 rV75 C0 D6V1 rV75 C0 D6V1 F1V19 A1V22 F+2V8 D+0V8 G+6V81 C8V8 C3V51 F+4 G0V128 r rV125 D+1V33 D+4V65 D+2V29 F7V120 D4V65 rV255 A6V83 B9V15 B11V1 A0 C7V254 r E18V10 r C0V1 E5V78 rV125 G1V7 A+1V4 F+7V82 C19V56 C7V129 G10V102 A+8V128 G10V107 G+8V128 G10V102 G+8V128 G10V105 D8V128 G10V105 A+8V128 G10V107 G+8V128 G10V99 F8V128 G10V102 A+8V128 G10V105 F8V128 G10V102 G+8V128 G10V107 G+8V128 G10V105 A+8V128 rV65 F+0 D+2V20 rV23 A1V91 G0V229 A0V85 C9V128 G10V107 G+8V128 G10V105 A+8V128 G10V105 D8V128 G10V99 F8V128 G10V107 G+8V128 G10V105 A+8V128 G10V102 A+8V128 G10V107 G+8V128 G10V102 G+8V128 G10V105 r C+0V20 rV26 D7V88 rV31 rV25 A6V82 A+6V83 D+0V1 G6V84 D1 E0V1 G10V85 D+0V128 F9V4 G10V114 G10V180 C0V128 C+8V4 G10V98 D+0V128 C0V128 C7V4 G10V114 D+0V128 F9V4 B14V1 G10V98 D+0V128 C+8V4 G10V98 r F9V31 C6V1]
  [E11V1 C+0V255 rV7 B6V99 rV142 rV18 C+2V37 C+2V27 D+7V89 F+1V36 rV4 A6V82 A+6V83 C7V229 r F+10 r C0V255 rV7 r C+0V20 rV26 D7V88 rV31 rV25 A6V82 A+6V83 D+0V1 rV1 r D6V16 rV7 G10V180 C0V129 B14V1 G+10V180 C0V129 B14V1 G+10V180 C0V129 B14V1 G+10V180 C0V129 B14V1 G+10V180 C0V129 B14V1 G+10V180 C0V129 B14V1 G+10V180 G6V84 G0 F+10V127 G0V7 C0V129 B14V1 G+10V180 C0V129 B14V1 G+10V180 C0V129 B14V1 G+10V180 C0V129 B14V1 G+10V180 C0V129 B14V1 G+10V180 C0V129 B14V1 G+10V180 E10V255 F1V31 A5V255 E2V87 B9V255 G5 rV82 A+6V83 C+0V48 E5V78 rV24 rV18 A1V22 rV31 G0V14 G+6V81 G+7V94 F+1V36 G2V55 C8V85 rV65 F+0 E5V78 rV24 G6V84 B0 B1 r B4V18 C+7V81 rV16 D0V39 F+10V127 B9V5 E0V114 F9V5 E0V120 B9V5 E0V114 F9V5 E0V120 B9V5 E0V114 F9V5 E0V120 B9V5 E0V114 F9V5 E0V120 B9V5 E0V114 F9V5 E0V120 B9V5 E0V114 F9V5 E0V120 B9V5 A+7 rV60 C2V86 B9V255 D1V3 rV127 E0V120 B9V5 E0V114 F9V5 E0V120 B9V5 E0V114 F9V5 E0V120 B9V5 E0V114 F9V5 E0V120 B9V5 E0V114 F9V5 E0V120 B9V5 E0V114 F9V5 C0V131 F+1V20 A1V22 F+2V8 F+0V9 G+6V81 A+7V120 G4V67 F+5V255 C19V8 r C7V25 C0V128 C+8V4 G10V98 D+0V128 C+8V5 C6V1 G10V114 D+0V128 F9V4 G10V85 G10V180 D+0V128 C+8V4 G10V98 E0V114 C0V128 F9V4 G10V114 D+0V128 E5V78 rV61 G10V180 C0V128]

$$ALL
  [G10V114 D+0V128 F9V4 G10V85 G10V180 D+0V128 C+8V4 G10V98 E0V114 C0V128 F9V4 G10V114 D+0V128 B14V125 F+2V18 B4V70 D+2V29 F7V120 D4V68 E1V255 A6V83 G4V2 rV65 F+0 A1V22 G6V84 F1 B2V58 E5V78 rV125 C3V60 C0V143 F+1V20 A1V22 F+0V4 G0V23 G+6V81 C7V32 C8V2 C0V1 C0V1 C0V1 C0V1 C0V1 C0V1 C0V1 C8V18 A1V22 rV31 G0V4 G+6V81 E1V97 F+1V37 D3V55 C0V8 F+10 rV127 G+5V1 F1V19 A1V22 F+2V31 C+1V7 G+6V81 A7V95 B2V56 F+4V67 C7V229 C0V197 rV65 F+0 C0V153 rV35 D+1V42 C2V81 D+7V89 C0V48 G0 C20 rV87 G+1 B8V5 D7V129 D+0 D+0 D7V129 D+0 D+9V5 D7V129 D+0 D+0 D+8V4 rV92 rV87 B9V4 B8V4 rV87 B9V4 rV112 rV87 B9V4 F1V19 C+0V8 C0 D5V120 G+0V48 rV87 B9V4 B8V5 G9V4 B9V4 B8V4 rV87 B9V4 B8V5 G9V4 rV108 D+0V135 E0V120 G+10V108 rV116 E0V120 G+10V108 D+0 E0V120 G+10V108 F+10 A+7V17 rV18 A1V22 rV31 G0V14 G+6V81 G+7V94 F+1V36 G2V55 C8V85 E5V78 rV61 G10V104 G10V125 F9V4 G8V5 C+10V134 D+0V128 E0V114 G10V104 G10V108 E0V114 C+11V104 G10V108 F9V4 G8V5 G+9V134 D+0V128 E0V114 F6 C5V125 G8V5 E10V134 D+0V128 E0V114 C+11V104 G10V117 F9V4 G8V5 B8V128 D+0V134 E0V114 G10V104 G11V180 B6V12 rV85 B6V20 rV85 D1V128 D+6 rV108 G+1V22 B9V255 F+2 rV81 G7V93 A6V83 G6V84 C0 F+1V20 A1V2 C+2V24 E1V1 E12V108 C0V255 rV8]
  [C+8V4 G10V98 D+0V128 C0V128 C7V4 G10V114 D+0V128 F9V4 B14V1 G10V98 D+0V128 C+8V4 G10V98 B4V18 A1V22 rV31 G0V4 G+6V81 E1V97 F+1V37 D3V55 C0V8 G+1 rV127 A5V1 r D+7V22 E16V180 r D+7V22 G0V2 r F0V20 rV25 D7V88 rV16 rV5 C0 C0V1 C0V1 C0V1 C0V1 C0V1 C0V1 C0V1 C0V125 F+2V18 B4V70 D+2V29 F7V120 D4V68 E1V255 A6V83 G4V2 rV65 F+0 A1V22 E10V255 G+2V2 E5V255 E2V87 B9V255 E5 rV82 A+6V83 D0V4 C0V29 D0V24 E6 C0V137 A+11V255 G1V21 A1V120 rV15 G+0V255 C8V10 rV65 F+0 A+2V8 rV1 G+10V108 rV87 B9V4 rV112 rV87 rV104 G+10V108 rV87 B9V4 rV112 D+0 D7V129 D+0 E0V120 D+0 D+0 D+0 D7V129 D+0 E10V63 F+10V127 G6V84 A+1 F+1V20 G0V129 D+0 E0V120 G+10V108 D+0 E0V120 D+0 D+0 E0V120 G+10V108 D+0 B7V4 B9V4 B8V5 D7V129 G8V4 B8V5 G9V4 B9V4 B8V5 rV83 G+1 B14V125 D+1V33 D+4V65 D+2V29 F7V120 D4V65 rV255 A6V83 B9V3 B11V1 r F9V31 E10V128 D+0V128 E0V114 G10V104 G10V117 F9V4 G8V5 B8V128 F+2V4 G8V5 B8V128 D+0V128 E0V114 G10V104 G10V122 F9V4 G8V80 rV25 F+2 G10V104 G10V125 F9V4 G8V5 G+9V128 D+0V128 E0V114 G10V104 G10V108 F9V4 G8V5 B8V128 C+0V255 rV7 C0V255 rV7 G+11V180 rV65 G0 D0V39 G+2V50 D2V28 E7V90 A+3V59 E1V12 F+0V16 r rV127 rV17 rV26 G+6V81 C0V149 B8V1 B6V53 rV108]

$$ALL
  [B8V1 E11V108 C0V131 B8V1 A+10V108 r C0V149 B8V1 A+11V108 r B8V3 E1V33 C+2V28 G+6V94 F+1V20 A1V121 E7V90 C+0 G1V21 C10V255 F7V81 F+11V255 G+1V22 rV26 G+6V81 rV18 A1V22 C+2V28 G+6V94 F1V19 A1V22 D+2V89 A7V2 F+1V20 A1V121 E7V90 C+0 G1V21 C10V255 F7V81 C12V255 G+1V22 rV26 G+6V81 rV18 A1V22 C+2V28 G+6V94 F1V19 A1V22 D+2V89 A7V2 F+1V20 A1V121 E7V90 C+0 G1V21 C10V255 F7V81 rV255 G+1V22 rV26 G+6V81 rV18 A1V22 C+2V28 G+6V94 F1V19 A1V22 D+2V89 A7V2 F+1V20 A1V121 E7V90 C+0V255 rV8 F1V19 A1V22 A1V26 F5V17 D3 C+4V255 B1V15 F+2V120 A1V5 rV108 D+1V53 B9V63 rV17 C+9V22 A+4V66 D5V5 A1V38 D+1V16 A+5V7 D0V39 G+2V50 C+2V24 E1V63 D3 C+4V255 B1V15 F+2V120 A1V5 rV108 D+1V53 B9V63 rV17 B8V22 A+4V66 D5V3 E1V33 A1V26 F5V17 E0 C+3V55 D+1V14 F+0V1 D3 C+4V255 B1V15 F+2V120 A1V5 rV108 D+1V53 B9V63 rV17 B8V22 A+4V66 D5V3 E1V33 A1V26 F5V17 E0 C+3V55 D+1V14 F+0V1 D3 C+4V255 B1V15 F+2V120 A1V5 rV108 D+1V53 B9V63 rV17 B8V22 A+4V66 D5V3 E1V33 A1V26 F5V17 E0 C+3V55 D+1V14 F+0V1 D3 C+4V255 B1V15 F+2V120 A1V5 rV108 D+1V53 B9V63 rV17 C+9V22 A+4V66 D5V5 A1V38 D+1V16 A+5V7 D0V39 G+2V50 C+2V24 E1V31 rV22 F+4V255 C+1V16 C0V80 rV6 D0V39 G+2V50 D+2V89 A7V148 B8V1 E12V108 F6V3 C10V255 G+1V22 B9V63 D1V59 D5V3]
  [C0V149 B8V1 A+10V108 C0V131 E5V78 rV1 E12V108 C0V143 E5V78 rV121 G1V21 C+0V120 B1V15 B9V63 rV17 C+9V22 A+4V66 D5V5 A1V38 D+1V16 A+5V7 D0V39 G+2V50 C+2V24 E1V31 rV22 F+4V255 C+1V16 C0V120 r rV108 D1V59 B9V63 rV17 C+9V22 A+4V66 D5V5 A1V38 D+1V16 A+5V7 D0V39 G+2V50 C+2V24 E1V63 D3 C+4V255 B1V15 F+2V120 A1V5 rV108 D+1V53 B9V63 rV17 C+9V22 A+4V66 D5V5 A1V38 D+1V16 A+5V7 D0V39 G+2V50 C+2V24 E1V63 D3 C+4V255 B1V15 D5V120 r rV110 D1V59 B9V63 E0V22 B8V16 E4V71 B6V7 rV255 r D5V255 F7V81 rV18 A1V22 C+2V28 G+6V94 F1V19 A1V22 D+2V89 A7V2 F+1V20 A1V121 E7V90 C+0 G1V21 C10V255 F7V81 F+11V255 G+1V22 rV26 G+6V81 rV18 A1V22 C+2V28 G+6V94 F1V19 A1V22 D+2V89 A7V2 F+1V20 A1V121 E7V90 C+0V148 G1V21 C10V255 F7V81 rV255 G+1V22 rV26 G+6V81 rV18 A1V22 C+2V28 G+6V94 F1V19 A1V22 D+2V89 A7V2 F+1V20 A1V121 E7V90 C+0V130 G1V21 C10V255 F7V81 rV255 G+1V22 rV26 G+6V81 rV18 A1V22 C+2V28 G+6V94 F1V19 A1V22 D+2V89 A7V2 F+1V20 A1V121 E7V90 C+0V130 G1V21 C10V255 F7V81 rV255 G+1V22 rV26 G+6V81 rV18 A1V22 C+2V28 G+6V94 F1V19 A1V22 D+2V89 A7V2 F+1V20 A1V121 E7V90 C+0 G1V21 C10V255 F7V81 rV255 G+1V22 rV26 G+6V81 rV18 A1V22 C+2V28 G+6V94 F6 C10V255 G+1V22 B9V63 D1V59 E12V108 C0V149 B8V80 rV7 D0V39 G+2V50 D+2V89 A7V147 G1V21]

$$ALL
  [E1V33 A1V26 F5V17 E0 C+3V55 D+1V14 F+0V1 D3 C+4V255 B1V15 F+2V120 A1V5 rV108 D+1V53 B9V63 rV17 B8V22 A+4V66 D5V3 E1V33 A1V26 F5V17 D0V39 G+2V50 C+2V24 E1V31 rV22 F+4V255 C+1V16 C0V120 r rV108 D1V59 B9V63 rV17 B8V22 A+4V66 D5V3 E1V33 A1V26 F5V17 D0V39 G+2V50 C+2V24 E1V31 rV22 F+4V255 C+1V16 C0V120 r rV110 D1V59 B9V63 E0V22 B8V16 E4V71 D5V3 E1V33 A1V26 F5V17 E0 C+3V55 D+1V14 F+0V1 D3 C+4V255 B1V15 D5V120 r rV110 D1V59 B9V63 E0V22 B8V16 E4V71 D5V3 E1V33 A1V26 F5V17 E0 C+3V55 D+1V14 F+0V1 r B8V3 E1V33 C+2V28 G+6V94 F+1V20 A1V121 E7V90 C+0V148 G1V21 C10V255 F7V81 D+12V255 G+1V22 rV26 G+6V81 rV18 A1V22 C+2V28 G+6V94 F1V19 A1V22 D+2V89 A7V2 F+1V20 A1V121 E7V90 C+0 G1V21 C10V255 F7V81 rV255 G+1V22 rV26 G+6V81 rV18 A1V22 C+2V28 G+6V94 F1V19 A1V22 D+2V89 A7V2 F+1V20 A1V121 E7V90 C+0V133 G1V21 C10V255 F7V81 rV255 G+1V22 rV26 G+6V81 rV18 A1V22 C+2V28 G+6V94 F1V19 A1V22 D+2V89 A7V2 r rV18 A1V22 D5V22 A+4V66 E10V255 D+2V9 E6V255 A6V87 B9V255 D+0 G6V84 A0 F+1V20 G0V129 D+0 E0V120 G+10V108 D+0 E0V120 D+0 D+0 E0V120 G+10V108 D+0 B7V4 B9V4 B8V5 D7V129 G8V4 B8V5 G9V4 B9V4 B8V5 rV79 G+1 F6V1 E10V63 D+2V9 D+0 E0V120 G+10V108 rV116 E0V120 G+10V108 D+0 E0V120]
  [C10V255 F7V81 rV255 G+1V22 rV26 G+6V81 rV18 A1V22 C+2V28 G+6V94 F1V19 A1V22 D+2V89 A7V2 F+1V20 A1V121 E7V90 C+0V142 G1V21 C10V255 F7V81 D+11V255 G+1V22 rV26 G+6V81 rV18 A1V22 C+2V28 G+6V94 F1V19 A1V22 D+2V89 A7V2 F+1V20 A1V121 E7V90 C+0V148 G1V21 C10V255 F7V81 A10V255 G+1V22 rV26 G+6V81 rV18 A1V22 C+2V28 G+6V94 F1V19 A1V22 D+2V89 A7V2 F+1V20 A1V121 E7V90 C+0V133 G1V21 C10V255 F7V81 rV255 G+1V22 rV26 G+6V81 rV18 A1V22 C+2V28 G+6V94 F1V19 A1V22 D+2V89 A7V2 F+1V20 A1V121 E7V90 C+0 G1V21 C10V255 F7V81 rV255 G+1V22 rV26 G+6V81 E5V78 rV121 G1V21 C+0V120 B1V15 B9V63 rV17 B8V22 A+4V66 D5V3 E1V33 A1V26 F5V17 D0V39 G+2V50 C+2V24 E1V63 D3 C+4V255 B1V15 F+2V120 A1V5 rV108 D+1V53 B9V63 rV17 C+9V22 A+4V66 D5V5 A1V38 D+1V16 A+5V7 D0V39 G+2V50 C+2V24 E1V63 D3 C+4V255 B1V15 D5V120 r rV110 D1V59 B9V63 E0V22 B8V16 E4V71 D5V3 E1V33 A1V26 F5V17 E0 C+3V55 D+1V14 F+0V1 D3 C+4V255 B1V15 D5V120 r rV108 D1V59 G6V84 G+0 D3 C+4V63 E7V90 D+11V180 F1V19 A1V22 F+2V15 A0V4 rV7 C+0V229 r D5V120 G+0V48 rV87 B9V4 B8V5 G9V4 B9V4 B8V4 rV87 B9V4 B8V5 G9V4 rV108 D+0V135 E0V120 G+10V108 rV116 E0V120 G+10V108 D+0 E0V120 G+10V108 F+10 A+7V80 rV11 F1V19 C+0V8 B9V4 B8V5 D7V129 G8V4 B8V5 G9V4 B9V4 B8V5]

$$ALL
  [G+10V108 rV116 D+0 G8V4 B8V5 D7V129 D+0 D+9V5 D7V129 G8V4 B8V5 D7V129 D+9V127 rV95 D0V39 G+2V50 D2V28 E7V90 A+3V59 E1V12 E1V85 E5V78 rV125 D3 C+4V63 E7V90 D+12V108 C0V149 rV18 A1V22 C+2V28 G+6V94 F1V19 A1V22 D+2V89 A7V2 F+1V20 A1V121 E7V90 C+0 G1V21 C10V255 F7V81 C11V255 G+1V22 rV26 G+6V81 rV18 A1V22 C+2V28 G+6V94 F1V19 A1V22 D+2V89 A7V2 F+1V20 A1V121 E7V90 C+0 G1V21 C10V255 F7V81 rV255 G+1V22 rV26 G+6V81 E5V78 rV121 G1V21 C+0V120 B1V15 B9V63 rV17 C+9V22 A+4V66 D5V5 A1V38 D+1V16 A+5V7 D0V39 G+2V50 C+2V24 E1V31 rV22 F+4V255 C+1V16 C0V120 r rV110 D1V59 B9V63 E0V22 B8V16 E4V71 D5V3 E1V33 A1V26 F5V17 D0V39 G+2V50 C+2V24 E1V31 rV22 F+4V255 C+1V16 C0V120 r rV108 D1V59 B9V63 rV17 C+9V22 A+4V66 D5V5 A1V38 D+1V16 A+5V7 D0V39 G+2V50 C+2V24 E1V31 rV22 F+4V255 C+1V16 C0V120 r rV110 D1V59 B9V63 E0V22 B8V16 E4V71 D5V3 E1V33 A1V26 F5V17 D0V39 G+2V50 C+2V24 E1V31 rV22 F+4V255 C+1V16 C0V120 r rV110 D1V59 B9V63 E0V22 B8V16 E4V71 B6V45 rV255 r D5V255 F7V81 rV18 A1V22 C+2V28 G+6V94 F1V19 A1V22 D+2V89 A7V2 F+1V20 A1V121 E7V90 C+0 G1V21 C10V255 F7V81 C11V255 G+1V22 rV26 G+6V81 rV18 A1V22 C+2V28 G+6V94 F1V19 A1V22 D+2V89 A7V2 F+1V20 A1V121 E7V90 C+0 G1V21 C10V255 F7V81 C12V255 G+1V22]
  [D7V129 G8V4 rV96 E0V120 G+10V108 rV87 rV104 G+10V108 rV116 E0V120 G+10V108 rV255 G1V21 rV108 G+1V22 B9V255 F+2 rV81 G7V93 D1V15 D+1 r B8V18 A1V22 D5V22 G+1V39 B8V1 E12V108 D3 C+4V255 B1V15 F+2V120 A1V5 rV108 D+1V53 B9V63 rV17 C+9V22 A+4V66 D5V5 A1V38 D+1V16 A+5V7 D0V39 G+2V50 C+2V24 E1V31 rV22 F+4V255 C+1V16 C0V120 r rV110 D1V59 B9V63 E0V22 B8V16 E4V71 D5V3 E1V33 A1V26 F5V17 E0 C+3V55 D+1V14 F+0V1 r B8V3 E1V33 C+2V28 G+6V94 F+1V20 A1V121 E7V90 C+0 G1V21 C10V255 F7V81 F+11V255 G+1V22 rV26 G+6V81 rV18 A1V22 C+2V28 G+6V94 F1V19 A1V22 D+2V89 A7V2 F+1V20 A1V121 E7V90 C+0 G1V21 C10V255 F7V81 D+11V255 G+1V22 rV26 G+6V81 rV18 A1V22 C+2V28 G+6V94 F1V19 A1V22 D+2V89 A7V2 F+1V20 A1V121 E7V90 C+0 G1V21 C10V255 F7V81 F+11V255 G+1V22 rV26 G+6V81 rV18 A1V22 C+2V28 G+6V94 F1V19 A1V22 D+2V89 A7V2 F+1V20 A1V121 E7V90 C+0 G1V21 C10V255 F7V81 D+11V255 G+1V22 rV26 G+6V81 rV18 A1V22 C+2V28 G+6V94 F1V19 A1V22 D+2V89 A7V2 F+1V20 A1V121 E7V90 C+0V255 rV8 F1V19 A1V22 A1V26 F5V17 D3 C+4V255 B1V15 F+2V120 A1V5 rV108 D+1V53 B9V63 rV17 C+9V22 A+4V66 D5V5 A1V38 D+1V16 A+5V7 D0V39 G+2V50 C+2V24 E1V31 rV22 F+4V255 C+1V16 C0V120 r rV108 D1V59 B9V63 rV17 C+9V22 A+4V66 D5V5 A1V38 D+1V16 A+5V7 D0V39 G+2V50]

$$ALL
  [rV26 G+6V81 rV18 A1V22 C+2V28 G+6V94 F1V19 A1V22 D+2V89 A7V2 F+1V20 A1V121 E7V90 C+0 G1V21 C10V255 F7V81 C11V255 G+1V22 rV26 G+6V81 rV18 A1V22 C+2V28 G+6V94 F1V19 A1V22 D+2V89 A7V2 F+1V20 A1V121 E7V90 C+0 G1V21 C10V255 F7V81 A10V255 G+1V22 rV26 G+6V81 rV18 A1V22 C+2V28 G+6V94 F1V19 A1V22 D+2V89 A7V2 F+1V20 A1V121 E7V90 C+0 G1V21 C10V255 F7V81 rV255 G+1V22 rV26 G+6V81 rV18 A1V22 C+2V28 G+6V94 F1V19 A1V22 D+2V89 A7V2 r G6V84 r F6V1 G+4V109 G10V109 C9V192 G18V1 rV128 G10V180 B14V25 G+4V111 G10V111 D9V192 G18V1 rV128 G10V180 B14V25 G+4V113 G10V113 E9V192 G18V1 rV128 G10V180 B14V25 G+4V115 G10V115 F+9V192 G18V1 rV128 G0V1 G10V180 C0V255 rV9 G10V12 D+5V1 rV128 G10V180 A0V1 C0V128 G10V180 B14V57 C0V128 G10V15 B14V25 G+4V114 G10V114 D1V229 C2V229 D+9V128 D+9V96 D+5V1 C0V128 G10V180 B14V25 C2V229 C+9V128 C+9V96 D+5V1 C0V128 G10V180 B14V25 C2V229 B6V58 rV15 D8V1 E11V99 C0V137 D8V1 A+11V99 r C0V137 D8V1 E11V102 C0V131 D8V1 E11V99 C0V131 E5V78 rV222 A+10V115 C0V137 B8V1 rV65 G+0 C0V131 B7V1 A+11V108 F6 C0V254 r A+10V78 C0V131 C0V131 A+6V1 A0V1 A+10V78 C0V131 C0V131 A+6V1 A+10V83 F6 C0V131 G+6V5 F6V1 A+10V83 C0V131 D6V1 A+10V83 C0V131 A+6V1 A+10V83 F6 E0V11 C0V131 F6V131 F6V1 A+6V1 G0V1 A+10V81 E0V7 C0V131 C0V131 C7V80 rV4]
  [C+2V24 E1V63 D3 C+4V255 B1V15 F+2V120 A1V5 rV108 D+1V53 B9V63 rV17 C+9V22 A+4V66 D5V5 A1V38 D+1V16 A+5V7 D0V39 G+2V50 C+2V24 E1V31 rV22 F+4V255 C+1V16 C0V120 r rV110 D1V59 B9V63 E0V22 B8V16 E4V71 D5V3 E1V33 A1V26 F5V17 D0V39 G+2V50 C+2V24 E1V31 rV22 F+4V255 C+1V16 C0V120 r rV110 D1V59 B9V63 E0V22 B8V16 E4V71 D5V3 E1V33 A1V26 F5V17 E0 C+3V55 D+1V14 F+0V1 D3 C+4V255 B1V15 F+2V120 A1V5 rV108 D+1V53 G6V84 D1 r rV80 rV1 D+0V128 G10V180 B14V25 G+4V110 G10V110 C+9V192 G18V1 rV128 G10V180 B14V25 G+4V112 G10V112 D+9V192 G18V1 rV128 G10V180 B14V25 G+4V114 G10V114 F9V192 G18V1 rV128 G10V180 B14V25 G+4V116 G10V12 G+2V118 B0 B6V41 rV15 B14V25 G+4V119 G10V119 D1V229 C2V229 G+9V128 G+9 C19 C19V128 G10V7 D+5V1 rV128 G10V180 E0V1 C0V128 G10V180 B14V25 C2V229 D9V128 D9V96 D+5V1 C0V128 G10V180 B14V25 C2V229 C9V128 C9V96 D+5V1 C0V255 rV9 r C0V137 F8V1 E11V111 C0V131 E5V78 rV1 A+10V180 C0V131 B14V1 A+10V180 C0V131 B14V1 A+10V180 r C0V131 B8V1 A+10V108 C0V131 C+3 C2V1 A+11V108 C0V131 B7V80 r E5V78 rV5 A+6V1 G+0V1 A+10V78 C0V131 C0V131 A+6V1 A+10V78 A+10V78 C0V131 C7V80 rV2 A+10V83 A+10V81 C0V131 G+6V1 A+10V85 C0V131 G+6V1 A+10V78 C0V131 C7V80 rV3 F6V1 A+10V81 A+10V75 E0V9 C0V131 C0V131 A+6V1 G+6V1 A+10V81 A+10V83 F6 E0V7]

$$ALL
  [D+7V128 G10V97 G10V88 E0V12 C0V128 C7V1 G10V97 C0V128 C0V128 A+7V1 G10V88 C0V128 D+7V5 G7V1 G10V92 C0V128 C8V128 D+7V1 G10V95 C0V128 F16 C7V1 G10V97 C0V128 C0V128 A+7V1 G10V88 C0V128 D+7V1 G10V95 C0V128 D+7V1 G10V95 C0V128 A+7V1 G10V88 C0V128 A+7V1 G10V88 C0V128 D+7V80 rV6 F7V1 G10V97 G10V87 G10V97 G10V95 G10V90 E0V13 C0V128 A+7V1 G10V95 G10V90 C0V128 C0V128 A+7V1 G10V95 G10V90 C0V128 C0V128 A+7V1 G10V95 F6V1 E0V15 G0V5 E0V15 G0V5 E0V15 G0V5 E0V15 G0V5 E0V15 G0V5 E0V15 G0V5 E0V15 G0V5 E0V15 G0V5 E0V15 G0V5 E0V15 G0V5 E0V15 G0V5 E0V15 G0V5 E0V15 G0V5 E0V15 G0V5 E0V15 G0V5 E0V15 G0V5 G6V84 G0 D+0V4 D+0V129 D+0V4 D+0V129 D+0V4 D+0V129 D+0V4 D+0V129 D+0V4 D+0V129 D+0V4 D+0V129 D+0V4 D+0V129 D+0V4 D+0V129 D+0V4 D+0V129 D+0V4 D+0V129 D+0V4 D+0V129 D+0V128 G+10V105 F8V4 A10V105 A+10V99 F6 E0V10 D+0V4 D+0V129 F6 E0V15 G10V88 G10V85 G10V88 E0V11 C0V128 E0V9 G10V88 G10V85 E0V1 D+7V5 C7V128 C0V128 E0V5 G10V88 G10V85 G+0V1 D+7V5 C7V128 C0V128 E0V11 C0V128 E5V78 rV5 G+6V128 C0V128 G+6V128 C7V5 G+6V1 C7V5 G+6V128 C0V128 E0V5 G10V85 G10V81 D0V1 C7V5 G+6V128 C0V128 E0V9 G10V85 G10V81 C1V1 C7V5 G+6V1 rV65 A0 G10V85 C1V1 G10V85 G10V88 G10V85 G10V88 G10V85 F+0V1 D+7V5 C7V128 C0V128 E0V3 G10V88 G10V85 F+0V1 D+7V5]
  [G+0V5 C0V128 C7V1 A+7V1 G10V88 C0V128 A+7V1 A+0V1 G10V97 C0V128 G7V1 G10V92 G10V88 C0V128 D+7V1 G10V95 G10V92 C0V128 C8V1 rV65 A0 C0V128 A+7V1 G0V1 G10V97 C0V128 G7V1 G10V92 C0V128 C8V1 G10V85 C0V128 G7V1 G10V92 C0V128 C7V1 G10V97 C0V128 G7V1 G10V92 F6 E0V8 C0V128 A+7V128 F7V5 D8V5 F7V5 A+7V1 C8V1 G10V90 C0V128 F7V5 A+7V1 G10V95 G10V90 C0V128 F7V5 A+7V1 G10V95 G10V90 C0V128 F7V80 rV7 D+0V4 D+0V4 D+0V4 D+0V4 D+0V4 D+0V4 D+0V4 D+0V4 D+0V4 D+0V4 D+0V4 D+0V4 D+0V4 D+0V4 D+0V4 D+0V4 D+0V4 D+0V4 D+0V4 D+0V4 D+0V4 D+0V4 D+0V4 D+0V4 D+0V4 D+0V4 D+0V4 D+0V4 D+0V4 D+0V4 D+0V4 D+0V4 C0 D1V12 E0V5 C+1V12 E0V5 C1V11 E0V5 B0V11 E0V5 A+0V10 E0V4 A0V9 E0V5 G+0V8 E0V4 G0V7 E0V4 F+0V6 E0V3 F0V5 E0V3 E0V4 E0V3 D+0V3 D0V2 C+0V1 E0V2 C0V131 C8V80 rV9 G+0V8 D+0V3 rV80 rV10 D+7V5 C7V128 D+7V5 C7V1 D+7V1 A0V1 D+7V5 C7V128 C0V128 E0V4 G10V88 G10V92 D+0V1 A+7V5 G7V128 C0V128 E0V10 G10V95 G10V92 B0V1 A+7V1 G10V95 r G10V85 G10V81 G10V85 G10V81 G10V85 E0V10 G10V85 G10V81 F0V1 C7V5 G+6V128 C0V128 E0V4 G10V92 G10V88 G0V1 G7V5 D+7V128 C0V128 E0V12 G10V92 C0V128 G18 C7V128 C0V128 C0V128 C0V128 C7V128 D+7V5 C7V128 C0V128 E0V6 G10V88 G10V85 C+0V1 D+7V5 C7V128 C0V128 E0V8 G10V88]

$$ALL
  [C7V128 C0V128 E0V13 G10V88 G10V85 C0V255 rV10 C0V128 E0V13 C0V128 C0V128 C0V128 G+6V128 C0V128 E0V7 G10V85 G10V81 D0V1 C7V5 G+6V128 C0V128 E0V7 G10V85 G10V81 A+0V1 C7V5 G+6V128 C0V128 G+6V1 r D0V1 D7V5 A6V128 C0V128 E0V9 G10V87 G10V82 C1V1 D7V5 A6V1 G10V82 C0V128 C0V128 C0V128 A6V1 D7V1 G0V1 G10V82 C0V128 A6V128 D7V5 E5V78 rV5 F7V128 C0V128 E0V7 G10V94 G10V90 A+0V1 A7V5 F7V128 C0V128 A6V1 G10V82 G10V94 E0V10 C0V128 A6V128 A7V5 F7V1 G10V90 C0V128 C0V128 C0V255 rV10 C0V128 E0V5 G10V92 G10V90 G+0V1 G7V5 F7V128 C0V128 E0V12 C0V128 F7V1 G10V90 G10V85 G10V82 C0V128 C0V128 C0V128 A6V1 G10V82 G10V92 E0V6 F6 E0V3 A+10V82 F0V1 C7V5 A6V128 C0V128 E0V12 G10V85 G10V82 G10V92 C0V128 C7V5 A6V1 G7V1 G10V92 G10V90 G10V87 G10V82 F7V128 C0V128 E0V11 G10V94 r G10V87 G10V82 C0V128 F7V1 D7V1 G10V87 C0V128 A7V1 F0V1 G10V90 C0V128 A6V1 G10V82 G10V94 C0V128 D7V5 A6V1 G10V82 C0V128 C0V128 G+0 B14V255 rV11 C0V131 A+7V5 G+7V1 A+10V93 A+10V95 C0V131 A+7V1 G+7V1 A+10V93 C0V131 F8 D7V1 A+10V95 A+10V93 C0V131 G+7V1 A+10V90 C0V131 G+7V1 A+10V93 C0V131 A+8 D7V131 G+7V1 G0V1 A+10V95 A+10V93 A+10V87 C0V131 F7V131 F7V1 A+7V1 rV65 A+0 E0V6 G0V5 G8V1 G10V104 G10V107 C0V128 A+8V1 G10V100 G10V104 C0V128 C8V1 G10V109 C0V128 C0V128 A+8V1]
  [G10V85 B0V1 D+7V5 C7V128 D+7V1 B6V224 rV81 C+1V1 C7V1 B0V1 G10V81 G10V85 G10V81 G0V1 C7V5 G+6V128 C0V128 E0V2 G10V85 G10V81 F0V1 C7V5 G+6V128 C0V128 E0V12 G10V85 G10V81 G10V85 G6V84 C+1 E0V4 G10V87 G10V82 G0V1 D7V5 A6V128 C0V128 E0V14 G10V87 C0V128 D7V1 A+0V1 G10V82 G10V87 E0V9 C0V128 C0V128 D7V1 G10V87 G10V82 G10V87 r G10V87 G10V82 F0V1 D7V5 A6V128 C0V128 E0V12 G10V87 G10V82 G10V94 C0V128 D7V5 A6V1 A7V1 G10V94 G10V90 G10V87 C0V128 A7V1 F+0V1 G10V90 B6V216 rV82 D+0V1 C7V5 A6V128 C0V128 E0V10 G10V85 G10V82 C+1V1 C7V1 G10V85 C0V128 C0V128 F7V128 C7V1 G+0V1 G10V82 G10V92 C0V128 C7V5 A6V1 G7V80 rV17 G7V5 C0V128 E0V7 G10V92 G10V90 A+0V1 G7V5 F7V128 C0V128 A6V1 G10V82 G10V92 E0V10 C0V128 A6V128 G7V5 F7V128 E0V13 G10V82 B0V1 D7V5 G6V84 F1 F7V128 D7V1 G10V87 E0V7 C0V128 F7V1 G10V90 C0V128 C0V128 A7V1 G10V94 C0V128 C0V128 A6V1 G10V82 G10V94 C0V128 D7V1 D0V1 rV65 A+0 B6V105 rV87 A+10V93 A+10V90 C0V131 A+7V5 C8V1 A+10V93 E0V9 C0V131 A+7V1 rV65 A+0 C0V131 C0V131 D7V1 A+10V95 C0V131 A+7V1 A+10V90 C0V131 A+7V1 rV65 A+0 A+10V95 C0V131 C0V131 G+7V131 A+7V5 F7V1 A+10V93 A+10V87 E0V3 C0V131 D+17 C8V7 G8V128 G10V107 C0V128 C0V128 G8V1 G10V104 C0V128 C8V128 A+8V1 G10V100 C0V128 A+8V1 G0V1 G10V109 C0V128]

$$ALL
  [G10V100 E0V7 C0V128 G8V1 G10V104 F6 C0V128 A+8V1 G10V100 G10V104 C0V128 C8V1 G10V109 C0V128 G8V1 G10V104 C0V128 C9V1 G10V97 C0V128 G8V1 G10V104 C0V128 C8V1 G10V109 C0V255 rV11 C5V1 G10V111 G10V102 E0V8 E0V9 E0V10 C0V128 C0V128 F8V1 G10V109 E0V10 C0V128 A+8V128 F8V1 G10V109 E0V8 C0V128 A+8V128 F8V1 G10V109 G6V84 F+0 D+0V4 D8V120 F+0V5 E0V11 F+0V5 E0V11 F+0V5 E0V11 F+0V5 E0V11 F+0V5 E0V11 F+0V5 E0V11 F+0V5 E0V11 F+0V5 E0V11 F+0V5 E0V11 F+0V5 E0V11 F+0V5 E0V11 F+0V5 E0V11 F+0V5 E0V11 F+0V5 E0V11 F+0V5 E0V11 G6V84 G0 C+0V5 G0V7 C+0V5 F+0V6 C+0V5 F0V5 C+0V5 E0V4 C+0V5 D+0V3 C0V5 D0V2 C0V5 C+0V1 C0V5 C0V5 E0V3 C+0V1 E0V2 C0V131 G+8V1 A+10V97 G6V84 G+0 D+0V4 D+0V4 D+0V229 G18 C8V7 B0V1 D+8V1 A0V1 G10V97 G10V100 G10V97 F0V1 D+8V5 C8V128 C0V128 C0V128 A+8V5 G8V128 C0V128 E0V6 G10V107 G10V104 A0V1 A+8V5 G8V128 D+8V1 B6V224 rV93 E0V12 G10V97 E0V10 C0V128 C0V128 C0V128 E0V6 G10V97 G10V93 C+0V1 C8V1 G10V104 G10V100 D+0V1 G8V5 D+8V128 C0V128 E0V10 G10V104 G10V100 G10V97 G6V84 B0 E0V12 G10V100 E0V10 C0V128 C0V128 C0V128 E0V6 G10V100 G10V97 C+0V1 D+8V1 G10V100 G10V97 D+0V1 D+8V5 C8V128 C0V128 E0V10 G10V100 G10V97 G10V100 G6V84 C1 E0V12 G10V97 E0V10 C0V128 C0V128 C0V128 E0V6 G10V97 G10V93 C+0V1 C8V1]
  [G8V1 A+8V1 G10V100 C0V128 D+8V80 rV5 G10V104 C0V128 C8V128 A+8V1 G10V100 C0V128 A+8V1 G10V100 C0V128 D+8V1 G10V107 C0V128 D+8V1 G10V107 C0V128 A+8V1 G10V100 C0V128 A+8V1 B6V209 rV99 C0V128 C9V5 D8V1 C9V1 A+8V1 F8V1 A+0V1 G10V99 C0V128 A+8V1 F8V1 G10V109 G10V99 C0V128 A+8V1 F8V1 G10V109 G10V99 C0V128 A+8V1 C0 rV5 C5V107 D+0V4 D+0V4 D+0V4 D+0V4 D+0V4 D+0V4 D+0V4 D+0V4 D+0V4 D+0V4 D+0V4 D+0V4 D+0V4 D+0V4 D+0V4 D+0V4 D+0V4 D+0V4 D+0V4 D+0V4 D+0V4 D+0V4 D+0V4 D+0V4 D+0V4 D+0V4 D+0V4 D+0V4 D+0V4 D+0V4 D+0V4 r D8V4 D+0V4 D8V4 D+0V4 A+8V4 D+0V4 C8V4 D+0V4 D8V4 D+0V4 F8V4 D+0V4 G+8V4 D+0V4 A+7V4 D+0V4 D+0V4 D+0V129 C8V4 A10V99 A+10V99 C0V131 A+7V1 r C6V143 F0V5 C0V57 rV65 A+0 C0V128 E0V11 C0V128 C0V128 C0V128 C8V128 C0V128 E0V5 G10V100 G10V97 C0V1 G10V104 G10V100 G10V97 E0V1 D+8V5 C8V128 C0V128 E0V11 G10V100 G10V97 C0V255 rV11 C13V1 C8V5 G+7V1 C8V1 G+0V1 G10V93 F+0V1 C8V5 G+7V128 C0V128 E0V1 C0V128 G+7V128 C0V128 E0V5 G10V97 G10V93 G+0V1 C8V5 G+7V128 C0V128 D+8V1 r C1V1 D+8V5 C8V1 D+8V1 G+0V1 G10V97 F+0V1 D+8V5 C8V128 C0V128 E0V1 C0V128 C8V128 C0V128 E0V5 G10V100 G10V97 G+0V1 D+8V5 C8V128 C0V128 C8V1 r C1V1 C8V5 G+7V1 C8V1 G+0V1 G10V93 F+0V1 C8V5 G+7V128 C0V128 E0V1 C0V128]

$$ALL
  [G10V97 G10V93 D+0V1 C8V5 G+7V128 C0V128 E0V10 G10V97 G10V93 G10V97 G6V84 C+1 E0V2 G10V99 G10V94 F0V1 D8V5 A7V128 C0V128 E0V12 G10V99 C0V128 D8V1 G+0V1 G10V94 G10V99 E0V7 C0V128 C0V128 D8V1 G10V99 G10V94 G10V99 r G10V99 G10V94 D+0V1 D8V5 A7V128 C0V128 E0V10 G10V99 G10V94 G10V106 C0V128 D8V5 A7V1 A8V1 G10V106 G10V102 G10V99 C0V128 A8V1 E0V1 G10V102 B6V216 rV94 C+0V1 C8V5 A7V128 C0V128 E0V8 G10V97 G10V94 B0V1 C8V1 G10V97 C0V128 C0V128 F8V128 C8V1 F+0V1 G10V94 G10V104 C0V128 C8V5 A7V1 G8V80 rV17 G8V5 C0V128 E0V5 G10V104 G10V102 G+0V1 G8V5 F8V128 C0V128 A7V1 G10V94 G10V104 E0V8 C0V128 A7V128 G8V5 F8V128 E0V11 G10V94 A0V1 D8V5 G6V84 F1 F8V128 D8V1 G10V99 E0V5 C0V128 F8V1 G10V102 C0V128 C0V128 A8V1 G10V106 C0V128 C0V128 A7V1 G10V94 G10V106 C0V128 D8V1 C0V1 rV65 B0 A0 G+15V255 r E5V78 rV5 F0V4 B0V4 rV8 D+0V4 E0V15 D+0V1 D+0 F+0V5 F0V4 B0V4 rV8 D+0V4 E0V15 D+0V1 D+0 F+0V5 F0V4 B0V4 rV8 D+0V4 E0V15 D+0V1 D+0 F+0V5 F0V4 B0V4 rV8 D+0V4 E0V15 D+0V1 D+0 F+0V80 rV2 C0V1 D+0V133 A+12 G+0V4 D1V12 C0V180 rV10 D+0 D+0V4 B0V9 A+12 G+0V4 D1V12 C0V180 rV10 D+0 D+0V4 B0V9 A+12 G+0V4 D1V12 C0V180 rV10 D+0 D+0V4 B0V9 A+12 G+0V4 B6V145 rV167 D+0V131]
  [G+7V128 C0V128 E0V5 G10V97 G10V93 G+0V1 C8V5 G+7V128 C0V128 G+7V1 r C0V1 D8V5 A7V128 C0V128 E0V7 G10V99 G10V94 A+0V1 D8V5 A7V1 G10V94 C0V128 C0V128 C0V128 A7V1 D8V1 F0V1 G10V94 C0V128 A7V128 D8V5 E5V78 rV5 F8V128 C0V128 E0V5 G10V106 G10V102 G+0V1 A8V5 F8V128 C0V128 A7V1 G10V94 G10V106 E0V8 C0V128 A7V128 A8V5 F8V1 G10V102 C0V128 C0V128 C0V255 rV11 C0V128 E0V3 G10V104 G10V102 F+0V1 G8V5 F8V128 C0V128 E0V10 C0V128 F8V1 G10V102 G10V97 G10V94 C0V128 C0V128 C0V128 A7V1 G10V94 G10V104 E0V4 F6 E0V1 A+10V94 D+0V1 C8V5 A7V128 C0V128 E0V10 G10V97 G10V94 G10V104 C0V128 C8V5 A7V1 G8V1 G10V104 G10V102 G10V99 G10V94 F8V128 C0V128 E0V9 G10V106 r G10V99 G10V94 C0V128 F8V1 D8V1 G10V99 C0V128 A8V1 D+0V1 G10V102 C0V128 A7V1 G10V94 G10V106 C0V128 D8V5 A7V1 G10V94 C0V128 C0V128 F+0 rV65 B0 E5V78 rV254 r D+0V4 C0V131 D+0 F+0V5 F0V4 D+0V4 B0V4 rV8 D+0V4 C0V131 D+0 F+0V5 F0V4 D+0V4 B0V4 rV8 D+0V4 C0V131 D+0 F+0V5 F0V4 D+0V4 B0V4 rV8 D+0V4 C0V131 D+0 F+0V5 F0V4 D+0V4 B0V4 rV8 F6V1 E0V15 C+1V4 C+11V10 rV10 D+0 D+0V4 A+12 G+0V4 D1V12 C0V155 D+0V4 rV10 D+0 D+0V4 A+12 G+0V4 D1V12 C0V155 D+0V4 rV10 D+0 D+0V4 A+12 G+0V4 D1V12 C0V155 D+0V4 rV10 D+0V255 rV13 E11V153 A+10V12]

$$ALL
  [A+12V4 D+0V5 F0V4 D+0V4 D1V12 C0V155 D+0V4 G+0V6 D+0V4 E0V15 D+0V1 D+0V4 B0V9 A+12V4 D+0V5 F0V4 D+0V4 D1V12 C0V155 D+0V4 G+0V6 D+0V4 E0V15 D+0V1 D+0V4 B0V9 A+12V4 D+0V5 F0V4 D+0V4 D1V12 C0V155 D+0V4 G+0V6 D+0V4 E0V15 D+0V1 D+0V4 F6V1 E0V15 D+0V1 D+0V4 B0V9 A+12V4 D+0V5 F0V4 D+0V4 D1V12 C0V155 D+0V4 G+0V6 D+0V4 E0V15 D+0V1 D+0V4 B0V9 A+12V4 D+0V5 F0V4 D+0V4 D1V12 C0V155 D+0V4 G+0V6 D+0V4 E0V15 D+0V1 D+0V4 B0V9 A+12V4 D+0V5 F0V4 D+0V4 D1V12 C0V155 D+0V4 G+0V6 D+0V4 E0V15 D+0V1 D+0V4 F6V1 E0V15 F+12V150 C+12V145 G+11V140 C0V1 C0V1 C0V5 C+12V145 G+11V140 C0V1 C0V1 C0V5 C+12V145 G+11V140 C0V1 C0V1 C0V5 C+12V145 G+11V140 C0V1 C0V1 C0V5 C+12V145 G+11V140 C0V1 C0V1 C0V5 C+12V145 G+11V140 C0V1 C0V1 C0V5 C+12V145 G+11V140 C0V1 C0V1 C0V5 C+12V145 B6V101 rV155 D+0V4 G+0V4 rV10 D+0 D+0V4 D+0 G0V4 D+0V4 B0V4 rV8 D+0V4 E0V12 D+0 A+12V4 D+0V5 A0V5 F0V4 D+0V4 D1V12 C0V155 rV9 E0V15 D+0V1 D+0 F+0V5 F0V4 A+0V4 rV7 G+0V6 rV11 D+0 B0V9 A+12 A+12V4 D+0V255 rV13 E11V153 rV155 rV9 E0V15 D+0V1 D+0 F+0V5 F0V4 A+0V4 rV7 G+0V6 rV11 D+0 B0V9 A+12 A+12V4 D+0V5 F0V4 D+0V4 B0V4 rV8 D+0V4 E0V12 D+0 A+12V4 D+0V5 A0V4 rV155 D+0V4 rV10 D+0 D+0V4 D+0 B0V9]
  [G+0V6 D+0V4 E0V15 D+0V1 D+0V4 B0V9 A+12V4 D+0V5 F0V4 D+0V4 D1V12 C0V155 D+0V4 G+0V6 D+0V4 E0V15 D+0V1 D+0V4 B0V9 A+12V4 D+0V5 F0V4 D+0V4 D1V12 C0V155 D+0V4 G+0V6 D+0V4 E0V15 D+0V1 D+0V4 B0V9 A+12V4 D+0V5 F0V4 D+0V4 D1V12 C0V80 rV4 D+0V4 D1V12 C0V155 D+0V4 G+0V6 D+0V4 E0V15 D+0V1 D+0V4 B0V9 A+12V4 D+0V5 F0V4 D+0V4 D1V12 C0V155 D+0V4 G+0V6 D+0V4 E0V15 D+0V1 D+0V4 B0V9 A+12V4 D+0V5 F0V4 D+0V4 D1V12 C0V155 D+0V4 G+0V6 D+0V4 E0V15 D+0V1 D+0V4 B0V9 A+12V4 D+0V5 F0V4 D+0V4 D1V12 C0V80 rV5 C0V1 C0V1 C0V1 C0V5 C+11V133 G+12V152 C0V1 C0V1 C0V5 C+11V133 G+12V152 C0V1 C0V1 C0V5 C+11V133 G+12V152 C0V1 C0V1 C0V5 C+11V133 G+12V152 C0V1 C0V1 C0V5 C+11V133 G+12V152 C0V1 C0V1 C0V5 C+11V133 G+12V152 C0V1 C0V1 C0V5 C+11V133 G+12V152 C0V1 C0V255 rV13 B0V9 A+12V4 A+12 G+0V4 D1V12 C0V155 rV9 E0V15 D+0V1 D+0 F+0V5 F0V4 A+0V4 rV7 G+0V6 rV11 D+0V4 E0V15 D+0V1 D+0V4 D+0 G0V4 D+0V4 B0V4 rV8 D+0V4 E0V12 D+0 A+12V4 D+0V5 A0V4 rV155 D+0V4 rV10 G+0V6 B6V93 rV167 D+0V131 D+0 G0V4 D+0V4 B0V4 rV8 D+0V4 E0V12 D+0 A+12V4 D+0V5 A0V4 rV155 D+0V4 rV10 G+0V6 D+0V4 E0V15 D+0V1 D+0 F+0V5 F0V4 A+0V4 rV7 G+0V6 rV11 D+0 B0V9 A+12 G+0V4 D1V12 C0V155 rV155 D+0V4]
