
$OPN,

!ALL

@T988.00

$$ALL
  [r D+5 D+5 D+5 D+5 D+5 D+5 D+5 r r r r r r r r r r r r r r r r r r r r r r r r r r r r r r r rV83 C+9V105 G2V113 F9V32 A9V115 rV67 C+0 rV1 r rV1 rV93 rV9 E10 G+0 rV173 rV9 C17 G+0 rV253 rV10 E2 A0 rV77 rV10 C9 A0 rV157 rV10 G+15 A0 rV237 rV10 C1 A+0 rV61 rV11 G+7 A+0 rV141 rV11 E14 A+0 rV221 rV11 C21 B0 rV45 rV12 E6 B0 rV125 rV12 C13 B0 rV205 rV12 G+19 B0 rV29 rV13 C5 C1 rV109 rV13 G+11 C1 rV189 rV13 E18 C1 rV13 rV16 F8 G1 rV183 rV26 G3 F+2 rV225 rV40 B5 A3 rV107 rV54 C+18 A+4 rV177 rV67 E12 A+5 rV120 r r r r r r r r r r r r r r r r r r r D+0 r rV7 r r r r C1V14 G+0 r r r A0V11 G0 r r r rV13 F+0V9 r r r rV10 C+1V9 r r r rV15 C+1V17 r rV14 r E0 r r r r r r r r r r r r r r r r r r D+0 r rV7 r r r r C1V14 G+0 r r r A0V11 G0 r r r rV13 F+0V9 r r r rV10 C+1V9 r r r rV15 C+1V17 r rV14 r E0 r r r r r r r r r r r r r r r r r r D+0 r rV7 r r]

$$ALL
  [r r C1V14 G+0 r r r A0V11 G0 r r r rV13 F+0V9 r r r rV10 C+1V9 r r r rV15 C+1V17 r rV14 r E0 r r r r r r r r r r r r r r r r r r D+0 r rV7 r r r r C1V14 G+0 r r r A0V11 G0 r r r rV13 F+0V9 r r r rV10 C+1V9 r r r rV15 C+1V17 r rV14 r E0V1 C+0V2 D+0V2 D0V5 E0V8 G0V3 C+0V2 E0V6 F+0V2 D0V9 G+0V8 G+0V3 C+0V5 E0V7 G0V2 D0V9 C+0V4 F0V3 C+0V10 C1V12 B0V2 C+0V14 C+0V5 E0V7 G0V2 D0V9 G+1V22 E1V7 F+0V2 D0V9 G+0V8 F1V19 D1V2 D0V5 E0V8 G0V3 C+0V21 C+1V17 E0V7 F+0V3 C+0V9 G+0V18 D0V13 C1V23 A+1V3 C+0V9 G+0V23 D0V20 G1V24 B1V3 C+0V10 C2V1 C+0 D0 r r r D5 rV1 C0 rV1 r C0 r r G+5 r G10 r B3 r rV2 r D+0 r rV7 r G+0 r rV12 r C+1 r D+17V1 r D0V208 rV255 D+17V6 r G0V208 rV255 D+17V11 r C1V208 rV255 D+17 r C+0V224 rV255 G18V5 r F+0V224 rV255 G18V10 r B0V224 rV255 G18V15 r r C0V6 F0V6 F0V6 F0 rV50 rV9 E5V73 r rV65 A6 C0 rV65 A6 r E5V78 r rV254 G6V84 r C0 rV65 G0 r rV80 F6 rV3 rV255 B6V8 r rV254 E5V78 r rV254 G6V84 r F0 rV65 G0 r rV80 F6 rV8 rV255 B6V8 r rV254 E5V78 r rV254 G6V84 r A+0 rV65 G0 r rV80 F6 rV13 rV255 B6V8 r rV254 E5V78 r rV254 G6V84 r D+1]

$$ALL
  [rV65 G0 r rV80 F6 rV18 rV255 B6V8 rV1 rV254 E5V78 r rV254 G6V84 r C+0 rV65 G0 C0 rV80 F6 rV4 rV255 B6V8 rV1 rV254 E5V78 r rV254 G6V84 r F+0 rV65 G0 C0 rV80 F6 rV9 rV255 B6V8 rV1 rV254 E5V78 r rV254 G6V84 r B0 rV65 G0 C0 rV80 F6 rV14 rV255 B6V8 rV1 rV254 E5V78 r rV254 G6V84 r E1 rV65 G0 C0 rV80 F6 r rV255 B6V8 rV2 rV254 E5V78 r rV254 G6V84 r D0 rV65 G0 C+0 rV80 F6 rV5 rV255 B6V8 rV2 rV254 E5V78 r rV254 G6V84 r G0 rV65 G0 C+0 rV80 F6 rV10 rV255 B6V8 rV2 rV254 E5V78 r rV254 G6V84 r C1 rV65 G0 C+0 rV80 F6 rV15 rV255 B6V8 rV2 rV254 E5V78 r rV254 G6V84 r F1 rV65 G0 D0 rV80 F6 rV1 rV255 B6V8 rV3 rV254 E5V78 r rV254 G6V84 r D+0 rV65 G0 D0 rV80 F6 rV6 rV255 B6V8 rV3 rV254 E5V78 r rV254 G6V84 r G+0 rV65 G0 D0 rV80 F6 rV11 rV255 B6V8 rV3 rV254 E5V78 r rV254 G6V84 r C+1 rV65 G0 D0 rV80 F6 rV16 rV255 B6V8 rV3 rV254 E5V78 r rV254 G6V84 C+0 r E1V15 E1V17 E1V17 E1V24 G0V56 E0V127 B1V5 B1V5 B1V5 B1V5 B1V5 B1V5 B1V5 G4V17 D5V17 E0V17 E0V17 E0V17 E0V17 E0V17 E0V17 E0V17 E0V17 E0V17 E0V17 E0V17 E1V15 E1V17 E1V17 E1V17 E1V17 E1V17 E1V17 E1V17 E1V17 E1V17 E1V17 E1V17 E1V15 D1V8 E1V8 E1V8 E1V8 D1V5 G0V24 G0V24 G0V24 G0V24 G0V24 G0V24 G0V24 G0V24 G0V24 G0V24 G0V24 G0V24 G0V24 G0V24 G0V24 G0V24 G0V24 G0V24 G0V24 G0V24]

$$ALL
  [G0V24 G0V24 G0V24 G0V56 E0V7 B1V5 B1V5 B1V5 B1V5 B1V5 B1V5 B1V5 B1V5 B1V5 B1V5 B1V5 B1V5 B1V5 B1V5 B1V5 B1V5 B1V5 B1V5 B1V5 B1V5 B1V5 B1V5 B1V5 G4V17 D0V17 E0V17 E0V17 E0V17 E0V17 E0V17 E0V17 E0V17 E0V17 E0V17 E0V17 E0V17 E0V17 E0V17 E0V17 E0V17 E0V17 E0V17 E0V17 E0V17 E0V17 E0V17 E0V17 E0V17 E1V15 E1V17 E1V17 E1V17 E1V17 E1V17 E1V17 E1V17 E1V17 E1V17 E1V17 E1V17 E1V17 E1V17 E1V17 E1V17 E1V80 F6 rV1 G4V17 D+18V17 E0V17 E1 B1V5 E1V24 G10V17 E1V128 G10V17 G0V128 E0V8 B1V5 E1V24 A10V17 E1V131 A+10V17 G0V131 D+0V8 B1V3 E1V24 C11V17 B0V127 B0V1 C1V8 B1V3 E1V24 C+11V17 E1V135 C+11V17 G0V135 C0V8 B1V1 E1V80 F6V2 rV2 G4V17 rV17 E0V17 E0V17 E0V17 E0V17 E1V17 E0V17 E1V17 E1V195 E1V8 E1V17 E1V8 E1V17 E1V8 E1V17 E1V8 E1V15 D16V24 G0V8 E1V24 G0V8 E1V24 G0V8 E1V24 G0V8 D1V3 B1V3 D0V17 E1V24 B1 D0V17 E1V24 B1 rV17 E1V24 B1V3 D0V17 E1V24 B1V3 rV17 E1V24 B1V3 D0V17 E1V24 B1V3 D0V17 E1V24 B1 rV17 E1V24 B1 D0V17 E1V24 B1 rV17 E1V24 B1 rV17 E1V24 B1 D0V17 E1V24 B1 rV17 E1V24 B1 D0V17 E1V24 B1 rV17 E1V24 B1 rV17 F+0V3 E1V24 B1V3 rV17 E1V24 B1 rV17 E1V24 B1 rV17 E1V24 B1 rV17 E1V24 B1V3 rV17 E1V24 B1 rV17 E1V24 B1V3 D0V17 E1V24 B1V3 rV17 E1V24 B1 D0V17 E1V24 B1 D0V17 E1V24 B1V3 rV17 E1V24 B1 D0V17 E1V24 B1 rV17 E1V24 B1V3 D0V17 E1V24 B1 D0V17 E1V24 B1V3 D0V17 E1V24 B1V3 rV17 E1V24 B1 rV17 E1V24 B1 D0V17 E1V24 B1V3 D0V17 E1V24 B1V3 rV17 E1V24 B1V3 D0V17 E1V24 B1 D0V17 E1V24 B1 rV17 E1V24 B1]

$$ALL
  [D0V17 E1V24 B1V3 E5V78 r rV56 E0V220 B1V5 rV17 G0V24 rV17 E1V128 rV17 G0V128 E0V8 B1V5 E1V24 A10V17 E1V130 A10V17 G0V131 D+0V8 B1V4 E1V24 C11V17 E1V133 B10V17 D+0V132 C11V17 G0V133 C+0V8 B1V2 E1V24 D11V17 E1V136 D11V17 G0V255 B6V156 rV4 rV15 C+16V24 G0V24 G0V24 B1V5 E0V17 E1V17 B1V5 G0V24 B1V5 B1V5 B1V5 E0V17 E1V8 E1V17 E0V17 B1V5 E0V17 E0V17 E0V17 E1V24 G0V8 E1V17 E1V17 E0V17 E1V17 E1V17 E1V24 B1V5 G0V8 E1V8 E1V17 E1V8 E1V8 E1V24 B1V5 E0V17 G0V24 G0V8 E1V24 G0V24 G0V24 B1V5 E0V17 E1V17 B1V5 G0V24 B1V5 B1V5 B1V5 E0V17 E1V8 E1V17 E0V17 B1V5 E0V17 E0V17 E0V17 E1V24 G0V8 E1V17 E1V17 E1V13 E1 B1V5 B1V5 E0V17 E1V8 E1V17 E0V17 B1V5 E0V17 E1V24 B1V2 C+0V17 E1V24 B1V7 C+0V17 B1V5 F+0V17 E1V24 B1V2 E0V17 E1V24 B1V5 E0V17 E1V24 B1V2 C+0V17 E1V24 B1V7 C+0V17 E1V17 E1V24 B1V5 C+0V17 E0V17 E1V24 B1V2 E0V17 E1V24 G0V24 B1V5 F+0V17 E1V24 B1V2 C+0V17 E1V24 B1V5 E0V17 C+0V17 E1V24 B1V2 C+0V17 E1V24 G0V8 E1V24 B1V7 E0V17 C+0V17 E1V24 B1V5 E0V17 E1V24 B1V2 E0V17 E1V24 B1V5 E0V17 E1V8 E1V24 B1V7 E1V13 E5V78 r rV40 D16V8 E1V17 E1V24 B1V3 C0V17 E1V24 B1V1 C0V17 E1V24 B1V3 C0V17 E1V24 B1V1 D0V17 E1V24 G0V8 E1V24 B1V5 C0V17 E1V24 B1V3 C0V17 E1V24 B1V5 C0V17 E1V24 B1V3 D0V17 E1V24 B1V1 B1V1 E0V17 E1V24 G0V24 B1V3 D0V17 E1V24 B1V5 D0V17 E1V17 E1V24 B1V3 D0V17 E1V24 B1V1 D0V17 E1V24 G0V24 B1V3 D0V17 E1V24 B1V5 D0V17 E1V17 D0V17 E1V24 G0V24 B1V1 D0V17 E1V24 B1V3 C0V17 E1V24 B1V3 D0V17 E1V24 B1V3 C0V17 C0V17 E1V24 D+3V17 E1V17 C+0V17 E1V24 B1V2 E0V17 E1V24 B1V2 E0V17 E1V24 B1V2]

$$ALL
  [E0V17 E1V24 B1V5 F+0V17 E1V8 E1V17 E1V24 B1V2 C+0V17 E1V24 B1V2 C+0V17 E1V24 B1V2 C+0V17 E1V24 B1V5 E0V17 E1V24 G0V24 B1V7 F+0V17 E1V8 E1V24 B1V5 C+0V17 E1V24 B1V5 C+0V17 C+0V17 E1V24 B1V5 C+0V17 E1V24 B1V5 F+0V17 E1V8 E1V24 B1V5 E0V17 E1V24 B1V5 E0V17 B1V5 F+0V17 E1V8 E1V24 B1V5 E0V17 E1V24 B1V2 C+0V17 E1V24 B1V5 C+0V17 E1V24 B1V2 B1V2 F+0V17 F+0V7 G6V84 C+0 F0 E1V195 E1V8 E1V8 E1V24 B1V5 E0V17 G0V24 G0V8 E1V24 G0V24 G0V24 B1V5 E0V17 E1V17 B1V5 G0V24 B1V5 B1V5 B1V5 E0V17 E1V8 E1V17 E0V17 B1V5 E0V17 E0V17 E0V17 E1V24 G0V8 E1V17 E1V17 E0V17 E1V17 E1V17 E1V24 B1V5 G0V8 E1V8 E1V17 E1V8 E1V8 E1V24 B1V5 E0V17 G0V24 G0V8 E1V24 G0V24 G0V24 B1V5 E0V17 E1V17 B1V5 G0V24 B1V5 B1V5 B1V5 E0V17 E1V8 E1V17 E0V17 G4V17 G4V17 G0V24 G0V24 B1V5 E0V17 E1V17 B1V5 G0V24 B1V5 E0V17 E1V24 B1V2 C+0V17 E1V24 B1V2 G0V24 B1V7 F+0V17 E1V24 B1V5 E0V17 E1V24 B1V5 F+0V17 E1V24 B1V2 E0V17 E1V24 B1V2 C+0V17 C+0V17 E1V24 B1V2 B1V5 E0V17 E1V24 B1V5 F+0V17 E1V8 E1V24 B1V7 E0V17 E1V24 B1V2 C+0V17 E1V24 B1V5 B1V2 E0V17 E1V24 B1V2 F+0V17 E1V8 E1V17 E1V24 B1V5 B1V2 C+0V17 E1V24 B1V5 E0V17 E1V24 B1V5 E0V17 E1V24 B1V5 E0V17 E1V17 E1V24 G4V17 rV65 A+16 D+0 C1V195 E1V17 C0V17 E1V24 B1V1 C+0V17 E1V24 B1V1 C+0V17 E1V24 B1V1 C+0V17 E1V24 B1V2 D0V17 E1V8 E1V17 E1V24 B1V1 C0V17 E1V24 B1V1 C0V17 E1V24 B1V1 C0V17 E1V24 B1V2 C+0V17 E1V24 G0V24 B1V3 D0V17 E1V8 E1V24 B1V2 C0V17 E1V24 B1V2 C0V17 C0V17 E1V24 B1V2 C0V17 E1V24 B1V2 D0V17 E1V8 E1V24 B1V2 C+0V17 E1V24 B1V2 C+0V17 B1V2 D0V17 E1V8 E1V24]

$$ALL
  [B1V2 C+0V17 E1V24 B1V1 C0V17 E1V24 B1V2 C0V17 E1V24 B1V1 B1V1 D0V17 F+0V3 E0 G0V24 B1V5 F+0V17 E1V24 B1V2 E0V17 E1V24 B1V5 E0V17 E1V24 B1V2 C+0V17 E1V24 B1V7 C+0V17 B1V5 F+0V17 E1V24 B1V2 E0V17 E1V24 B1V5 E0V17 E1V24 B1V2 C+0V17 E1V24 B1V7 C+0V17 E1V17 E1V24 B1V5 C+0V17 E0V17 E1V24 B1V2 E0V17 E1V24 G0V24 B1V5 F+0V17 E1V24 B1V2 C+0V17 E1V24 B1V5 E0V17 C+0V17 E1V24 B1V2 C+0V17 E1V24 G0V8 E1V24 B1V7 E0V17 C+0V17 E1V24 B1V5 E0V17 E1V24 B1V2 E0V17 E1V24 B1V5 E0V17 E1V8 E1V24 B1V7 E1V13 E5V78 r rV40 D16V8 E1V17 C+0V17 E1V24 B1V1 C0V17 E1V24 B1V1 C+0V17 E1V24 B1V3 C0V17 E1V24 B1V2 C+0V17 E1V24 B1V2 C0V17 E1V17 E1V24 B1V3 C+0V17 B1V1 C+0V17 E1V24 B1V1 C0V17 E1V24 B1V1 C0V17 E1V24 B1V3 C0V17 E1V17 E1V24 B1V2 C+0V17 E1V24 B1V1 C0V17 E1V24 B1V2 C+0V17 C0V17 E1V24 B1V2 C0V17 E1V24 B1V2 C+0V17 C0V17 E1V24 B1V3 C0V17 B1V1 D0V17 E1V24 B1V1 C0V17 E1V24 B1V2 C+0V17 E1V24 B1V1 C0V17 E1V24 B1V2 C0V17 E1V24 B1V2 E1V13 E1V24 B1V2 D0V17 E1V8 E1V17 E1V24 B1V5 C+0V17 E1V24 B1V5 C+0V17 E1V24 B1V5 F+0V17 E1V24 B1V2 E0V17 E1V24 B1V5 E0V17 E1V8 E1V24 B1V7 F+0V17 E1V17 C+0V17 E1V24 B1V2 C+0V17 E1V24 B1V5 C+0V17 E1V24 B1V7 F+0V17 E1V8 E1V24 B1V7 E0V17 E1V24 B1V2 C+0V17 E1V24 B1V7 E0V17 E1V17 E1V24 B1V7 E0V17 E1V24 B1V5 E0V17 E1V17 E1V24 B1V7 F+0V17 E1V17 C+0V17 E1V24 B1V5 C+0V17 E1V24 B1V2 E0V17 E1V24 B1V5 C+0V17 E1V24 B1V5 E0V17 F+0V5 E1V24 B1V5 C+0V17 C+0V17 E1V24 B1V7 E5V78 r rV40 D16V8 E1V17 D0V17 E1V24 B1V1 C0V17 E1V24 B1V1 D0V17 E1V24 B1V5 C0V17 E1V24 B1V3 D0V17 E1V24 B1V3 C0V17]

$$ALL
  [E1V17 E1V24 B1V5 D0V17 B1V1 D0V17 E1V24 B1V1 C0V17 E1V24 B1V1 C0V17 E1V24 B1V5 C0V17 E1V17 E1V24 B1V3 D0V17 E1V24 B1V1 C0V17 E1V24 B1V3 D0V17 C0V17 E1V24 B1V3 C0V17 E1V24 B1V3 D0V17 C0V17 E1V24 B1V5 C0V17 B1V1 E0V17 E1V24 B1V1 C0V17 E1V24 B1V3 D0V17 E1V24 B1V1 C0V17 E1V24 B1V3 C0V17 E1V24 B1V3 C0V17 C0V17 E1V24 B1V7 G0V24 B1V7 F+0V17 E1V24 B1V2 E0V17 E1V24 B1V2 E0V17 E1V24 B1V2 C+0V17 E1V24 B1V5 E0V17 E1V24 B1V2 B1V5 E0V17 E1V24 G0V8 E1V24 B1V7 F+0V17 E1V24 B1V5 E0V17 E1V24 B1V2 E0V17 E1V24 B1V2 B1V2 E0V17 E1V24 B1V5 C+0V17 E1V24 B1V5 E0V17 E1V24 G0V24 B1V2 E0V17 E1V24 B1V2 E0V17 E1V24 G0V24 B1V2 F+0V17 E1V24 G0V8 E1V24 B1V7 E0V17 E1V24 B1V2 E0V17 E1V24 B1V5 E0V17 E1V24 B1V2 E0V17 E1V24 B1V5 E0V17 E1V24 G0V24 B1V5 F+0V17 F+0V7 G6V84 C+0 A0 E1V195 E1V24 B1V1 G0V24 B1V5 E0V17 E1V24 B1V3 D0V17 E1V24 B1V3 E0V17 E1V24 B1V1 D0V17 E1V24 B1V1 C0V17 C0V17 E1V24 B1V1 B1V3 D0V17 E1V24 B1V3 E0V17 E1V8 E1V24 B1V5 D0V17 E1V24 B1V1 C0V17 E1V24 B1V3 B1V1 D0V17 E1V24 B1V1 E0V17 E1V8 E1V17 E1V24 B1V3 B1V1 C0V17 E1V24 B1V3 D0V17 E1V24 B1V3 D0V17 E1V24 B1V3 D0V17 E1V17 E1V24 B1V5 E1V8 E1V17 E1V24 B1V5 C+0V17 E1V24 B1V2 C+0V17 E1V24 B1V5 C+0V17 E1V24 B1V2 E0V17 E1V24 G0V8 E1V24 B1V7 C+0V17 E1V24 B1V5 C+0V17 E1V24 B1V7 C+0V17 E1V24 B1V5 E0V17 E1V24 B1V2 B1V2 F+0V17 E1V24 G0V24 B1V5 E0V17 E1V24 B1V7 E0V17 E1V17 E1V24 B1V5 E0V17 E1V24 B1V2 E0V17 E1V24 G0V24 B1V5 E0V17 E1V24 B1V7 E0V17 E1V17 E0V17 E1V24 G0V24 B1V2 E0V17 E1V24 B1V5 C+0V17 E1V24 B1V5 E0V17 E1V24]

$$ALL
  [B1V5 C+0V17 C+0V17 E1V56 F+0V255 B6V205 rV4 rV13 D+9V17 B1V1 C+0V17 E1V24 B1V2 C0V17 E1V24 B1V2 C+0V17 E1V24 B1V2 C0V17 E1V24 B1V3 D0V17 E1V17 C+0V17 E1V24 B1V1 C0V17 E1V24 B1V1 C+0V17 E1V24 B1V1 C0V17 E1V24 B1V2 D0V17 E1V8 E1V24 B1V3 C+0V17 E1V17 E1V24 B1V1 C0V17 E1V24 B1V1 B1V1 C+0V17 E1V24 B1V1 C0V17 E1V24 B1V3 C+0V17 E1V17 E1V24 B1V2 C0V17 E1V24 B1V2 G0V24 B1V3 D0V17 E1V17 E1V24 B1V2 C+0V17 E1V24 B1V1 C0V17 E1V24 B1V1 C+0V17 E1V24 G0V24 B1V3 D0V7 C1V5 G0V8 E1V24 B1V7 E0V17 E1V24 B1V5 C+0V17 E1V24 B1V5 E0V17 E1V24 B1V2 C+0V17 E1V24 B1V2 G0V24 B1V7 F+0V17 E1V24 B1V5 E0V17 E1V24 B1V5 F+0V17 E1V24 B1V2 E0V17 E1V24 B1V2 C+0V17 C+0V17 E1V24 B1V2 B1V5 E0V17 E1V24 B1V5 F+0V17 E1V8 E1V24 B1V7 E0V17 E1V24 B1V2 C+0V17 E1V24 B1V5 B1V2 E0V17 E1V24 B1V2 F+0V17 E1V8 E1V17 E1V24 B1V5 G4V17 B1V2 E0V17 E1V24 B1V5 C+0V17 E1V24 B1V5 E0V17 E1V24 B1V5 C+0V17 C+0V17 E1V56 F+0V255 B6V237 rV4 rV13 D+9V17 G0V24 B1V3 D0V17 E1V24 B1V1 C+0V17 E1V24 B1V1 C+0V17 E1V24 B1V1 C0V17 E1V24 B1V2 C+0V17 E1V24 B1V1 B1V2 C+0V17 E1V24 G0V8 E1V24 B1V3 D0V17 E1V24 B1V2 C+0V17 E1V24 B1V1 C+0V17 E1V24 B1V1 B1V1 C+0V17 E1V24 B1V2 C0V17 E1V24 B1V2 C+0V17 E1V24 G0V24 B1V1 C+0V17 E1V24 B1V1 C+0V17 E1V24 G0V24 B1V1 D0V17 E1V24 G0V8 E1V24 B1V3 C+0V17 E1V24 B1V1 C+0V17 E1V24 B1V2 C+0V17 E1V24 B1V1 C+0V17 E1V24 B1V2 C+0V17 E1V56 C0V40 rV17 E1V24 B1V3 F+0V17 B1V5 F+0V17 E1V24 B1V2 C+0V17 E1V24 B1V5 C+0V17 E1V24 B1V2 C+0V17 E1V24 B1V5 E0V17 E1V24 B1V2 C+0V17 E0V17 E1V24 B1V5 G0V24 B1V5 F+0V17 E1V24 B1V2 E0V17 E1V24 B1V2]

$$ALL
  [C+0V17 E1V24 B1V2 C+0V17 C+0V17 E1V24 B1V5 E0V17 E1V24 B1V2 E0V17 E1V24 B1V5 B1V2 C+0V17 E1V24 B1V2 C+0V17 E1V24 B1V5 B1V2 C+0V17 E1V24 B1V2 G0V56 C+0V24 B1V7 E0V17 E1V24 B1V2 E0V17 E1V24 B1V5 E0V17 E1V24 B1V2 E0V17 E1V24 G4V17 B1V5 E0V17 E1V8 E1V24 B1V7 F+0V17 G6V84 C+0 C1 E1V195 E1V24 B1V5 D0V17 B1V1 D0V17 E1V24 B1V1 C0V17 E1V24 B1V1 C0V17 E1V24 B1V5 C0V17 E1V17 E1V24 B1V3 D0V17 E1V24 B1V1 C0V17 E1V24 B1V3 D0V17 C0V17 E1V24 B1V3 C0V17 E1V24 B1V3 D0V17 C0V17 E1V24 B1V5 C0V17 B1V1 E0V17 E1V24 B1V1 C0V17 E1V24 B1V3 D0V17 E1V24 B1V1 C0V17 E1V24 B1V3 C0V17 E1V24 B1V3 C0V17 C0V17 E1V24 B1V7 G0V24 B1V7 F+0V17 E1V24 B1V2 E0V17 E1V24 B1V2 E0V17 E1V24 B1V2 C+0V17 E1V24 B1V5 E0V17 E1V24 B1V2 B1V5 E0V17 E1V24 G0V8 E1V24 B1V7 F+0V17 E1V24 B1V5 E0V17 E1V24 B1V2 E0V17 E1V24 B1V2 B1V2 E0V17 E1V24 B1V5 C+0V17 E1V24 B1V5 E0V17 E1V24 G0V24 B1V2 E0V17 E1V24 B1V2 E0V17 E1V24 G0V24 B1V2 F+0V17 E1V24 G0V8 E1V24 B1V7 E0V17 E1V24 B1V2 E0V17 E1V24 B1V5 E0V17 E1V24 B1V2 E0V17 E1V24 B1V5 E0V17 E1V24 G0V24 B1V5 F+0V17 F+0V7 G6V84 C+0 C+1 E1V193 E1V17 E1V17 E1V17 E1V17 E1V17 E1V17 E1V17 E1V17 E1V17 E1V17 E1V17 E1V17 E1V17 E1V17 E1V17 E1V15 C+16V8 E1V8 E1V8 E1V8 E1V8 E1V8 E1V8 E1V8 E1V8 E1V8 E1V8 E1V8 E1V8 E1V8 E1V8 E1V8 E1V8 E1V8 E1V8 E1V8 E1V8 E1V8 E1V8 E1V8 E1V8 E1V8 E1V8 E1V8 E1V8 E1V8 E1V8 E1V8 E1V8 E1V8 E1V8 E1V8 E1V8 E1V8 E1V8 E1V8 E1V8 E1V8 E1V8 E1V8 F+0V3 E0 D0V17 D0V17 D0V17 D0V17 D0V17 D0V17 D0V17 D0V17 D0V17 D0V17 D0V17 D0V17 D0V17]

$$ALL
  [D0V17 D0V17 D0V17 D0V17 D0V17 D0V17 D0V17 D0V17 D0V17 D0V17 D0V17 D0V17 D0V17 D0V17 D0V17 D0V17 D0V17 D0V17 D0V17 D0V17 D0V17 D0V17 D0V17 D0V17 D0V17 D0V17 D0V17 D0V17 D0V17 D0V17 D0V17 D0V17 D0V17 D0V17 D0V17 D0V17 D0V17 D0V17 D0V17 D0V17 D0V17 D0V17 D0V17 D0V17 D0V17 D0V17 D0V5 B1V3 B1V3 B1V3 B1V3 B1V3 B1V3 B1V3 rV65 A+16 D+0 C1V195 E1V17 C0V17 E1V24 B1V1 D+0V17 E1V24 B1V1 D+0V17 E1V24 B1V1 D+0V17 E1V24 B1V4 F+0V17 E1V8 E1V17 E1V24 B1V1 C0V17 E1V24 B1V1 C0V17 E1V24 B1V1 C0V17 E1V24 B1V4 D+0V17 E1V24 G0V24 B1V7 F+0V17 E1V8 E1V24 B1V4 C0V17 E1V24 B1V4 C0V17 C0V17 E1V24 B1V4 C0V17 E1V24 B1V4 F+0V17 E1V8 E1V24 B1V4 D+0V17 E1V24 B1V4 D+0V17 B1V4 F+0V17 E1V8 E1V24 B1V4 D+0V17 E1V24 B1V1 C0V17 E1V24 B1V4 C0V17 E1V24 B1V1 B1V1 F+0V17 F+0V7 E0 G0V24 B1V7 A0V17 E1V24 B1V3 F+0V17 E1V24 B1V7 F+0V17 E1V24 B1V3 D0V17 E1V24 B1V10 D0V17 B1V7 A0V17 E1V24 B1V3 F+0V17 E1V24 B1V7 F+0V17 E1V24 B1V3 D0V17 E1V24 B1V10 D0V17 E1V17 E1V24 B1V7 D0V17 F+0V17 E1V24 B1V3 F+0V17 E1V24 G0V24 B1V7 A0V17 E1V24 B1V3 D0V17 E1V24 B1V7 F+0V17 D0V17 E1V24 B1V3 D0V17 E1V24 G0V8 E1V24 B1V10 F+0V17 D0V17 E1V24 B1V7 F+0V17 E1V24 B1V3 F+0V17 E1V24 B1V7 F+0V17 E1V8 E1V24 B1V10 E1V13 E5V78 r rV56 D0V112 D0V17 E1V24 G0V8 E1V24 B1V5 E0V17 E1V24 B1V3 D0V17 E1V24 B1V1 D0V17 E1V24 B1V1 B1V1 D0V17 E1V24 B1V3 C0V17 E1V24 B1V3 D0V17 E1V24 G0V24 B1V1 D0V17 E1V24 B1V1 D0V17 E1V24 G0V24 B1V1 E0V17 E1V24 G0V8 E1V24 B1V5 D0V17 E1V24 B1V1 D0V17 E1V24 B1V3 D0V17 E1V24 B1V1 D0V17 E1V24 B1V3 D0V17 E1V24 G0V24 B1V3]

$$ALL
  [E0V17 E1V8 E1V17 E1V24 B1V5 C+0V17 E1V24 B1V5 C+0V17 E1V24 B1V5 F+0V17 E1V24 B1V2 E0V17 E1V24 G4V17 G4V17 B1V2 C+0V17 E0V17 E1V24 B1V5 G0V24 B1V5 F+0V17 E1V24 B1V2 E0V17 E1V24 B1V2 C+0V17 E1V24 B1V2 C+0V17 C+0V17 E1V24 B1V5 E0V17 E1V24 B1V2 E0V17 E1V24 B1V5 B1V2 C+0V17 E1V24 B1V2 C+0V17 E1V24 B1V5 B1V2 C+0V17 E1V24 B1V2 G0V24 B1V7 F+0V17 E1V24 B1V2 C+0V17 E1V24 B1V5 E0V17 E1V24 B1V2 C+0V17 E1V24 B1V2 E0V17 E1V24 B1V2 B1V2 E0V17 E1V56 F+0V147 C1V80 F6V2 rV17 G4V17 F17V17 D0V17 D0V17 D0V17 D0V17 D0V17 D0V17 D0V17 D0V17 D0V17 D0V17 D0V17 D0V17 D0V17 D0V17 D0V17 D0V17 D0V17 D0V17 D0V17 D0V17 D0V17 D0V17 D0V5 B1V3 B1V3 B1V3 B1V3 B1V3 B1V3 B1V3 B1V3 B1V3 B1V3 B1V3 B1V3 B1V3 B1V3 G4V17 G0V24 G0V24 G0V24 G0V24 G0V24 D+3V17 E1V8 E1V8 E1V8 E1V8 E1V8 E1V8 E1V8 E1V8 E1V8 E1V8 E1V8 E1V8 E1V8 E1V8 E1V8 E1V8 F+0V3 E0 D0V17 D0V17 D0V17 D0V17 D0V17 D0V17 D0V17 D0V17 D0V17 D0V17 D0V17 D0V17 D0V17 D0V17 D0V17 D0V17 D0V17 D0V17 D0V17 D0V17 D0V17 D0V17 D0V17 D0V17 D0V17 D0V17 D0V17 D0V17 D0V17 D0V17 D0V17 D0V17 D0V17 D0V17 D0V17 D0V17 D0V17 D0V17 D0V17 D0V17 D0V17 D0V17 D0V17 D0V17 D0V17 D0V17 D0V17 D0V17 D0V17 D0V17 D0V17 D0V17 D0V17 D0V17 D0V17 D0V17 D0V17 D0V17 D0V17 D0V5 B1V3 B1V3 B1V3 B1V3 B1V3 B1V3 B1V3 rV65 E12 D+0 D1V3 G0V24 G0V24 G0V24 G0V24 G0V24 G0V24 G0V24 G0V24 G0V24 G0V24 G0V24 G0V24 G0V24 G0V24 G0V24 G0V24 G0V24 G0V24 G0V24 G0V24 G0V24 G0V24 G0V24 G0V24 G0V24 D+3V17 E1V8 E1V8 E1V8 E1V8 E1V8 E1V8 E1V8 E1V8 E1V8 E1V8 E1V8 E1V8 F+0V3 E1V17 E1V17 E1V17]

$$ALL
  [E1V17 E1V17 E0V13 D0V17 D0V17 D0V17 D0V17 D0V17 D0V17 D0V17 D0V17 D0V17 D0V17 D0V17 D0V17 D0V17 D0V17 D0V17 D0V17 E1V13 E1V24 G0V24 G0V24 G0V24 G0V24 G0V24 G0V24 G0V24 G0V24 G0V24 G0V24 G0V24 G0V24 G0V24 G0V24 G0V24 G0V24 G0V24 G0V24 G0V24 G0V24 G0V24 G0V24 G0V24 G0V24 G0V24 G0V24 G0V24 G0V24 G0V24 G0V24 G0V24 G0V24 G0V24 G0V24 G0V24 G0V24 G0V24 G0V24 G0V24 G0V24 G0V24 G0V24 G0V24 G0V24 G0V24 G0V24 G0V24 G0V24 G0V24 G0V24 G0V24 G0V24 G0V24 G0V24 G0V24 G0V24 G0V24 G0V24 G0V24 D+3V17 E1V8 E1V8 E1V8 E1V8 E1V8 E1V8 E1V8 G6V84 C+0 F+1 E1V194 E1V17 E1V17 E1V17 E1V17 E1V17 E1V17 E1V17 E1V17 E1V17 E1V17 E1V17 E1V17 E1V17 E1V17 E1V17 E1V17 E1V17 E1V17 E1V17 E1V17 E1V17 E1V17 E1V17 E1V17 E0V13 D0V17 D0V17 D0V17 D0V17 D0V17 D0V17 D0V17 D0V17 D0V17 D0V17 D0V17 D0V17 D0V17 E1V13 B1V3 B1V3 B1V3 B1V3 B1V3 E1V24 G0V24 G0V24 G0V24 G0V24 G0V24 G0V24 G0V24 G0V24 G0V24 G0V24 G0V24 G0V24 G0V24 G0V24 G0V24 G0V56 D0V40 rV17 E1V17 E1V17 E1V17 E1V17 E1V17 E1V17 E1V17 E1V17 E1V17 E1V17 E1V17 E1V17 E1V17 E1V17 E1V17 E1V17 E1V17 E1V17 E1V17 E1V17 E1V17 E1V17 E1V17 E1V17 E1V17 E1V17 E1V17 E1V17 E1V17 E1V17 E1V17 E1V17 E1V17 E1V17 E1V17 E1V17 E1V17 E1V17 E1V17 E1V17 E1V17 E1V17 E1V17 E1V17 E1V17 E1V17 E1V17 E1V17 E1V17 E1V17 E1V17 E1V17 E1V17 E1V17 E1V17 E1V17 E1V17 E1V17 E1V17 E0V13 D0V17 D0V17 D0V17 D0V17 D0V17 D0V17 D0V17 E5V78 r rV40 D16V8 E1V17 D0V17 E1V24 B1V1 C0V17 E1V24 B1V1 D0V17 E1V24 B1V5 C0V17 E1V24 B1V3 D0V17 E1V24 B1V3 C0V17 E1V17 E1V24 B1V5 D0V17 B1V1 D0V17 E1V24 B1V1 C0V17 E1V24 B1V1 C0V17 E1V24]

$$ALL
  [B1V5 C0V17 E1V17 E1V24 B1V3 D0V17 E1V24 B1V1 C0V17 E1V24 B1V3 D0V17 C0V17 E1V24 B1V3 C0V17 E1V24 B1V3 D0V17 C0V17 E1V24 B1V5 C0V17 B1V1 E0V17 E1V24 B1V1 C0V17 E1V24 B1V3 D0V17 E1V24 B1V1 C0V17 E1V24 B1V3 C0V17 E1V24 B1V3 C0V17 C0V17 E1V24 B1V7 G0V24 B1V7 F+0V17 E1V24 B1V2 E0V17 E1V24 B1V2 E0V17 E1V24 B1V2 C+0V17 E1V24 B1V5 E0V17 E1V24 B1V2 B1V5 E0V17 E1V24 G0V8 E1V24 B1V7 F+0V17 E1V24 B1V5 E0V17 E1V24 B1V2 E0V17 E1V24 B1V2 B1V2 E0V17 E1V24 B1V5 C+0V17 E1V24 B1V5 E0V7 C1V17 E1V8 E1V24 B1V5 F+0V17 E1V24 B1V5 E0V17 E1V8 E1V24 B1V7 F+0V17 E1V8 E1V17 E1V24 B1V5 E0V17 E1V24 B1V5 C+0V17 E1V24 B1V5 E0V17 E1V24 B1V5 E0V17 E1V24 B1V5 E0V17 E1V8 E1V24 B1V7 F+0V7 C1V80 F6V2 rV21 D+3V17 G0V8 E1V17 E1V24 B1V4 C0V17 E1V24 B1V4 C0V17 E1V24 B1V4 F+0V17 E1V24 B1V1 D+0V17 E1V24 B1V4 D+0V17 E1V8 E1V24 B1V7 F+0V17 E1V17 C0V17 E1V24 B1V1 C0V17 E1V24 B1V4 C0V17 E1V24 B1V7 F+0V17 E1V8 E1V24 B1V7 D+0V17 E1V24 B1V1 C0V17 E1V24 B1V7 D+0V17 E1V17 E1V24 B1V7 D+0V17 E1V24 B1V4 D+0V17 E1V17 E1V24 B1V7 F+0V17 E1V17 C0V17 E1V24 B1V4 C0V17 E1V24 B1V1 D+0V17 E1V24 B1V4 C0V17 E1V24 B1V4 D+0V17 E1V24 B1V4 D+0V7 C1V5 B1V1 D+0V17 E1V24 G0V8 E1V24 B1V10 F+0V17 E1V24 B1V7 F+0V17 E1V24 B1V7 F+0V17 E1V24 B1V3 D0V17 E1V24 B1V7 F+0V17 E1V24 G0V24 B1V7 A0V17 E1V8 E1V17 E1V24 B1V10 D0V17 E1V24 B1V7 F+0V17 E1V24 B1V7 A0V17 E1V24 G0V24 B1V7 A0V17 E1V24 B1V3 D0V17 E1V24 B1V7 A0V17 E1V8 E1V24 B1V7 A0V17 E1V24 B1V7 F+0V17 E1V8 E1V24 B1V10 A0V17 E1V8 E1V17 E1V24 B1V7 F+0V17 E1V24 B1V7 D0V17 E1V24 B1V7]

$$ALL
  [F+0V17 E1V24 B1V7 F+0V17 E1V56 F+0V24 B1V7 F+0V17 E1V17 E1V24 B1V10 A0V80 F6 rV22 G4V17 D+18V17 E0V17 E1 B1V5 E1V24 G10V17 E1V128 G10V17 G0V128 E0V8 B1V5 E1V24 A10V17 E1V131 E1V131 D+0V8 B1V4 E1V24 C11V17 E1V133 B10V17 D+0V132 C11V17 G0V133 C+0V8 B1V2 E1V24 D11V17 E1V136 D11V17 G0V255 B6V151 rV4 rV15 C16V8 E1V8 E1V8 E1V8 E1V8 E1V8 E1V8 E1V8 E1V8 E1V8 E1V8 E1V8 E1V8 E1V8 E1V8 E1V8 F+0V3 E1V17 E1V17 E1V17 E1V17 E1V17 E1V17 E1V17 E0V13 D0V17 D0V17 D0V17 D0V17 D0V17 D0V17 D0V17 D0V17 D0V17 D0V17 D0V17 D0V17 D0V17 D0V17 E1V13 B1V3 B1V3 B1V3 B1V3 B1V3 E1V24 G0V24 G0V24 G0V24 G0V24 G0V24 G0V24 G0V24 G0V24 G0V24 G0V24 G0V24 G0V24 G0V24 G0V24 G0V24 G0V56 D0V40 rV17 E1V17 E1V17 E1V17 E1V17 E1V17 E1V17 E1V17 E1V17 E1V17 E1V17 E1V17 E1V17 E1V17 E1V17 E1V17 E1V17 E1V17 E1V17 E1V17 E1V17 E1V17 E1V17 E1V17 E1V17 E1V17 E1V17 E1V17 E1V17 E1V17 E1V17 E1V17 E1V17 E1V17 E1V17 E1V17 E1V17 E1V17 E1V17 E1V17 E1V17 E1V17 E1V17 E1V17 E1V17 E1V17 E1V17 E1V17 E1V17 E1V17 E1V17 E1V17 E1V17 E1V17 E1V17 E1V17 E1V17 E1V17 E1V17 E1V17 E0V13 D0V17 D0V17 D0V17 D0V17 D0V17 D0V17 D0V17 E5V78 r rV56 D0V11 B1V3 B1V3 B1V3 B1V3 B1V3 B1V3 B1V3 B1V3 B1V3 B1V3 B1V3 B1V3 B1V3 B1V3 B1V3 B1V3 B1V3 B1V3 B1V3 B1V3 B1V3 E1V24 G0V24 G0V24 G0V24 G0V24 G0V24 G0V24 G0V24 G0V24 G0V24 G0V24 G0V24 G0V24 G0V24 G0V24 G0V24 G0V24 G0V24 G0V24 G0V24 G0V24 G0V24 G0V24 G0V24 G0V24 G0V24 G0V24 G0V24 G0V24 G0V24 G0V24 G0V24 G0V24 G0V24 G0V24 G0V24 G0V24 G0V24 G0V56 D0V40 rV17 E1V17 E1V17 E1V17 E1V17 E1V17 E1V17 E1V17 E1V17 E1V17 E1V17]
