
$OPN, $UNKNOWN_0x8B,

!ALL

@T64.00

$$ALL
  [D+5 D+5 D+5 r r r rV10 r r r r r r r r r r r r G8V32 F+9V32 C8V107 C10V114 C+4 r r C7 rV140 C+4 rV83 D7 rV10 B2 rV188 G12 rV172 D+9 rV35 C7 rV60 C20 rV35 A7 rV139 C11 rV228 C+13 rV240 F3 rV140 A9 rV205 r D+0V6 A0V13 r D+0V6 A0V13 C0V3 F0V6 F0V6 r C+0V2 C+0V2 r r r r F0V6 F0V9 r F0V6 F0V9 r r r C0V1 D0 G6V71 C4 rV83 r G+3V45 G+3V45 G+3V45 G+3V45 A0V110 E8V32 D9V32 G2V116 G+8V115 C+9V115 A6V77 G9V97 A8V115 D8V101]
  [D+5 D+5 D+5 r r r E6 r r r r r r r r r r r r D+9V121 G2V32 F+6 G9V56 F+5V2 C0 C0V10 B0 rV13 C+1 rV15 D+1 rV18 F+1 rV21 G+1 rV23 B1 rV25 C+2 rV27 D+2 rV29 F+2 rV33 A2 rV36 C+3 rV40 E3 rV43 F+3 rV1 C0V2 E0V7 D1V1 C0V2 E0V7 D1 C+0V4 F0V6 F0 C0V1 C+0V2 C+0 r r rV1 D+0V5 F+0V8 G0V1 D+0V5 F+0V8 G0 r r rV4 D0V3 r rV83 G6V71 C+4 rV45 G+3V45 G+3V45 G+3V45 G+3V45 G8V32 D+9V104 D8V111 C8V101 G8V117 F8V69 G8V112 G8V118 C+8V101 E8V46]

$$ALL
  [C9V108 F+8V115 G+8V111 D8V110 G2V111 A0V102 F9V32 G2V116 G8V112 G8V120 G2V111 G2V101 G9V101 E8V32 E8V32 D+8V116 G+9V32 D+9V32 A5V115 F+9V99 A3V10 C+9V116 C+9V97 G+8V108 G2V111 D8V32 D9V115 D+8V109 G2V97 A8V115 C+9V115 G2V109 G2V102 A+8V82 G2V115 G2V101 A9V110 B8V100 G8V32 B8V102 G2V110 G9V101 G2V101 G2V104 D+9V32 F+9V32 F8V116 D9V121 B6V101 C+8V97 C8V32 F+8V97 D9V112 E8V114 F8V108 G2V111 G8V112 D8V117 G+8V101 F9V97 D+9V114 C10V116 G9V101 G+8V32 D9V112 G8V32 G8V116 D+9V111 E8V110 G2V97 E8V46 G+8V115 D9V108 E8V98 G2V111 E8V116 E6V108 G9V105 E8V101 G2V97 G+8V108 A9V100 G2V104 A6V77 F+9V119 E8V32 G8V111 C+9V44 C8V100 A0V45 G+3V45 G+3V45 G+3V45 G+3V45 G+5V112 D9V32]
  [D+9V99 F8V115 G9V97 G+8V46 G+8V103 D9V32 G2V111 G8V115 G+8V32 D+8V116 A+9V117 D9V108 C8V101 C8V97 D+9V97 D9V103 E8V99 D3V44 F9V70 C9V110 E8V32 D9V116 G2V101 D8V100 F9V112 G9V44 G+9V110 G+8V32 B8V115 E8V112 A0V84 C10V101 G2V108 G2V104 C8V101 G2V114 D8V110 G2V110 C9V111 A0V66 G2V97 G2V115 G9V32 E8V99 C8V32 C9V32 G2V97 G+8V101 F9V32 G2V97 F9V112 E8V115 C+9V32 E8V117 F9V32 B6V101 G9V97 G2V114 G8V32 C8V100 G+8V103 G2V111 E8V116 C+8V116 E8V46 G+8V115 D9V108 D+8V32 G9V98 G2V101 G8V32 G8V116 C+8V32 A+8V111 G9V101 G+8V32 A0V65 G2V110 G9V105 C8V100 E8V112 G2V114 E8V69 A0V73 G9V109 F9V116 F+8V32 C8V99 G8V110 G+3V45 G+3V45 G+3V45 G+3V45 A0V104 C+9V115 F5V97]

$$ALL
  [G2V79 C10V114 C+4V50 E4V67 G2V114 D9V32 C+9V99 G2V105 E8V116 G+8V105 F+9V114 C8V100 G2V114 C9V108 G+8V104 C+8V117 G+9 rV1 D+0 r r D9V32 F+5 D9V116 F9 D5 rV63 r r r r r r r r r r r r r r r rV255 r rV255 r rV255 r rV255 r rV255 r rV255 r C0V6 F0V6 rV123 A5V65 D9V107 G+9V116 C5V10 E8V116 E5V26 A+8V101 G9V109 A0V65 r r D+0 B6V186 rV243 rV5 E0V15 G+10V74 B14V5 E2V15 E0V15 rV100 C+8 E0V15 E0V15 D1V1 C+6 E0V15 D1V1 D1V5 D+8V129 rV180 D1V80 rV1 rV86 C+8 E0V15 rV96 C+6V10 C+6]
  [C+8V32 G9V56 D4V77 D+9V117 G9V100 E8V70 F5V97 G+3V111 F+5V110 G2V32 E8V116 G2V80 F+5V32 A0V70 G2V110 C8V32 G10 r r F12V150 A5V109 G9V32 C8V107 G9V69 r r r r rV3 E0 rV8 A0 rV13 D1 D+1V2 D+0V16 D+1V7 G+0V16 D+1V12 C+1V16 D+17V1 D0V208 D+17V6 G0V208 D+17V11 C1V208 D+17 C+0V224 G18V5 F+0V224 G18V10 B0V224 G18V15 r F0V6 F0 rV10 r B8V49 F+5V111 D8V77 E8 rV108 C4V99 D9V107 A6 G5V82 rV68 r r A0V18 rV76 B14V5 E0V15 rV74 rV88 D+8 E0V15 rV98 D+6V10 D+6 E0V15 D1V1 C+6 D+7 rV180 D1V5 C+8 F6 E2V15 E0V15 rV98 B7 E0V15 E0V15 D1V1]

$$ALL
  [E0V15 D1V1 B5 C+7 rV180 D1V5 B7 A0 rV98 D1V5 C0 rV65 r E0V15 D1V1 G+5 E0V15 D1V1 D1V5 G+7V129 rV180 D1V29 D1V5 C0 rV93 D1V5 C0V5 E0V15 G+10V71 B14V5 G6V84 D0 D+7 rV180 D1V5 C+8 A0 rV100 D1V5 C0 rV76 rV76 B14V5 E0V9 rV74 rV88 D+8 E0V2 rV98 E5V78 rV61 G+10V4 C0 D+8V1 G+7 C0 G5V24 B1V68 B6V69 rV100 C2V4 rV96 E11V96 E8V1 B1V68 D+12V2 r F8V17 C2V4 rV98 E1V24 rV110 C0V129 G+10V4 B1V68 D+0 G5V80 rV7 B1V68 D+0V133 G5V25 C11V103 C2V4 F+8 D+0V129 rV1 r F8V225 E11V102 F8V1 G+10V4 C0 G+7V18 rV98 B1 r]
  [B5 E0V15 D1V1 D1V5 C+8V129 rV180 D1V29 D1V5 C0 rV96 D1V5 C15 G+5V10 G+5 E0V15 D1V1 G+5 G+6 rV180 D1V5 G+7 A0 rV93 D1V5 C0 rV71 rV71 B14V5 E0V15 rV71 r D1V1 D1V5 D+8V129 rV180 D1V29 D1V5 C0 rV98 D1V5 C0V5 E0V13 G+10V74 B14V5 E2V7 E0V6 rV100 C+8 E0 r C1V17 C2V4 rV98 B1V68 F+7V1 G+18V129 C2V225 D+0V255 r G+10V4 C0 C+8V24 rV98 C2V225 D+0V24 G6V84 F0 G+10V4 C0 D+8V25 C11V112 F+8V1 G5V24 C2V4 F+8 D+0V129 F6 C2V4 B8 D+0V129 rV24 G+10V4 B1V68 D+0V133 G5V25 G6V84 G0 rV24 rV100 C0V129 C2V4 rV91 D+0V144 G+10V4 E5V78 rV57]

$$ALL
  [G+18V18 F8 C0 G+10V4 C0 A+8V24 B1V68 D+0 G5V25 rV65 r A0 A+10V48 B0V37 rV12 C+0V5 rV129 B0V3 A0 A+10V48 B0V37 rV12 C+0V5 rV129 B0V3 r A+0 E0V11 G+10V96 D0V61 rV224 B3V11 C3V93 A+0 E0V11 G+10V96 D0V61 rV224 B3V11 C3V93 F6 C5V93 G18V131 G+10V93 rV12 C+0V5 E0V12 G+7V18 A+10V93 G+7V129 B0 E0V12 B0V5 C12 rV12 C+0V5 rV129 B0V3 A0 A+10V48 B0V37 rV12 C+0V5 rV129 B0V3 A0 A+10V48 B0V37 E5V78 rV61 rV224 B3V11 C3V93 A+0V1 E0V11 G+10V96 D0V61 rV224 B3V11 C3V93 A+0V1 E0V11 G+10V96 D0V80 rV15 C0V1 B0V5 E0V12 A0 A+10V93 G+7V129 C0V2 E0V12 B0V61 rV224 A+7V129]
  [B1V68 D+8V1 G+10V106 C2V4 rV105 C12V4 G+8 D+0V129 rV24 C12 rV12 C+0V5 rV129 B0V3 A0 A+10V48 B0V37 rV12 C+0V5 rV129 B0V3 A0 A+10V48 B0V37 E5V78 rV61 rV224 B3V11 C3V93 A+0 E0V11 G+10V96 D0V61 rV224 B3V11 C3V93 A+0 E0V11 G+10V96 D0V80 rV12 rV1 B0V5 E0V12 A0 A+10V93 G+7V129 C0V2 E0V12 B0V61 rV224 A+7V129 rV65 r A0 A+10V48 B0V37 rV12 C+0V5 rV129 B0V3 A0 A+10V48 B0V37 rV12 C+0V5 rV129 B0V3 r A+0V1 E0V11 G+10V96 D0V61 rV224 B3V11 C3V93 A+0V1 E0V11 G+10V96 D0V61 rV224 B3V11 C3V93 F6 C5V93 G18V131 G+10V93 rV12 C+0V5 E0V12 G+7V18 A+10V93 G+7V129 B0V1 E0V12 B0V5]

$$ALL
  [rV65 C0 A+10V103 E0V15 rV180 C11V103 E0V15 rV180 C11V103 E0V15 rV180 C11V103 E0V15 rV180 rV65 C0 rV180 rV100 D1V1 rV180 rV100 D1V1 rV180 rV100 D1V1 rV180 rV100 D1V1 r B7V10 D1V1 B14V5 B7V10 D1V1 B14V5 A+7V10 D1V1 B14V5 C+8V10 D1V1 B14V5 E5V78 rV132 B14V5 F8 C0V133 B14V5 F8 C0V133 B14V5 F8 C0V133 B14V5 F8 C0V255 rV1 F0V17 C2V4 rV98 B1V68 F+7V1 G+18V129 C2V225 E5V78 rV131 G+10V4 C0 C+8V24 rV98 C2V225 D+0V24 A7 B1 G+10V4 C0 D+8V25 C11V112 F+8V1 G5V24 C2V4 F+8 B6V89 rV105 C2V4 B8 D+0V129 rV24 G+10V4 B1V68 D+0V133 G5V4 r F+8 F0V17 C2V4 rV98]
  [B10 B19 C0V1 B14V5 F8 C0V1 B14V5 F8 C0V1 B14V5 F8 C0V1 B14V5 F8 F10 E2V15 E8V129 C0 E2V15 E8V129 C0 E2V15 E8V129 C0 E2V15 E8V129 C0 G6V84 C+0 C0 E0V15 rV180 C0 E0V15 rV180 C0 E0V15 rV180 C0 E0V15 rV180 r D1V1 G+10V180 rV102 D1V1 G+10V180 rV102 C1V1 G+10V180 rV102 E0V1 G+10V180 rV102 B6V78 rV61 G+10V4 C0 D+8V1 G+7 C0 G5V24 B1V68 r rV100 C2V4 rV96 E11V96 E8V1 B1V68 rV65 C0 F8V17 C2V4 rV98 E1V24 rV110 C0V129 G+10V4 B1V68 D+0V255 rV1 G+10V4 B1V68 D+0V133 G5V25 C11V103 C2V4 F+8 D+0V129 G6V84 G0 G+8V61 G+10V4 C0 D+8V1]

$$ALL
  [B1V68 F+7V1 G+18V129 C2V225 E5V78 rV131 E1V1 D+0 C+8V1 B1V68 C+9V1 G+10V4 D+0 G5V25 rV65 C0 A0 A+10V48 B0V37 rV12 C+0V5 rV129 B0V4 A0 A+10V48 B0V37 rV12 C+0V5 rV129 B0V4 r B0 E0V12 G+10V100 D+0V61 rV224 B3V12 C3V96 B0 E0V12 G+10V100 D+0V61 rV224 B3V12 C3V96 F6 C5V96 G18V131 G+10V96 rV12 C+0V5 E0V12 A+7V18 A+10V95 A+7V129 B0 E0V12 B0V5 C12 rV12 C+0V5 rV129 B0V4 A0 A+10V48 B0V37 rV12 C+0V5 rV129 B0V4 A0 A+10V48 B0V37 E5V78 rV61 rV224 B3V12 C3V96 B0V1 E0V12 G+10V100 D+0V61 rV224 B3V12 C3V96 B0V1 E0V12 G+10V100 D+0V80 rV15 C0V1 B0V5 E0V12 A0 A+10V96 B7V129]
  [G+7 C0 G5V24 B1V68 r rV15 D+0V137 rV102 C2V225 D+9 C0 B1 D+0V129 rV24 C12 rV12 C+0V5 rV129 B0V4 A0 A+10V48 B0V37 rV12 C+0V5 rV129 B0V4 A0 A+10V48 B0V37 E5V78 rV61 rV224 B3V12 C3V96 B0 E0V12 G+10V100 D+0V61 rV224 B3V12 C3V96 B0 E0V12 G+10V100 D+0V80 rV12 rV1 B0V5 E0V12 A0 A+10V96 B7V129 C0V5 E0V12 B0V61 rV224 C+8V129 rV65 C0 A0 A+10V48 B0V37 rV12 C+0V5 rV129 B0V4 A0 A+10V48 B0V37 rV12 C+0V5 rV129 B0V4 r B0V1 E0V12 G+10V100 D+0V61 rV224 B3V12 C3V96 B0V1 E0V12 G+10V100 D+0V61 rV224 B3V12 C3V96 F6 C5V96 G18V131 G+10V96 rV12 C+0V5 E0V12 A+7V18]

$$ALL
  [C0V5 E0V12 B0V61 rV224 C+8V129 rV65 C+0 B6V77 rV114 C2V4 rV110 B1V68 F+8V1 G+18V129 C2V225 D+0V255 rV2 G+10V4 C0 C+9V24 rV110 C2V225 D+0V24 G6V84 D0 G5V25 C0 A9V17 D+0 G+9V1 D+0V129 rV24 G+10V4 B1V68 r rV24 G+10V4 B1V68 D+0V133 G5V25 C11V115 C2V4 F+9 F6 C2V3 B14V80 rV6 B14V25 D+8V144 B14V25 F+9V240 C0V130 C2V2 C0V128 C2V2 B11V180 G10V100 B11V180 G10V115 C+0V1 B14V25 C+0V1 B14V115 B19V180 G6V84 r r A0 G+8V10 rV105 A0 G+8V10 rV105 A0 G+8V10 rV105 A0 G+8V10 rV105 A0 G+8V10 rV105 A0 G+8V10 rV105 A0 G+8V10 rV105 A0 G+8V10 rV105 A0 G+8V10 rV105 A0 G+8V10]
  [A+10V95 A+7V129 B0V1 E0V12 B0V5 G+0 C+0V255 rV2 G+10V4 C0 D+9V1 G+8 C0 G5V24 B1V68 B6V69 rV112 C2V4 rV108 E11V108 E9V1 B1V68 D+12V2 r G+18V129 rV1 rV112 D+0V133 rV115 B1V68 G5V25 rV115 C2V4 E5V78 rV25 C11V120 C2V4 D+10 D+0V129 rV24 G+10V4 B1V68 G+9V80 rV5 B1V2 F6 C2V2 B19V180 C2V2 B11V180 G10V100 C+0V1 B14V100 C+0V1 B14V25 F+9V240 C0V25 D+8V144 C0V128 C2V2 B11V180 C2V2 C0V25 C+0V1 r E5V78 rV29 A0V5 E2V15 E0V29 D1V5 E2V15 E0V29 A0V5 E2V10 E0V29 A0V5 E2V15 E0V29 A0V5 E2V10 E0V29 A0V5 E2V10 E0V29 A0V5 E2V10 E0V29 D1V5 E2V10 E0V29 A0V5 E2V10 E0V29 D1V5 G6V84]

$$ALL
  [C0 D1V5 E2V10 D+0V29 A0V5 E2V10 E0V29 D1V4 E2V15 E0V29 D1V4 E2V10 E0V29 D1V5 E2V15 E0V29 A0V5 E2V15 E0V29 D1V5 E2V15 E0V29 A0V5 E2V10 E0V29 A0V5 E2V15 E0V29 D1V4 E2V15 F0 G6V84 r A0 D+6V10 rV180 E2V8 C0V1 rV74 A0 D+6V10 rV180 E2V8 C0V1 rV74 A0 D+6V10 rV180 E2V8 C0V1 rV74 A0 D+6V10 rV180 E2V8 C0V80 rV1 G0V1 E2V8 C0V29 G0V1 A0V129 B7V10 G0V1 E2V8 C0V29 G0V1 A0V129 B7V10 G0V1 E2V8 C0V29 G0V1 A0V129 B7V10 G0V1 E2V8 C0V29 G0V1 A0V129 B7V10 r rV98 A0 G+6V10 rV93 E2V8 C0V29 rV93 A0 G+6V10 rV93 E2V8 C0V29 rV93 A0]
  [C+0 G+8V10 rV98 A0 G+8V10 rV105 A0 G+8V10 rV105 A0 G+8V10 rV105 A0 G+8V10 rV105 A0 G+8V10 rV105 A0 G+8V10 rV105 A0 G+8V10 rV105 A0 G+8V10 rV105 A0 C+8V10 rV65 D+0 r rV29 G0V1 E2V8 D+8V10 rV98 E2V8 C0V29 G0V1 E2V8 D+8V10 rV98 E2V8 C0V29 G0V1 E2V8 D+8V10 rV98 E2V8 C0V29 G0V1 E2V8 D+8V10 rV98 F6 C0 C+6V10 rV86 A0 B14V29 G0V1 C0 B5V10 rV86 A0 B14V29 G0V1 C0 B5V10 rV86 A0 B14V29 G0V1 C0 B5V10 rV86 A0 B14V29 G0V1 G6V84 C+0 C0V29 G0V1 E2V8 C0V1 G+10V69 A0 C0V29 G0V1 E2V8 C0V1 G+10V69 A0 C0V29 G0V1]

$$ALL
  [A+6V10 rV93 E2V8 C0V29 rV93 A0 A+6V10 rV95 E2V8 C0V29 B6V109 rV124 G+10V115 F9V129 A0V129 G+10V115 G+9V129 F+9V129 G+10V114 D+10V10 F+9V129 G+10V117 r G+0V1 G+0V5 E0V9 E0V9 G+0V5 E2V9 E0V9 G+0V5 C0V5 E0V9 G+0V80 rV5 G+10V115 F+9V129 G+10V124 G+10V115 A+8V129 A0V129 G+10V114 A+8V129 G+8V129 G+10V110 E5V78 rV29 G+0V1 G+0V5 E0V9 G+0V5 E0V9 E2V9 E0V9 G+0V5 E0V9 G+0V5 C0V29 G+0V5 E0V9 G+0V5 E0V9 G+0V1 E0V9 G+0V5 E0V9 G+0V5 G6V84 F+0 G+9V10 G+9 rV113 D+9 rV117 rV117 rV117 C+9 rV112 F+9 A0 E9 rV110 B8 rV115 C+10V10 rV113 E9 rV108 B8 rV65 E0 E2V9 E0V9 G+0V5 E0V9 G+0V5]
  [E2V8 C0V1 G+10V71 A0 C0V29 G0V1 E2V8 C0V1 G+10V71 A0V255 rV5 C0V5 E0V9 G+0V29 G+0V5 E0V9 G+0V1 G+0V5 E0V9 E0V9 G+0V5 G6V84 D+0 E9V129 G+10V112 C+10V10 E9V129 G+10V115 G+10V113 E9V129 G+10V122 G+10V113 D+9V129 F6 E2V9 E0V9 G+0V5 C0V5 E0V9 G+0V29 G+0V5 E0V9 G+0V1 G+0V5 E0V9 r A0 F+9 rV112 C+9 rV117 D+10V10 rV115 F+9 rV110 C+9 rV124 A0 rV115 F+9 rV110 A+9 A+9V10 A+9 rV115 F9 rV119 r G+0V1 E0V9 G+0V5 E0V9 G+0V5 E2V9 C0V5 E0V9 G+0V5 E0V9 G+0V29 G+0V1 G+0V5 E0V9 G+0V5 E0V9 E2V9 E0V9 G+0V5 E0V9 G+0V5 G+17 D+10V10 rV115 F+9 rV112 F+8 rV124]

$$ALL
  [C0V29 G+0V5 E0V9 G+0V5 E0V9 G+0V1 E0V9 G+0V5 E0V9 G+0V5 E2V9 C0V5 E0V9 G+0V5 E0V9 G+0V80 rV9 C0V2 E0V9 G+0V5 E0V9 G+0V5 E2V9 C0V5 E0V9 G+0V5 E0V9 G+0V29 G+0V1 G+0V5 E0V9 G+0V5 E0V9 E2V9 E0V9 G+0V5 E0V9 G+0V5 G+11 F1V137 B14V29 rV102 E2V8 F+8V10 G0V1 A0 C0V1 rV180 C0 B14V29 C11V103 E2V8 F8V10 r rV102 E2V8 E8V10 G0V1 A0 C0V1 G+10V180 C0 B14V29 rV101 E2V8 D+8V10 G0V1 A0V129 C0V80 rV2 G0V1 A0 C0V1 rV180 C0V133 B14V29 rV96 E2V8 A+7V10 G0V1 A0 C0V1 rV180 C0 E5V78 rV128 A+9V129 G+10V110 A+9V10 D+9V129 G+10V119 G+10V119 C+9V129 G+10V119 G+10V112 C+9V129]
  [A0 rV115 F+9 rV103 D+8 A+9V10 A+9 rV114 A+8 rV98 rV102 rV102 A+8 rV110 C+9 F6 C5V124 A+9V10 A+9 rV115 F9 rV119 rV119 rV119 D+9 rV114 G+9 A0 F+9 rV112 C+9 rV117 D+10V10 rV115 F+9 rV110 C+9 rV65 F0 G0V1 A0V129 C0V1 rV180 C0 B14V29 rV102 E2V8 F+8V10 G0V1 A0 C0V1 G+10V180 G6V84 C0 C0V1 rV180 C0 B14V29 C11V101 E2V8 D+8V10 G0V1 A0 C0V1 rV180 C0V133 B14V29 rV100 F6 C0 B14V29 rV96 E2V8 B7V10 G0V1 A0V129 C0V1 rV180 C0 B14V29 rV95 E2V8 C+8V10 G0V1 r G+0V1 G+0V5 E0V9 E0V9 G+0V5 E2V9 E0V9 G+0V5 C0V5 E0V9 G+0V80]
