
$OPN,

!ALL

$Inst1,
$Inst2,
$Inst3,
$Inst4,
$Inst5,
$Inst6,
$Inst7,
$Inst8,
$Inst9,
$Inst10,
$Inst11,
$Inst12,
$Inst13,
$Inst14,
$Inst15,
$Inst16,
$Inst17,
$Inst18,

$$ALL
  [r D+5 D+5 D+5 D+5 D+5 D+5 D+5 r r r r r r r r r r r r r r r r r r r r r r r r r r r r r r r rV104 F+9V109 G2V101 F9V100 C8V116 G9 F+5V2 r C0 r C0V7 G+7 F+0 rV108 rV8 G3 G+0 rV66 rV10 G+0 A+0 rV151 rV12 D5 C1]

$$ALL
  [rV34 rV61 D+12 C6 rV174 rV90 C10 G+12 rV160 rV156 G15 C+13 rV230 rV161 D19 F+13 rV17 rV167 G+3 C14 rV87 rV172 F+9 F14 rV157 rV177 E15 A+14 rV102 rV181 B2 D15 rV82 rV184 G+12 F15 rV196 rV188 C21 G+15 rV189 rV191 D+17 B15 rV118 rV194 F13 D16 r rV196 C+11 D+16 rV76 rV197 F9 F+16 rV84 rV200 F+11 G+16 rV196 rV203 G16 B16]

$$ALL
  [rV154 rV205 C+16 C+17 rV63 rV207 E1 D+17 rV147 rV210 C+12 F+17 rV255 rV212 A15 G17 rV92 rV213 D+6 A17 rV191 rV216 G+18 C18 rV82 rV218 B1 D18 r D0V5 G0V10 E0V13 D+1V18 G+1V23 rV2 E0V7 A0V12 D1V17 G1V22 C2V27 C+0V4 E0V7 D+0V4 A+0V13 D+0V14 E1V1 D+0V4 F+0V8 D+0V10 C1V5 C+1V16 C0V3 D+0V7 G0V5 A0V12 E0V5 D1V1 C0V3 D0 rV101 D9V108 D+8 G+8V115 D+8V117]

$$ALL
  [A+3V97 B8V115 C4V115 G9V105 F+9V100 C9V99 G+8V116 F+9V102 E8V32 G2V97 A0V101 G3V105 F+9V97 G+5V32 C9V32 C+9V10 G2V46 F3V32 G2V32 G2V10 F3V46 D+10V32 G2V32 A3V10 A3V32 A+3V32 G2V32 G2V10 G2V32 D5V92 G2V46 G2V10 G2V32 F3V95 A3V32 A3V10 G2V32 F3V92 G2V46 G2V10 G2V32 D5V42 G2V32 G2V10 G2V47 A+7V95 G2V42 G2V10 A3V32 D+10V32 G2V32 G2V10 F9V121 G8V105 C9V115 G+9V110 E8V115 rV128 r C0 rV4 C0 r rV150]

$$ALL
  [rV104 F+9V109 G2V101 F9V89 G2V84 G2V72 A+6V77 G2V83 F+6V73 A0V32 E8V32 C8V32 G+9V100 C8V112 r F6V83 r rV63 r r r r rV3 r E0 r rV8 r A0 r rV13 r D1 rV255 D+17V2 r D+0V208 rV255 D+17V7 r G+0V208 rV255 D+17V12 r C+1V208 rV255 G18V1 r D0V224 rV255 G18V6 r G0V224 rV255 G18V11 r C1V224 rV255 G18V1 r C0V7 D+0V6 F0V6 F0V6]

$$ALL
  [F+0V3 F0V6 F0V6 F0V4 F0V6 F0V6 F0V6 rV27 rV7 A5V65 r D9V107 B8V48 G+9V116 F+5V111 C5V10 D8V77 E8V102 F+9V10 G5V82 rV1 rV18 rV3 F0V9 C1V15 B0V65 A6 r G5V82 rV1 rV9 C0V3 F0V8 A+6V22 r F6V12 G+8V103 C+8V108 rV78 A+6V79 r F6V5 G+8V107 E6 rV48 F+2V15 B3V31 D1 F+2 rV127 D+5 E6 rV76 rV32 E0V1 C0 C6V83 r D+0V78 rV110 E8V70 r B3V31 D1]

$$ALL
  [F+2 rV127 D+5 F+10V31 rV83 r D+6V7 G2V80 C0V69 rV78 A+6V88 r F6V14 C+9V114 F+4V37 D9 B2V244 rV127 D+5 F+10V31 rV48 F+2V15 B3V31 D1 D+0V3 F+2V68 rV5 B15V78 rV69 F6V50 rV223 rV65 F+9V97 G2V48 A9V108 E6 rV48 F+2V15 B3V31 D1 F+2 rV127 D+5 E6 rV76 rV32 E0V1 C0 C6V83 r D+0V78 rV110 E8V50 G2V111 A5V36 r F+2 rV127 D+5 F+10V31 rV48 F+2V15 A+6V4 rV31]

$$ALL
  [F+0 G6V192 G+5 F6V78 F7 r D+1V115 F9V32 A3V37 D9 B2V244 rV127 D+5 F+10V31 rV48 F+2V15 B3V31 D1 D+0V6 F+2V68 rV5 B15V78 rV69 F6V50 rV223 rV65 G9V109 E6 rV48 F+2V15 B3V31 D1 F+2 rV127 D+5 E6 rV76 rV32 E0V1 C0 C6V83 r D+0V78 rV97 C8V118 D8 B2V244 rV127 D+5 F+10V31 rV48 F+2V15 B3V31 D1 D+0V8 F+2V68 rV5 B15V78 rV69 F6V50 rV223 rV65 C+9V105 G2V97]

$$ALL
  [A5V36 r F+2 rV127 D+5 F+10V31 rV48 F+2V15 E6V14 rV3 r D+0V255 F+0 G6V192 F6V78 A7 r A0V110 F+9V32 G9V70 r B3V31 D1 F+2 rV127 D+5 F+10V31 rV77 r r C0V10 E0V1 D+6V7 G2V80 C0V78 A+6V133 r F6V11 D9V115 D8V109 A5V36 r F+2 rV127 D+5 F+10V31 rV48 F+2V15 E6V57 rV26 r B0V10 F+0V5 D0V3 C+0V2 C0V1 C0V255 C16V1 rV10 D+5 rV68 rV5 B15V69 F6V50]

$$ALL
  [rV223 rV65 C+9V105 G2V121 G2V105 D9V116 F9 B2V244 rV127 D+5 F+10V31 rV48 F+2V15 B3V31 D1 C3V8 C+2V255 rV13 G+0V7 D+0V4 D0V3 C+0V1 C0 G5 E0V5 G+5V73 C+4 F+18V34 E5 C8V32 C+9V104 E6 rV48 F+2V15 B3V31 D1 F+2 rV127 D+5 E5 rV255 C0V1 C+1V13 A0V8 rV8 r rV1 D0V255 F+0 G6V192 F6V78 E5 r D+0V116 rV77 D+20 F+10V31 rV48 F+2V15 B3V31 D1 F+2 rV68 rV5]

$$ALL
  [B15V69 F6V50 rV223 rV65 B8V97 C4V48 E6 rV48 F+2V15 B3V31 D1 F+2 rV127 D+5 E5 C+0V255 C0V1 rV68 rV5 B15V69 F6V50 rV223 rV65 B8V97 B3V49 E6 rV48 F+2V15 B3V31 D1 F+2 rV127 D+5 E5 C+0V255 C0V1 rV68 rV5 B15V69 F6V50 rV223 rV65 B8V97 B3V50 E6 rV48 F+2V15 B3V31 D1 F+2 rV127 D+5 E5 C+0V255 C0V1 rV68 rV5 B15V69 E6V50 rV106 F+8V101 B8V115 G3 rV34]

$$ALL
  [r rV255 rV255 rV255 rV255 rV255 rV255 rV1 rV254 r r rV255 rV255 r r rV255 r r r rV255 r C+0 rV255 rV255 C0V4 rV251 D0V1 C21 rV255 r rV255 r C0 rV253 D+0V1 A+20V2 C0V249 r B20V5 C+0V251 C21V2 C0V252 C21V5 C0V252 C0V255 rV255 C+0V255 rV3 G+20V243 B0V14 A19V250 C1V254 A20V2 D0V252 G+20V7 E0V250 rV2 C0V251 rV9 rV247 C21 F0V1 F20V252 G0V254]

$$ALL
  [C21V12 D+0V242 B20V5 r D0 rV254 D+0V6 F+20V2 B0V248 C+0V7 F20V248 D+0V8 E0V249 A20 D0V253 A+20V3 D0V255 G+20V4 E0V245 rV12 C21V254 rV1 C+0V251 rV8 rV252 C21V1 D+0V250 A20V13 rV246 C0V8 C21V254 D+0V250 A+20V7 A+20V254 C+1V2 E20V253 rV247 C0V17 rV242 rV3 G+20 E0V4 C0V4 A+20V248 E0V3 D+0 F+20V6 rV239 A+0V13 F20V248 rV6 B20V247 G0 C21V7 C+20V249 C1V254 rV1 A20V2 A+20V247 G+0 C21V250 rV2 F+20V248 G0V254]

$$ALL
  [A20V3 C0V249 F20V255 F+0V1 rV10 G+20V239 G0V5 C0V3 B20V252 D0V253 rV250 D0V7 G20V250 E0V248 C0V2 A20V3 C0V4 B20V247 D1V1 F20V9 C0V248 C0V3 A0V253 B20V6 G+20V245 G0V10 C21V250 E0V1 F+20V1 C0V1 F+0V4 G+20V252 rV6 rV1 F+0 A20V254 D+0V1 rV2 rV6 E20V248 B0V7 C21V252 C+0V255 G20V10 E0V245 G0V8 D+20V246 C+0V11 A+20V253 G0V254 G20V254 rV2 rV4 C0V246 B20V7 rV253 rV6 C+0V244 rV255 rV6 G+20V253 C0V253 C+0V249 rV7]

$$ALL
  [F+20V253 C+0V254 D0V251 A+20V3 C21V4 C21V250 F+0V252 C0V2 E20V2 C+0V252 D+0V254 D0V254 F20V1 D0V255 D0V251 rV255 A+20V255 rV2 F+0V253 B20V253 D0V254 F+20V4 F+0V254 C21V255 C+0V249 B20V11 C21V250 G0V255 A+20V252 C+0V7 G+20V3 A0V247 B20V2 D0 B20V7 C0V245 D+0V4 B20V254 C0V3 A+20V250 F+0 C21V3 G+20V255 r G0V255 C21V254 B20V1 rV5 D+0V251 C+0 G+20V254 C0V6 D0V253 rV252 C21 rV7 C0V253 C+0V248 rV4 rV2 rV1 C0V243 rV6 C21V255]

$$ALL
  [C21V5 rV244 D0V3 rV4 G+20V255 D0V252 D0V254 C0V6 F20V254 F0V254 D0V253 rV3 F+20V1 C+0V251 A0V2 G20V253 rV4 C21V254 A0V255 G+20V255 C0V255 C21V5 E0V252 rV1 rV251 C+0V8 C21V252 E0V254 B20V254 D0V7 G+20V255 G+0V250 rV3 C0 G+20V5 F0V247 C0V4 rV254 A20V5 D0V247 E0V4 G+20V254 rV2 C21 G0V251 F+20V5 rV251 C21V8 F0V248 B20V3 C21V252 rV7 C+0V251 rV252 C21 C21V3 rV1 rV246 rV3 B20V3 rV255 D0V250 C21 C21V6]

$$ALL
  [B20V255 D0V250 r rV1 G+20V2 C+0V250 C0 r G+20V2 D0V252 rV255 rV252 G+20V4 C0V253 C0V254 rV252 C21V1 B20V255 F0V254 B20V254 C+0V254 A20V3 F0V253 B20V255 D+0V250 A+20V6 D0V252 r rV248 D0V6 G+20V254 E0V253 rV254 D+0V2 G20 E0V253 C0V255 C+0V254 A+20V3 C+0V255 D0V255 rV250 B20V9 rV251 F0 C21V252 rV3 rV255 C+0V253 rV3 rV253 rV4 rV247 rV252 rV2 G20V4 E0 D0V254 C0V251 C21V1 r C+0V253 rV2 C0V253]

$$ALL
  [A+20V6 D0V251 rV4 C0V253 rV9 B20V253 F0V3 rV255 rV3 rV2 D+0V253 C0V1 B20V2 C0V252 C0V3 C21V254 rV2 rV253 rV6 C21V254 C+0V1 C21V255 C0V7 A+20 F+0V253 A20V9 D+0V249 C0V10 rV245 F+0V6 A+20V254 C0V3 B20V4 D0V250 D0V7 G20V250 F0V2 A+20V255 C+0V253 C21V4 rV253 C0 rV255 rV3 rV253 D+0V1 rV255 rV254 D+0V253 C0V9 A20V246 G0V4 G+20V1 C0V254 D+0V2 A20V253 F+0V2 E20V4 F0V254 rV6 D0V252 D0V1 rV2 C+0V253]

$$ALL
  [C0 rV251 rV3 B20V252 D+0V255 A+20V255 rV255 A+20V5 D0V250 rV7 rV251 rV10 r F0V252 C0V4 B20V4 C0V254 E0V252 B20V6 D0V249 rV6 C0V246 rV5 rV250 rV3 A+20 D+0V248 C21V7 G+20V250 F0V6 G20V252 F0V254 G+20V7 D0V247 rV6 B20V251 E0V255 B20V254 rV1 rV250 B20V3 rV249 rV2 B20V255 B20V254 D0V1 F+20V254 D+0V5 F+20V255 G+0V254 A20V4 rV253 C+0V6 B20V246 G+0V3 C20 G+0V250 G+20V3 rV247 rV5 G20V252 D+0V251 A+20V6 C21V248]

$$ALL
  [rV8 B20V252 D0V254 C21V3 rV255 rV4 D0V248 rV4 rV254 rV2 E0V249 A20V2 C0V1 B20V254 F0V252 A20V1 r r C0V253 rV1 C21V2 D0V254 rV2 C+0V251 C21V5 C+0V250 rV1 C0V252 rV254 rV254 rV252 C21V3 rV248 rV3 B20V251 rV2 rV255 rV254 C+0V3 B20V254 D+0V2 C21V255 C+0 C+0V255 r D+0V254 C21 D+0V252 A20V1 D+0V253 B20V255 C+0V253 B20V2 rV255 C0V254 rV1 rV1 rV1 C0V254 r rV2 rV254 C0V2 C0V252]

$$ALL
  [rV2 rV253 rV1 C+0V252 C21 C0V1 B20V255 C+0V255 rV255 rV3 rV255 rV1 D0V255 B20V3 D0 C21V2 E0V253 rV2 C0V1 C0V254 C0V255 rV254 A+20V1 D+0V252 A+20V1 C0V252 A+20V3 C+0V251 C21V2 C21V254 C0V2 B20V255 D0 B20V2 C+0V253 rV2 C0V254 r C0V255 rV255 rV1 rV255 rV253 rV254 C21V1 r rV253 C+0V1 A+20V254 D0 B20V255 rV254 C0V3 A20V255 D+0V254 B20V3 C+0V250 rV3 rV253 C+0V255 rV254 rV254 B20V2 rV250]

$$ALL
  [rV2 B20V253 rV2 rV255 C0V254 B20V4 C0V253 rV3 rV252 rV4 rV253 C0 rV1 rV252 D+0V255 rV255 r rV254 D0V253 C21V1 A+20 E0V255 A+20V254 C+0V1 A20V2 E0V251 C21V2 C0 B20V3 E0V249 rV4 B20V254 D+0V1 C21V252 C+0V1 C21V1 rV252 C+0 C21V1 rV254 rV254 D+0 G20 D0V255 rV255 rV254 rV2 r rV253 C0V3 r rV253 D0V2 rV254 C0 rV253 D0V1 A+20V253 C0V254 rV1 C21V254 C+0V2 B20V253 C+0V3]

$$ALL
  [A+20V255 D+0 C21V254 C0V2 rV1 rV253 C+0V255 B20V2 C+0V1 B20V254 E0V253 rV3 rV254 rV254 C0 rV255 r C0V254 rV255 C21V255 rV255 rV2 C0V252 rV4 C21V254 C0V1 rV255 rV254 C21 D0V251 C21V5 rV249 rV3 C0V249 B20V2 C0V252 A20V1 C0V254 rV253 rV2 C21V252 D0V2 C21V252 rV4 C+0V252 rV255 r A+20V1 F0V253 C21V254 rV3 C21V252 F0V1 rV253 C21V5 E0V250 rV1 r rV255 D+0V254 B20V3 rV3 C+0V250 rV4]

$$ALL
  [rV255 rV5 D+0V248 C21V7 C0V255 r D+0V254 B20V4 C+0V1 rV252 D+0V4 A20V255 D+0V254 C21 r C0V2 C21V252 C+0V4 A+20 E0 A+20V255 C0V3 rV255 C0V254 rV3 C21 D0V255 A+20 C+0V1 B20V255 D0V255 A+20V2 C+0V253 C0 C21V255 rV2 rV252 E0V254 G20V3 C0V253 rV253 C+0V255 G20V1 D0V253 rV254 rV255 B20V1 C0V254 rV255 r C0V253 r C0 C21V255 D0V252 r r C+0V253 rV254 C0 A+20V2 F0V251 A+20 D+0V1]

$$ALL
  [A20V1 F+0V252 B20 D0V1 rV255 r C+0V254 r C0 C21 E0V255 rV252 B20V2 rV255 C+0V253 B20 rV1 C21V2 D+0V251 C21V5 rV253 C0V254 C21V2 rV255 rV2 D+0V249 A20V8 rV251 C0V1 C0V252 A+20V4 rV254 C+0V253 C21V2 rV255 r C+0V252 C21V3 rV254 rV254 C0V1 rV253 r C+0V253 A+20V5 E0V247 A+20V4 D0V252 B20V3 D0V249 rV4 B20V255 E0V252 B20 D0V253 A+20V4 D+0V249 C21V3 rV253 r r C0V254 C21V1 D+0V253]

$$ALL
  [A+20V1 D+0V255 C21 C+0 C21 C+0 C0V252 C21V5 C+0V252 A+20V2 F+0V252 G20V4 E0V252 B20V2 D0 C21 C0 C+0V254 A+20V2 D+0V254 B20V2 D0V255 A+20V1 D0V255 rV254 C21V2 C+0V253 A+20V2 E0V252 G20V3 F0V253 G+20V1 E0V254 A+20 C0 rV255 rV1 C+0V253 A+20V3 D0V253 B20 D+0V255 G+20V1 D0V255 rV254 r r C21V255 C+0V252 rV5 rV253 C0V254 C0V3 A+20V252 D+0V2 C21V255 r C0 rV254 C+0 A+20V2 E0V253 C21V255 C0V3]

$$ALL
  [C21V253 D0V2 rV253 rV2 C+0V254 B20 E0 G+20V1 F+0V253 A+20V4 C+0V252 rV5 rV253 C+0V2 C21V254 D+0 A+20V1 D0V255 rV2 rV254 C+0V1 B20V2 D+0V253 A+20V5 D0V252 rV3 rV253 rV2 rV255 rV253 rV4 C21V251 D0V3 A20V254 C0V254 C0V3 A+20V249 E0V2 G20 E0V252 A+20V3 C0V251 rV4 C21V250 C0V2 B20V255 C+0V254 C21V2 rV253 C+0V2 A+20V253 E0V3 A+20V254 F0V254 C21V1 C+0V254 rV1 C0V253 r r rV254 C0V1 rV255 rV255]

$$ALL
  [D0V1 C21 C+0V255 rV2 C0V255 rV1 rV254 C0V3 rV254 D0V2 C21V255 C+0V2 rV255 rV255 C0V2 B20V255 D+0 A+20V255 D0V1 B20V255 C+0V255 C21V1 C21 D0V254 A+20V1 C+0V254 A20V1 D0V254 C21 r C0V255 C21V1 C+0V252 C21V2 C+0V253 rV255 rV255 C+0V253 B20V2 D0V250 B20V4 D+0V250 A+20V4 C+0V252 rV2 rV254 C0V253 C21V2 C+0V251 C21V4 D0V251 rV4 C+0V253 rV1 r C0V255 C21V2 F0V253 A+20V3 E0V253 B20V3 E0V253 C21V1 r]

$$ALL
  [C+0V254 C21V2 D0V252 B20V4 D+0V250 A+20V5 C+0V253 rV2 rV254 C0 B20V2 D0V253 A20V4 D+0V252 A+20V4 C+0V252 C21V2 rV254 rV255 rV2 C+0V252 rV3 rV253 rV1 C0V254 rV254 rV1 rV253 C21V1 C+0V254 B20V1 D+0V252 A+20V1 D0V254 C21 C0V255 r rV1 C+0V253 rV2 C+0V254 rV1 C0V255 r r C0V254 rV2 C0V254 r C0V255 rV1 rV255 C0V255 rV2 rV253 rV2 rV254 rV2 rV255 r r rV254 rV2 C0V254]

$$ALL
  [C21V1 C+0V255 r r rV255 rV1 rV253 rV1 rV253 rV1 rV254 C0V255 rV1 C0V252 rV2 C0V252 C21V2 C0V253 rV1 C0V254 r rV1 C0V253 rV2 rV253 rV2 C0V253 rV1 r C0V254 rV2 rV254 rV2 C+0V253 C21V1 D0V255 C21 C+0V255 C21 C0 rV254 rV2 rV254 rV1 C0V254 C21V1 rV255 rV255 C21V1 C0V254 C21V2 C+0V253 B20V2 C+0V253 r C0V255 rV254 r rV254 r C0V253 r C0V255 rV254]

$$ALL
  [C0 rV255 rV255 C0V255 r rV255 rV255 C0 rV255 C0V1 rV254 rV1 rV255 rV1 D0V255 C21V1 C+0 r r rV255 rV2 rV254 r C0 C21 C0V255 rV255 r rV254 rV1 rV255 rV255 r rV254 r rV254 r C0V254 rV255 r rV254 r rV253 rV2 rV253 rV1 C0V254 r rV255 r rV255 r r rV255 rV255 C0 rV254 rV2 C0V254 rV2 rV254 rV2 C+0V253 C21V2]

$$ALL
  [C0V254 rV1 C0V255 r rV255 rV255 r rV254 rV1 rV255 r r rV255 r rV253 rV2 C0V254 r rV255 rV255 rV1 rV252 rV3 rV255 rV255 rV255 rV255 C0V2 C21V253 D0V255 rV1 C0V255 r C0V253 rV1 rV255 rV255 C0 rV255 r rV255 C0V2 rV254 r C0 r rV255 B20 D0 rV1 rV253 rV2 r rV1 rV253 rV2 rV255 rV1 C0V252 rV3 rV254 C21 C0V252 rV2]

$$ALL
  [rV253 rV255 rV255 r rV253 rV255 rV1 rV255 r rV254 C0V1 rV254 rV255 r rV255 C0V1 C21V253 D0V2 r rV254 rV2 rV254 C0V3 rV253 D0V2 r C0V254 rV1 C0V254 rV2 rV254 C0 r r C21V254 rV1 r C0V255 rV255 r C0V1 B20V253 C+0 C21V3 C0V251 rV1 rV254 rV255 r r rV1 rV254 C+0V1 rV254 r r C+0V253 rV3 rV253 C+0V1 rV255 C0V252 rV5 rV251]

$$ALL
  [C0V1 rV254 r r rV254 r rV255 rV1 r C0V253 rV1 rV255 C0V2 rV251 C+0V5 C21V253 C0 rV255 r rV255 r E0 A20V1 rV251 C0V5 rV253 rV254 rV1 C+0V3 A+20V254 C+0V252 rV3 rV3 B20V248 E0V3 rV5 C21V252 C0V3 C21V251 E0V5 F+20V251 F0 B20V4 C+0V253 rV1 rV254 G+0V3 G20V254 E0V253 G20V255 A+0V3 F+20 rV246 D+0V6 C21 C0V254 G+20V251 G0V250 C21 A20V250 rV254 C0V1 B20V1 rV249]

$$ALL
  [C0V6 B20V250 F0V4 F20V253 A+0V2 C21V3 D0V252 B20V2 C0 C0V255 B20V253 C0V1 B20V5 C0V251 C+0V254 A20V255 F+0 F+20 F+0V248 F+20V9 D+0V247 rV2 rV251 rV3 rV2 rV250 C+0V4 B20V254 F0V3 A+20V250 D0V4 r rV248 C+0V2 G20V1 F+0V254 F+20V1 F0V241 rV12 A20V247 rV254 rV9 rV245 D0V5 F20V251 F0V7 A20V248 E0V7 F+20 G0V254 B0V3 C+20 F+0V3 G20V252 F1V253 D+20V9 C+0V246 rV1 r D0V3 F+20V253 E0V250 D0V12 A+20V248]

$$ALL
  [rV1 D0V253 C0V6 C0V253 F20V1 B0V249 A20V14 C0V246 E20V252 E0V7 A20V7 C21V254 D0V248 C0V9 D0V2 F20V251 C+1V246 C+20V16 G+0V248 F+20V3 D+0V242 C0V20 B19V242 F+0V3 G20V8 D+0V253 G20V5 F+0V249 C21V19 rV238 F0V13 rV247 rV6 E0V243 F+20 G0V6 D20V251 G+0V244 A+20V12 A+20V255 rV254 C+0V1 rV253 A+20V4 G0V249 F20V4 F0V246 B20V13 C0V244 A20 D0 A+20V2 rV3 B20V245 A+0V10 G20V252 D+0V255 A+20V254 D+0 D0V254 D+20V246 A0V6 F20V1 F+0V247]

$$ALL
  [F20V7 F0V1 A+20V254 G+0V252 F+20V8 C+0V254 F+0V252 A+20V254 E0V2 G+20 G+0V248 E20V8 G0V247 G+20V4 D+0V252 A+20V4 E0V250 C21V6 D0 A+20V254 E0V254 C0V9 E20V249 C1V252 F+20V12 C+0V244 B20V14 E0V243 rV13 rV250 C+0V5 C0V254 D0V2 r rV253 E0V6 rV249 C21V4 C0V251 D+0V4 G+20V251 rV5 E0V254 A+20V254 D+0V3 A20 F+0V251 A+20V4 rV255 C0V252 C+0V255 G+20V2 rV1 D0V250 r rV1 r C0V251 C21V5 rV252 B20V254 D0V255 A20 D0V253]

$$ALL
  [A20V255 D0V4 C21V252 D0V2 E20 G0V255 rV254 A+20V251 C0V3 C21V1 D0V250 G+20V1 G+0 C+20V1 G+0V246 B20V7 rV249 C21V7 rV249 E0V255 G+20V3 C+0V1 B20V252 G+0V252 G+20V6 rV252 C+0V1 C+0V253 C21V2 C+0V255 r rV255 E0V255 rV3 rV254 C0V4 D0V253 C21 rV2 C+0 rV255 rV254 C+0V3 rV253 C+0V1 rV254 C0 C+0V1 C21 F+0V252 G+20V4 C0V254 B20V1 F0V248 C21V5 A+20V255 C+0V1 rV253 r rV2 rV254 C+0 B20 C+0]

$$ALL
  [A20V1 D+0V255 rV255 rV255 B20V4 C0 C0V253 r rV3 rV1 rV254 rV255 rV2 C21V255 rV1 rV254 C0V1 A+20V1 rV255 C0V255 C21 rV1 B20 D0V251 C21V4 C21 rV255 r C0V253 B20V3 C0V253 rV3 C+0V252 rV1 C0 B20V1 D0V254 B20 C+0V1 r D0V252 rV1 rV254 rV2 rV253 C+0V1 rV255 r C0V255 rV254 r C21 C0V255 rV255 r C0V254 rV3 C0V251 rV3 B20V255 C0V254 rV255 C21 rV255]

$$ALL
  [rV254 rV1 r rV255 C+0V254 A+20V3 rV253 C0V2 rV252 rV1 rV254 rV254 rV1 rV253 rV2 rV253 C0 rV253 C21V1 B20V2 C+0V251 rV2 A+20V253 C+0V4 rV250 C+0V2 G+20 F0V252 rV1 G+20V250 F+0V1 G+20V3 rV253 E0V250 C21V7 rV250 rV4 C0V251 C0V1 A20V2 D+0V253 rV4 rV247 C+0V12 rV247 D+0V5 C21V252 E0V2 rV1 rV248 C+0V4 C21V252 rV5 rV248 D+0V2 rV255 A+20V254 F+0V1 G+20V255 F0V2 G20V254 G0V255 B20V1 C21V254]

$$ALL
  [E0V255 B20V1 G+0V251 F+20V4 D+0V251 rV3 C21V253 D+0V1 G+20V3 D+0V251 B20V2 D+0 G20V2 E0V254 rV2 rV255 rV255 F0V255 A+20V255 C0 C21V2 rV254 D0V255 B20 D+0V254 A+20V2 rV249 C0V5 G+20V252 F0V1 A20V255 F+0V249 F+20V12 C0V245 D0V9 C21V246 D+0V7 A20V253 F0V255 A20V2 E0V251 C21V6 C0V248 C0V5 rV249 rV6 rV252 D0V1 rV254 rV255 rV1 C+0V252 C21V2 rV251 rV1 D0V252 A20V2 D+0V251 rV3 rV251 D0V1 B20V1 D0V249 B20V6]

$$ALL
  [C0V247 rV8 A+20V247 F0V3 G+20V1 C+0V250 rV8 rV245 C0V11 A20V248 F0V4 B20V252 C0V1 rV2 rV252 D0V2 A+20V253 D+0V2 B20V254 C+0 r r C0 rV254 C+0V1 C21 rV2 C0V253 C0V1 rV255 C21V1 E0V254 A+20 D+0 A+20V255 F0 A+20V255 D0 rV255 rV1 C0V255 r D0 A20V1 E0V255 A+20 D+0 B20V1 C+0V255 r rV255 C+0V255 C21V1 C+0V253 rV2 rV253 r rV1 rV253 rV2 C+0V254 C21V1 D0V252 B20V2]

$$ALL
  [C0V253 rV1 rV255 rV254 C0V1 rV254 rV3 rV253 C0 r rV254 r rV254 rV1 rV254 r C0 C21V1 C+0V254 B20V2 D0V255 C21 C+0V253 rV1 r C+0V253 rV3 rV254 rV255 rV255 r rV255 C+0V254 r rV252 C21V4 rV251 rV4 rV252 C0V2 C21 D0V255 C21V255 D0V254 C21V3 C0V252 r rV254 rV1 rV253 rV255 r rV255 r C0V253 r rV254 r C21V254 C+0V255 B20 C+0V253 C21V1 C0V253]

$$ALL
  [C21V3 rV252 rV1 rV254 r rV254 C0V255 rV1 rV253 r rV255 rV1 rV255 r r r r C0V255 r C0V254 C21V2 C0V254 rV1 rV254 rV1 C0V255 rV255 r r rV255 C0V255 r rV1 rV255 C0 rV255 r r r r r C0V255 rV255 r r rV255 C0V255 C21V255 C+0 C21 C0V255 rV1 C0V255 r C0V255 r r rV255 rV255 rV255 rV255 rV255 rV255 r]

$$ALL
  [rV255 r rV255 r rV255 rV255 rV255 rV255 r rV255 rV255 r rV255 r rV255 rV255 r r rV255 rV255 r r rV254 r rV255 r rV255 r r r C0V255 r rV255 r rV255 rV255 r rV255 r rV255 r r rV255 r rV255 rV255 r rV255 r rV255 rV255 r rV255 rV255 r rV255 rV255 C0V255 r rV255 r rV255 r rV255]

$$ALL
  [r r rV255 rV255 r r r C0V255 r rV255 r rV254 rV1 rV255 r rV255 r r r rV255 r r r rV255 r rV255 rV255 r rV255 r rV255 r rV255 rV255 r r rV255 rV255 rV255 r rV255 r rV255 r rV255 r r rV255 r rV255 rV255 r rV255 r rV255 rV255 r rV255 rV255 r rV255 r rV255 r]

$$ALL
  [rV255 r rV255 rV255 r rV255 r rV255 r r rV255 r rV255 rV255 r rV255 r rV255 r rV255 rV255 r r r rV255 r r rV255 rV255 rV255 rV255 r rV255 r rV255 r rV255 rV255 r r r rV255 r rV255 r rV255 r rV255 r rV255 r rV255 r rV255 r rV255 r rV255 r rV255 r rV255 r rV255]

$$ALL
  [r rV77 E4 C6V75 D+4V5 rV44 A12 r rV255 rV255 rV255 rV255 rV255 B20V254 D20V240 G+20V233 C19V227 D+19V210 D16V194 D16V186 G+16V189 D18V160 B11V10 F+16V199 B0V34 G+20V7 A2V48 F5V76 F7V97 A+8V112 G9V116 G9V116 D+9V115 D9V105 F+7V86 C7V82 E5V45 A2V19 rV249 G+18V226 C17V194 A+14V173 A13V159 A+12V153 F12V152 A+12V151 B12V159 D+13V165 G+13V171 G14V176 G15V190 G+16V207 F17V220 A18V235 F20V251 C+0V5 D1V21 E2V33 E3V41 D4V59 G+4V61 A5V74 D6V83 A6V84]

$$ALL
  [G7V88 E7V91 D7V87 D+7V87 C+7V84 B6V80 G+6V77 E6V74 A5V68 C+5V59 F+4V50 F3V40 G2V28 F1V15 G+0V5 A20V247 A+19V234 C19V225 C+18V214 D+17V205 G+16V199 D+16V194 C16V191 G15V188 G15V190 A15V191 A+15V191 B15V193 E16V198 G+16V203 B16V205 F17V211 B17V219 D+18V223 G18V228 C+19V233 F+19V237 A19V240 C20V242 D+20V245 E20V247 F+20V248 G20V250 A20V251 A+20V252 C21V253 rV254 rV255 rV255 rV255 r r E6V50 rV84 F6V54 rV5 B12 G3 C0V255 rV255 rV255 rV255 rV255 r]

$$ALL
  [rV253 G+8V108 D+9V58 D7V147 C12V171 A12V223 C17V6 B4V55 A+3V23 E0V20 E1V121 C9V69 G+0V230 E19V180 A11V176 C17V220 E3V32 D+13V146 D13V162 F18V248 B0V39 G+8V107 G+5V62 G+5V67 G+6V84 C+0V27 A+15V149 C+12V172 D17V178 A+19V192 E16V228 G18V220 F+2V59 B5V100 C+10V125 C+7V18 B18V233 F+16V156 G13V146 C+18V178 F+13V246 F+17 F+0V78 E4V37 E2V72 A4V90 C8V82 G+5V248 C19V208 D13V172 D14V156 B13V214 G+17V7 G0V18 D4V65 A+7V104 G+7V60 C7V56 F0V13 D17V198 C16V165 F13V169 C+13V177 C+18V207]

$$ALL
  [C+0V42 G3V75 F+6V91 G+6V66 C5V48 A0V227 B15V198 D+14V175 A+15V183 B17V211 rV12 F+2V22 B2V47 F+2V38 F+2V44 D+2V42 D1V250 C+0V221 D17V213 E16V206 D+17V196 C18V231 A20V243 E2V36 D+5V47 F4V28 F+2V24 B20V11 B19V235 B17V208 C18V219 A+18V231 G+20V242 A20V10 C20V11 A+2V28 D+1V15 D1V13 C+1V253 A20V235 D0V243 D+20V232 D20V231 G+17V214 F19V224 A0V243 A+1V17 G+2V36 B2V24 D0V13 F+19V247 E20V223 E19V246 A19V245 C20V238 rV15 D20V1 D0V11 rV4 D0V252 rV11 E1 G0V249 B20V4]

$$ALL
  [rV245 A+20V226 F20V239 G+20V250 G+20V6 A0V3 F+1V247 rV252 E0V242 G20V245 D0V242 D20 D+0V254 C20V247 rV6 D+0V6 C20V12 D0V2 rV249 A1V254 F20V251 B19V8 F+0V2 B20V6 E20V251 D20V255 C21V248 G20V1 A20V7 rV12 B0V255 rV241 C21V244 F+20V251 D0V12 E0V254 A20V1 F+20V246 D0V2 A+19V248 D+20V1 F0V12 C+0V16 D+0V255 rV252 C0V246 C21V248 F20V250 D20V255 D+0V255 F0V12 F+0V4 C21V250 rV10 A+20V252 C21V252 A0V3 B20V8 C0V244 B20V252 G+20V252 B20V247 C21 C0V2]

$$ALL
  [A0V17 A+0V255 C+0 G20V251 A+20V254 B20V5 rV251 F+20V251 rV5 rV3 A+20V1 D+0V5 C+0V5 C+0V3 B20V244 rV250 C+0V246 C+0V252 F0 rV251 A20V254 rV255 rV3 C0V9 A0V3 D0V254 F+20V2 G20V250 C21V250 rV251 C+0 E0V1 G0V254 C21V255 rV254 C+0 C+0V4 F0V1 rV1 B20V253 rV253 C21V252 B20 C21V1 F0V2 D+0V1 D+0 D0 rV252 rV254 C0V252 rV1 rV253 rV253 C21V1 C+0V1 C+0 C+0 C0V1 C+0V255 rV255 rV252 C21 rV255]

$$ALL
  [rV255 C0 rV2 rV1 rV255 C0V1 rV1 C0 rV254 rV254 rV255 rV255 C0V255 C0V1 r rV1 rV255 rV1 r r C0V255 rV255 rV255 r r C0 rV1 r rV255 rV255 rV255 rV255 r r r rV255 rV255 r r rV255 r rV255 rV255 rV255 r r r r r rV255 G6V48 rV95 A6V48 F+4 rV156 rV44 G0V1 rV255 rV255 rV255 rV255 rV255 r G18V78]

$$ALL
  [C7V84 C5V65 B14V173 G+17V179 D19V217 A+20V45 F+3V35 B20V4 B3V12 C+7V81 E1V7 A+18V239 A15V170 E15V218 A19V30 F+19V184 G14V183 A+13V230 D+2V9 E4V78 C+6V51 D3V52 G+5V61 C+6V1 A+1V207 C21V173 A+15V219 G16V243 D17V212 G+17V232 A+19V23 B2V54 G6V91 F+6 G3V235 D+1V213 E15V186 C18V227 F17V186 G18V222 A+0V5 C5V39 B4V22 D7V43 B3V73 D5V52 F+0V236 D+18V183 G16V192 D+15V190 D18V223 E0V6 F0V39 C+4V71 C5V70 A+3 D+2V4 G+19V219 G+17V209 F15V186 D+15V183 E16V228 G19V2 E3V33]

$$ALL
  [G4V60 C+5V60 G+3V45 F+1V8 A18V207 D+16V193 A+16V207 C17V226 G+19 A+0V23 F1V27 F3V23 G+1V23 C3V20 B2V11 A+20V1 E19V219 C19V212 G17V220 G18V226 F+19V251 B1V22 C3V47 A+2V40 E1V23 rV252 D20V244 C+19V226 C19V227 G19V234 G+19V250 E20V252 rV245 E1V26 F1V12 G+0V11 C21V10 B0V251 C21V2 E19V247 F19V247 G+19V224 B18V240 C20V8 C1V18 G2V24 E2V27 D+0V2 A20V240 C+20V248 F+20V239 F+20V242 G20V244 A+20V255 C0V246 rV2 r B0V2 B0V254 A20V13 rV5 F20V253 rV254 D20V252]

$$ALL
  [D+19V248 F20V251 F0V251 D1V7 F1V14 G0V255 A+20V3 C21V250 F20V2 E0V246 C+0V3 A20V244 A+19V255 rV3 A+20V245 C0V2 G+0V255 D+0V16 E0V249 E0V244 rV5 E20V253 rV247 D+20V246 D0V254 B20V250 F0V251 C+0V254 F+0V9 D+0V254 G+20V254 B20V249 C20V2 F20V4 C21V251 C0V249 C21V3 D0V242 A+19V248 C0V5 E0V1 F+0V3 D0V254 rV1 G+20V254 G+20V248 A20V246 rV3 D+0V4 rV5 E0V253 G20V255 F+0V253 C21V254 D0V7 A0V254 rV1 rV253 B20V251 A+20V253 A20V253 D+0 C0V7 G+0V8]

$$ALL
  [rV2 C0V250 rV252 rV253 F+20V255 B20V249 rV255 rV255 rV252 D+0V3 rV1 E0V1 C0V253 C0V255 rV2 C21V2 rV5 G+20 A20V252 C21V255 r C+0 E0V7 G+0V2 rV250 A20V250 rV253 rV254 C21V1 rV4 C+0V6 rV254 rV255 A+20V1 C0V1 C+0V4 r rV252 rV254 A20V254 C0V253 C0V253 rV4 E0V3 D+0V3 rV2 C0V255 rV255 r rV254 rV255 r rV254 rV1 C0V1 C0V1 rV1 C0V2 rV254 rV255 rV253 rV255 rV255 rV1]

$$ALL
  [rV255 C0 rV255 rV1 r rV1 rV255 C21V255 r r rV1 C0V1 r rV255 rV255 rV255 r rV255 rV1 rV255 rV255 rV255 r C0 r r r rV255 rV255 rV255 r r r r r r r r rV255 r rV255 rV255 r r rV255 rV255 r r A+6V80 F0 A+6V82 E5V53 B20 G3 rV8 rV255 rV255 rV255 rV255 rV255 rV255 rV235 E4V56 C+3V40]

$$ALL
  [G19V205 D17V227 G18V239 D+19V252 F1V28 C2V253 C2V32 D+5V57 F5V11 G20V237 B19V212 C18V208 F+19V244 G0V242 D+16V202 G16V197 G18V19 G0V35 C+5V49 A3V26 G3V46 F+3V49 G0V14 G17V254 A+16V213 A+17V218 F+18V224 A+19V227 F18V245 A1V24 B3V53 D5V52 D1V29 D19V10 E17V208 G16V230 G+17V225 A17V235 G20V7 D1V40 C3V40 A+2V58 G2V31 D3V42 D+2V5 B17V232 G16V219 G17V208 C18V231 E20V3 A20V3 B3V33 F+3V40 C3V31 A2V19 C+0V243 D18V227 D+18V209 D17V208 F+17V216 D+19V242 B0V27 F+2V37 G2V41]

$$ALL
  [E3V30 C2V13 A20V236 A18V216 G+17V221 A+18V222 C20V243 F20V7 C1V12 C+1V28 A+0V14 A+0V25 D+1V24 F+0V252 C20V241 C19V238 A18V226 G+18V234 B19V242 D+20V15 C+2V24 F+2V23 D2V11 G0V255 rV247 C+20V239 G+19V238 A19V243 A19V243 rV248 C+0 D+0V11 E1V12 A+0V6 B0V254 C1V7 rV254 G+20V240 C+0V241 F20V244 F+19V238 D20V246 F+20V8 D1V21 E1V19 A1V2 A+20V252 E20V246 A20V250 A19V249 A+20V251 A20V253 C0V1 B20V255 rV255 rV8 G0V8 D+0V252 D+0V254 C21V249 A20V255 G20V247 G20V240 A+20V249]

$$ALL
  [F20V4 rV10 D+0V12 F0V5 B20V253 C0V254 rV250 rV3 rV1 A20V252 D0V244 rV255 C21V252 A20V1 E0V6 F0V2 C+0V3 A20V3 A+20V255 A+20V248 A+20V255 C+0V248 A+20V2 G20V253 rV4 rV1 F+0V5 G0V2 C21V252 A20V253 C0V246 D+0V249 D+0V254 r D0V254 C21V2 G+20V245 A+20 F0V3 D+0V4 E0V2 C21V254 A+20V251 B20V251 G+20V252 C+0V255 D0V2 E0V255 rV3 A+20V250 rV4 C0V254 rV2 rV7 C+0V254 A+20 A+20V253 C21V253 rV252 B20V2 C+0 D+0V6 C0V255 rV1]

$$ALL
  [r r C+0V250 rV253 C21V254 rV254 rV255 rV3 D+0V255 D+0V3 C0V1 rV1 A+20 rV254 C0V255 C0V251 C21V252 C21V253 r C0V1 C0V4 C+0V6 C0 rV252 C21V255 A+20 C0V254 r C+0V1 C0V255 rV255 rV253 C0 C0V1 C+0V255 rV255 rV255 rV252 B20 rV1 r rV3 C0V2 rV255 rV1 rV255 rV255 rV255 r r r rV254 C0 r C0 r r rV254 rV255 rV255 r rV255 rV255 r]

$$ALL
  [r C0 r rV255 rV255 rV255 r rV255 rV255 r r r r rV255 r r rV255 rV255 rV255 rV255 rV255 r r r rV255 rV255 r rV255 rV255 rV255 rV255 r rV255 r r rV255 r rV255 rV255 r rV255 rV255 r r rV255 r rV83 C+4V5 B6V83 F4V65 E4V110 rV44 B12 r rV255 rV255 rV255 rV255 r rV255 B0V26 D2V19 G20V246 B18V231]

$$ALL
  [A+19V240 F+20V244 C0V9 D1V13 C0V12 C+1V32 D2V32 B0V251 B20V248 D+19V236 G19V245 C+0V4 B19V226 B18V228 B19V240 G+0V3 D+2V31 C+2V23 G0V22 F+1V21 C1V3 rV234 rV229 C20V235 A+20V239 B19V247 B20V239 E0V11 B1V23 E2V31 G1V7 D0V243 rV232 D+19V228 C20V234 E19V234 C+20V252 C+0V7 G1V19 C+1V17 C+1V16 B1V19 D+1V14 C+0V236 A+19V228 D19V234 D19V237 G+20V251 C21V253 C0V24 C2V21 G1V19 A+0V16 D+0V1 B20V237 A19V237 F19V231 D+19V234 A19V244 D0V6 A+0V15 F1V15 A1V20 F+1V12]

$$ALL
  [F0V253 G+20V240 G+19V234 E19V241 B19V248 rV251 G0V6 F0V7 F+0V5 E0V5 A+0V8 E0V3 C0V249 F+20V242 C20V241 B19V240 E20V248 B20V250 F+0V13 C+1V15 B0V13 B0V4 rV255 rV249 F20V247 A20V247 D20V247 G20V255 C21V1 rV2 G0V8 D0V5 F+0V6 rV6 C+0V255 rV253 G+20V1 rV250 A20V245 A+20V249 G20V251 D0V8 G+0V9 A0V11 D+0V253 rV250 A20V252 A+20V247 A+20V254 C21V253 r B20V253 C+0V255 C0V255 rV4 D0V2 D0V2 C+0V254 rV253 rV252 F+20V252 G+20V254 rV251 r]

$$ALL
  [D+0V2 F0V3 D0V254 r B20V254 C+0V255 rV255 C21V252 rV1 C0 C+0V254 rV252 rV2 rV3 rV1 rV253 rV253 rV253 rV253 B20V1 rV253 rV252 rV255 C+0V255 D0V3 rV4 C0V254 rV253 B20 C21V2 B20V2 rV255 rV1 rV254 B20V252 B20V253 C0V3 C+0V2 C0V2 D0V254 rV253 rV253 A+20V252 C21 rV1 C0V2 C21 rV253 rV255 r rV255 C0 r rV254 rV253 rV254 rV255 C+0V254 rV1 rV2 C+0V1 r C21V254 rV255]

$$ALL
  [rV1 rV255 rV254 rV255 rV255 rV255 C+0V2 rV2 r r rV253 rV255 C0 r rV254 rV254 rV255 C0 rV1 D0V1 C0 rV255 C21V254 rV253 r r rV1 C0 r rV255 r r r r r rV255 rV254 r r rV255 r r r rV255 rV255 rV255 rV255 rV255 r rV255 r r r r rV255 rV255 rV255 rV255 r r rV255 r r r]

$$ALL
  [rV255 rV255 r rV255 rV255 r r rV255 r r rV255 rV255 r r rV255 r rV83 C+4V5 B6V83 F4V65 C+4V53 E0 rV156 r rV255 rV255 rV255 rV255 rV255 rV255 rV6 C1V13 F+0V252 C+20V242 E20V247 A+20V251 r F0V7 D0 C+0V6 D1V14 G0V6 B20V253 F20V244 F20V246 A+20V1 D0V248 C+20V242 D+20V247 rV5 E0V14 C1V13 F+0V4 G0V10 A0V6 D0V255 C+20V255 E20V249 F20V253 F+20V247 B20V254 A+20V2 F+0V11 B0V14]

$$ALL
  [D1V9 C+0V2 C21V255 D20V244 C+20V248 F20V244 rV249 G0V1 G+0V10 D+0V7 G0V7 A+0V12 A0V7 rV1 A20V247 E20V244 D20V243 A20V252 rV254 C+0 F+0V12 C1V9 F+0V5 F+0V2 C0V254 G20V247 D+20V245 E20V244 F20V247 A20V1 E0V5 G+0V9 A+0V11 G0V9 E0V3 B20V252 G20V246 E20V244 F+20V248 A20V255 C0V4 C+0V3 E0V3 E0V2 E0V5 E0V2 r A+20V251 A20V248 A20V247 G20V250 B20V254 rV3 D+0V7 E0V6 D0V5 D0 C0V255 C21V250 A20V253 A+20V249 C21V252 rV254 C0V255]

$$ALL
  [C0V4 D0V1 C+0V3 C0V255 rV1 C21V255 rV252 C21V255 C21V253 A20V253 B20V252 rV1 C+0V4 D+0V5 D0V2 C0V255 rV253 A+20V253 rV253 rV254 C21V254 C0V254 rV1 C0 r rV1 C0V1 rV1 rV255 rV255 rV251 B20V252 rV255 rV255 rV2 rV3 rV2 rV255 rV254 r r rV254 rV255 r rV1 r C0V255 rV255 r r rV255 rV255 r C0V254 rV255 rV255 r rV1 rV1 C0V255 rV1 r rV253 rV254]

$$ALL
  [C0V254 rV255 rV255 rV255 rV254 rV254 r C0V1 C+0V1 rV1 r rV255 rV254 rV255 r r C0V254 rV255 rV255 C0V255 rV254 r r C0V254 r rV255 rV255 rV1 rV255 r C+0V1 r rV254 rV255 rV255 rV255 rV255 r r r rV1 r r rV255 r r r rV255 rV255 rV255 rV255 r r C0V1 r rV255 rV255 rV255 rV255 rV255 rV255 rV1 r rV255]

$$ALL
  [r r r r rV255 rV255 rV255 rV255 rV255 r r r rV255 rV255 r r rV255 rV255 r r r r r rV255 r rV255 r rV255 rV255 r E6V50 rV84 A+7V54 G6 F+3 rV8 rV5 G6 rV255 rV255 rV255 rV4 F+0V231 A+15V228 A2V253 C2V69 G+1V242 C+0V230 D+15V213 F18V226 C+3V48 C+4V27 D+20V220 F+17V212 B18 F2V34 C+3V34 C21V239 A17V224 A18V243 F+2V37 G2V34 D+1V247 B17V222]

$$ALL
  [B18V232 F+0V31 G+2V38 F2V5 E19V215 A+17V229 B20V18 C3V37 A2V23 F+20V223 B17V217 A+18V249 F+2V44 B2V33 C1V238 E18V216 A+17V233 F+0V27 E3V38 C+2V10 F+19V216 D+17V219 D+20V9 F2V38 E2V22 F0V242 G18V212 C18V239 C+1V39 E3V28 F+0V247 G19V233 D19V233 F+20V249 E1V30 E2V25 A0V253 D+19V226 A18V236 G+20V3 F+1V26 C+2V22 B0V249 D19V223 D18V236 B20V15 G+2V34 G2V22 rV235 D18V210 D18V242 A+0V32 A+3V41 D+2V11 G19V220 A+16V208 F19 G2V46 D4V38 D1V253 D18V203 A16V214 C21V22 B3V53]

$$ALL
  [C+3V24 rV236 F+17V204 G17V231 B0V33 D4V46 C2V11 C+20V229 A+17V212 F+18V239 D+1V32 F3V43 C+2V9 C+20V226 A17V211 A+18V246 D+1V33 E3V43 D2V11 A+19V219 G+16V205 A+18V253 G2V48 C+4V43 F+1V254 F+18V206 A16V213 C+20V11 C+3V47 A3V36 B0V245 A17V201 C17V220 C+0V25 G3V48 B2V22 B20V234 A+17V209 F18V240 A0V24 G2V27 F+1V13 C+0V247 D19V226 A18V235 C0V13 A+1V23 F+1V16 F+0 C+20V234 G18V224 G+19V249 D1V31 D+3V40 A+1V5 C19V214 E17V214 B19V5 F2V40 F+3V38 D+1V253 F18V206 A16V215 G20V18]

$$ALL
  [G3V49 D3V26 C0V242 F18V213 B17V228 rV17 G+2V36 D+2V18 D0V247 E19V226 G18V231 G20V5 G+1V27 F2V26 D1V3 G+19V225 D18V224 C+20 F+1V26 F+2V29 G+1V10 D+20V228 G17V212 D19V249 B1V37 E3V36 F1V2 F19V222 A+17V218 G+19V255 B1V35 C3V31 C+1V1 A19V228 E18V223 G+19V252 E1V27 F+2V26 C1V4 F+20V240 D+19V229 E19V241 C+0V14 D2V29 C2V18 D0V248 C19V221 D18V227 A20V13 A2V40 A+2V25 C+0V243 F+18V215 C+18V229 C21V15 A2V39 A2V23 C0V242 F+18V218 E18V231 rV14 F2V33 D2V18 D0V249]

$$ALL
  [G+19V232 C19V231 D20V254 C1V22 D+2V27 F1V9 F+20V235 F+18V222 D19V243 G0V21 G+2V36 E2V18 A+20V234 A+17V211 E18V237 A0V27 F3V42 F+2V16 F20V230 A17V212 A18V241 C1V27 C+3V35 G+1V9 E20V235 A+18V227 F19V242 C+0V12 B1V26 A1V16 D0V250 A+19V233 D19V233 D+20V253 C1V21 D2V26 F1V8 F20V235 F18V220 C+19V244 C1V28 C+3V37 A1V8 C20V230 D+18V220 D+19V246 C1V25 A+2V32 G1V7 D+20V234 B18V228 A19V248 G0V16 G+1V21 C+1V8 rV249 C20V238 G+19V240 G20V255 A0V15 G1V21 E1V10 A+20V240 B18V224]

$$ALL
  [C+19V240 F0V19 G+2V34 C+2V14 G+20V236 F18V219 A+18V240 F+0V22 A+2V35 B1V11 F+20V236 A18V225 E19V243 D+0V15 C2V25 F+1V12 rV250 C20V237 F+19V237 E20V254 A+0V17 A+1V22 D+1V8 A20V240 B18V225 D19V242 F0V19 G+2V34 C2V13 G+20V236 F+18V221 C19V241 F+0V20 G2V32 A+1V11 G20V238 C19V228 G19V244 D+0V13 G1V21 D+1V10 C0V251 D20V240 G+19V239 F20V77 E0 C8V116 A9V105 rV190 B8 C9 C0V255 rV255 rV255 rV255 rV255 rV85 C+14V170 C14V170 C7V85 C+14V85 E8V170 C7V85 A8V85]

$$ALL
  [F7V85 G+13V85 C7V170 E12V170 C7V170 C+14V170 C+14V86 C+14V150 C7V101 C7V170 C7V170 C7V85 C+14V86 F7V85 C+14V85 C+14V90 C14V170 C7V85 C+14V85 E12V170 C7V85 C+14V85 C+14V170 C+14V170 C+14V150 C7V170 C15V149 C7V165 G+3V169 G+3V85 C7V170 E12V101 C+14V170 A14V86 C+14V86 C+14V85 C+14V85 C7V85 E7V85 A8V85 E14V85 F7V85 A8V171 A8V169 C+14V85 F+7V170 A8V85 G13V148 E14V255 rV192 A+3V82 G16V183 A19V255 rV255 C7V77 A8V138 rV3 D+20V107 D14 D14V127 G0 rV68 B10V106 D5V255]

$$ALL
  [rV255 C12V23 C15V223 F+0 rV1 G+3V146 C21V23 B19V255 G9V50 E15V126 G+1 rV200 rV250 r A+17V251 rV168 E10V255 rV255 G3V39 B5V255 D1 rV129 D+1V150 rV5 G20V255 D+20V22 rV255 rV248 B19V126 rV255 F+9 rV120 B7V88 F+20V252 G10V255 D+5V90 C+6V159 F+2 rV1 G2V200 A+11V255 rV252 D0V178 F11 rV7 G20V127 A11 C3V128 r rV128 G+5V192 C0 rV31 G10V255 r r rV255 rV252 F+0 rV255 rV255 rV255 G10V254 A20V15]

$$ALL
  [rV31 B20V7 F+15V37 r rV31 G0V214 D5 A+3V129 G+13V255 rV244 E17V168 F19V253 B7V30 rV159 F4V47 E14V82 A+9V34 G+15V66 C+14V178 C12V180 G+5V104 F3V178 A16V93 A2V166 C7V41 G+13V117 D+19V213 G12V170 C+7V138 D15V132 D10V173 G0V237 A6V161 D18V149 C14V85 A6V204 A+16V85 C+6V219 G+16V170 A8V85 C7V89 C+4V85 A6V109 C14V86 A8V83 A8V181 C14V91 C+14V205 A8V83 E14V37 C+15V82 F3V218 C14V74 C+15V41 E14V203 A+6V170 F7V146 E14V84 C+14V170 E12V170 C7V170 C7V85 C+14V52 A14V85]

$$ALL
  [C7V169 E4V148 E14V85 E12V210 A+6V170 A+6V85 C+14V85 C7V165 C+14V170 C7V149 C+14V170 C7V85 C+14V86 G+13V170 C7V170 C7V85 C+14V90 G+13V170 C14V170 C+14V85 C+14V86 C+14V101 C7V85 C+14V85 C+14V85 C+14V170 C7V85 C+14V85 C+14V85 C+14V170 C7V165 A8V165 C7V170 C7V170 C7V106 E12V170 G+13V90 C+14V86 C7V165 C+7V85 F7V165 C+14V170 C7V170 F7V85 C14V170 C7V170 C7V170 C7V85 C+14V170 C7V170 C7V170 C+14V170 C14V170 G+13V85 C+14V85 C+14V170 C7V149 C+14V85 C7V170 C+14V86 C+14V170 A8V85 C+14V85 C+14V90]

$$ALL
  [C7V170 F7V85 F7V85 A8V85 A8V149 C+14V85 C7V149 C+14V85 C+14V90 C+14V86 C+14V85 C+14V85 C7V170 C7V85 C+14V86 E12V170 G+13V86 C+14V85 C+14V85 C+14V170 C7V170 C7V170 C7V170 C7V170 E8V85 C+14V85 C+14V85 C+7V85 A8V165 C7V85 C+14V106 C14V170 C7V170 C14V170 C14V170 E12V170 C7V85 C+14V86 G+13V85 C+14V85 C7V170 C7V170 C7V165 A8V85 C14V170 E12V170 C7V85 C+14V85 G+13V170 C7V85 C+14V86 C+14V85 C+14V85 C+14V106 E12V170 C+14V86 G+13V170 C7V85 C+14V85 C7V170 E12V170 C7V170 C7V169 C+7V85]

$$ALL
  [A8V85 C7V85 C+14V170 C7V170 C7V85 C3V169 C7V170 C+4V170 C+4V119 B10V106 C7V170 C+6V234 C9V37 C15V173 D+12V148 G+17V146 A7V4 A+7V65 F+7V82 F3V108 E11V164 F+13V249 rV240 C16V216 G10V253 E5V113 G16V216 G5V104 F9V108 C+18V87 D14V85 G0V110 A6V85 C+0V238 E0V137 rV63 rV255 B14V95 B20V255 G6V127 D+2V170 D14V172 D+11V240 rV192 D1V1 A+1V235 C0V224 E0V160 A10V180 E0 C+14V159 A5V10 rV15 A+1V7 F2V39 D5V7 F+2V7 F10V63 D+3V255 A+0V9 C0V160 E20V126 B19V252 B15V124]

$$ALL
  [B15V255 rV252 C+2V32 rV255 B15V240 G18V254 rV248 F+10V128 C+0 rV31 B7V255 B3V255 rV192 r F2V2 rV255 G0V2 F+10V15 rV252 D5 D5 rV255 rV224 F+2 r r r A7V2 rV255 rV255 rV248 rV255 C0V216 rV249 G5V232 rV31 rV246 G6V72 rV20 C21V141 F+14V19 rV1 F+18V71 C+6V145 C+7V69 C+14V85 G+17V90 E19V221 A6V181 A+17V82 D14V107 F1V164 C7V201 E15V110 D+19V174 C15V146 C+7V202 D+12V107 D+12V146 C+18V165 G13V170 E14V74 C+14V86 C+14V42]

$$ALL
  [F+7V148 C+18V74 C7V170 E6V73 A8V109 E11V170 F7V85 A6V182 G1V146 G+7V5 F+19V215 A6V170 D14V73 C+7V170 E3V85 C+14V165 C+14V170 A+6V73 G+17V148 D14V171 G+13V212 D14V85 D+14V170 C+7V85 C7V165 C7V169 C7V169 D+14V213 G+13V44 D4V41 C+7V83 C+4V170 C7V85 C+14V106 D+6V170 C+14V85 C14V90 C7V170 A8V85 C7V170 C7V85 C+14V170 C7V85 C7V85 C+14V106 C7V170 C14V170 C7V170 C7V165 C+14V90 C14V170 C7V169 C7V85 C+14V170 C7V165 C+14V106 C7V165 C+14V85 C+14V170 C+14V85 C14V170 C7V85 C+14V85 F7V85]

$$ALL
  [C+14V85 F7V170 C7V85 C+14V170 C7V85 C+14V86 C7V170 C7V85 C+14V85 C14V170 C7V170 E12V170 C7V170 C+14V90 C+14V170 C7V85 C+14V85 C7V170 C7V106 C+14V90 E12V170 C7V85 C+14V170 C7V170 C+14V85 C7V170 C7V149 F7V165 C7V85 C+14V85 C7V170 C7V85 C+14V170 C7V169 C+14V169 C7V169 C+7V149 C7V149 C7V170 C+7V169 C+14V85 C7V165 C+7V85 C+14V85 C7V85 C7V170 C7V85 C+14V170 C7V85 C+14V90 C+14V89 C+14V85 C+14V169 C7V170 C+7V85 G+13V170 C7V85 C+14V170 A8V85 C+14V85 C+14V85 C+14V85 C+14V85 A8V170]

$$ALL
  [C7V149 A8V149 C7V170 C+7V85 C+14V86 C+14V170 E12V170 C7V170 E8V85 C7V85 C7V165 C7V169 C+14V90 C7V170 C7V85 A8V170 C7V165 A8V85 C+14V165 F7V85 C+14V85 C7V85 C7V170 C+14V170 C+14V106 C+14V106 G+13V170 C7V170 C7V170 C7V165 C+14V85 C+14V106 C7V85 C+14V170 C+14V170 C+14V170 G+17V149 G+17V85 C14V170 C7V85 F3V202 G+17V83 C+14V171 C+4V90 C+12V171 A6V170 C7V170 A+14V173 A6V172 G+17V85 E19V118 G17V170 C+15V173 G+8V172 E8V106 C+14V181 C7V85 C7V165 C7V84 F7V84 C7V41 C+14V85 G+5V34 A+7]

$$ALL
  [A15V138 G+7V17 D15V69 F+7V146 G+17V186 F19V253 G18V252 B15V250 D+5V96 G+13V212 G18V122 F13V178 C14V117 C12V168 E6V73 A+3V1 A+15V2 F+11V162 E14V66 C17V65 F+16V192 D+19V180 B14V90 C+18V72 D+20V254 G20V86 A20V95 B9V189 G+20V93 G20V155 G16V210 F+20V22 A20V255 G10V175 D18V245 G10V248 B19V112 A20 rV3 A19V255 rV131 A+15V7 A+10V248 G20V255 rV245 C0V195 rV247 D1 D0V255 E10V31 B4V255 rV156 rV255 C4 rV94 rV255 F+0V128 F+0V192 F+0 F+2V1 r rV255 rV148 r]

$$ALL
  [D11V192 D17 A+10 rV15 rV255 F+2 rV21 A+7V135 G+10V211 rV192 F0V255 D1 rV7 G10V255 G8V254 F+10V7 F+10V2 rV22 rV62 B19V255 r rV224 G+10V247 rV255 rV224 F+0V143 F+0 rV3 rV255 D+1V224 r r B19V193 F+14V195 rV255 C0 rV63 G18V255 rV248 r F+0 F+10 rV255 r rV15 rV255 G10V255 rV224 F+0V143 F+0 rV7 rV255 D+10V32 rV63 G20V255 rV255 G10V255 rV249 D5 D5V63 E2V10 rV15 rV31 B15V255]

$$ALL
  [B15V255 rV255 rV128 C0V192 D0V128 rV126 B15V254 rV240 rV255 rV167 A+0V255 r r C21V255 G10V254 rV224 G10V240 D0 r D5 rV5 B20V255 D+10V28 rV20 G18V224 r F+18V195 F+6V7 rV255 rV255 rV63 B19V255 rV248 B15V255 rV232 F+0V131 rV255 G1 F+20V248 rV128 D1 D5V1 r rV63 G+20 A20V255 B15V175 rV7 B20V127 B15V255 G18V255 rV252 D0V131 rV243 A+0V32 A3V255 D0 r r r G20V255 E10V1 G18V255 rV127]

$$ALL
  [rV255 rV255 rV128 rV248 F+0 r D5 rV4 rV37 rV1 G20V255 rV255 G18V255 rV254 D0V83 rV188 D1 F+4V63 F+2 r B20V160 rV3 A19V255 D+10V31 rV255 rV254 G18V255 rV240 F+0 F+0V128 r rV63 B20 A+20V255 G10V239 rV255 rV254 rV128 rV240 D5 rV7 r rV31 B19V255 B20V255 rV254 r rV248 F+2 r r rV15 B20V127 B19V255 rV224 D1 F+0V160 r rV21 rV20 F19V119 F13V237 D+3V255 D+1]

$$ALL
  [r F17V160 rV1 rV255 D+3V239 rV255 rV250 G+1V164 rV4 A20V255 rV179 F14V255 rV254 C3V85 D+1V32 F+10 F+18V149 G+17V218 C0V128 r A+20V91 D15V33 A+20V85 D+14V73 E7V111 G13V127 E11V219 C7V18 F20V255 rV237 G+5V85 B10V237 A6V214 G0V236 C7V170 E15V222 C7V213 G10V255 rV192 C+14V238 G+2V170 A+8V164 F+1 F+10V132 C9V86 C7V85 C7 r G+20V85 A+20V74 E20V127 G+14V41 A20V255 D+11V175 C9V86 F20V119 G10V255 rV184 D+12V127 G+10V174 A+9V5 G0V187 C+6V82 rV47]

$$ALL
  [G9V126 C+0 r D18V80 G2V251 E0V208 E20V20 E18V84 F19V184 G17V208 C19V255 r rV33 A+3 rV1 B13V141 rV23 F+10V127 E4V139 C21V86 rV254 G10V236 D+13V124 G+10V226 rV168 D5 F+14V109 G1V213 D+19V255 r A+5V128 D13 rV63 rV187 A5V128 r r D+19V178 A+1V1 F+14V223 E0V137 D7V21 A15V151 C3V103 E0V194 A+1V5 F10V11 rV31 B3V254 G17V176 B19V252 G18V112 C+20V161 D17V193 C+6V87 D0V2 A+15V23 G19V255 B9V255 D+13V190 G+16V248 D+5V160 A+13V80 G+0V74]

$$ALL
  [E6V2 C21V31 B20V127 G18V254 B15V253 rV232 F+0 D6V39 G+1V173 E20V124 G20V96 C+20V232 D11V192 A+10V239 E0 A+15V7 F4V63 C+5V7 F+10V4 F10V172 E20V168 F19V245 G+10V200 F+3V137 F+3V79 F+0V1 F+2 A+9V46 rV136 B20V56 D+19V98 G+13V210 C+3V221 G7V62 rV48 B19V224 A+19V32 D14V194 F+14V3 A19V127 C+14V95 F+10V7 rV31 A20V95 G20V222 G6V250 G2V100 D0V210 G+1V37 D5V7 C+5V31 C+2V159 G20V255 D+13V252 G6V248 C0V128 D17 F+14V11 F+2V7 rV7 A20V63 E20V48 E19V181 G+6V129]

$$ALL
  [F14V75 E14V93 D+20V94 B19V254 rV250 rV168 E0V183 D9V63 G6V123 C7V168 G0V224 C0 D5 F+10V21 F10 A20V123 A+13 D6V143 D1V7 F4V133 G1V255 C+0V191 E4V255 rV192 C9V85 C+3V36 rV252 G10 D1 rV31 rV31 G+19V85 rV254 E11V234 E0V95 C21V252 r C0 rV6 rV222 C14 F19V171 D9V84 F+0V255 D5V7 rV187 D+13V215 A+0V255 B20V126 rV128 F+14V200 G+5V128 rV7 B1V20 G18V168 rV127 G20V255 G18V250 rV242 D5V255 A+20V240 r D5V62 A20]

$$ALL
  [rV31 D+7V11 G20V255 G18V255 rV224 r D+10V160 F17V226 rV1 rV5 B15V94 rV255 B20V255 r A+0V46 rV250 F+14V176 A+8 A20V255 rV255 B15V84 r B9V254 A+16V210 F+4V1 B5V237 F+18V127 rV255 r F0V191 B18V245 F14 F13V36 rV255 F+2V21 r C0V250 rV3 rV252 F+18V240 rV7 rV254 C0 F+10V255 rV192 A+19V250 B19V124 C0V191 r C16V31 D0 rV255 G20V192 D5V1 rV255 rV192 D11V255 r rV31 rV255 rV56 B19V255 F+2V240 r]

$$ALL
  [F+17V1 rV255 rV127 B15V255 D1V255 G18 B19V255 F+0V28 rV7 D0V56 rV255 r rV240 r B3V255 F+0 rV80 r G18V255 rV240 D5 E5 rV255 rV255 rV62 rV255 F+10 rV7 rV248 r D1V199 B20 F+10V255 B19V252 r B20V252 rV63 D+7V224 C0V63 C0V240 D5 rV252 r rV63 rV128 r C16V207 D1 r A+11V31 D+13V212 F+10 A+15V7 rV240 r rV3 rV255 F+2 r rV255 D0V128 r G18V255 rV254]

$$ALL
  [F+10 rV255 rV255 r rV63 B15V255 r rV1 D+14V255 rV128 r rV255 rV254 D5 rV127 rV255 D0 rV7 rV255 r rV1 B15V255 rV56 r G18V255 rV48 r G10V255 rV240 r rV255 rV192 rV1 rV255 F+2 rV63 rV252 r G18V255 r rV3 F+2V255 r rV255 B15V252 E0 rV254 rV63 F+10 B20V255 D0 rV14 rV195 r F+0V255 rV128 rV255 G10V224 F+2 G10V255 D+5V224 rV7 rV248 r]

$$ALL
  [C16V255 rV128 rV255 B15V240 F+2 D0V159 rV240 rV7 rV128 rV48 D0V127 B15 rV255 r r rV255 F+0 rV255 rV1 rV1 F+2V255 D0 rV255 C+0V15 rV1 rV255 r G20V255 r rV255 G18V252 r B15V255 rV192 rV255 rV252 r G+10V255 r rV255 rV224 r rV255 r rV255 rV224 r G10V255 r rV255 rV238 r rV255 C0 rV255 rV128 r rV255 D1 rV255 r rV15 rV255 r]

$$ALL
  [B20V255 r rV7 rV255 F+0 rV255 r rV255 rV248 r rV255 E0 rV255 r rV31 rV255 r rV255 r rV255 r rV63 rV252 rV7 rV255 D0 B20V255 r rV255 r rV15 rV255 r G10V255 r rV255 rV16 rV15 rV192 rV31 G20V255 A+0 rV255 G+0 rV255 r rV83 B19V255 F+10 rV255 F11 rV255 r rV138 G10V255 r rV255 D+0 rV255 rV128 rV136 G18V255 r G2V255]

$$ALL
  [A10 rV31 rV252 rV128 C0V255 r rV255 F+2V8 rV126 D+13V63 G+15V112 A+13V3 A+1V5 G0V255 G+10V232 rV127 B15V234 C0V1 rV31 rV224 rV249 rV240 F+2V63 D1V224 r rV127 D+9V127 G10V215 r F+6V31 D0V32 r F+19V63 rV31 A+7V248 F+0V1 D1V255 D0 rV31 rV255 rV254 rV192 r rV255 D5V192 D+10V224 rV224 rV255 rV224 G0V102 B20 r rV7 G14V31 G10V127 rV2 F+19V31 rV255 rV124 A0V251 r B20V255 D+13 G18V3]

$$ALL
  [D1V15 rV253 D5V208 G20V248 rV32 rV255 rV1 F+7V255 G10V128 rV255 C0V224 A11V15 rV248 F+18V1 rV7 rV255 C0 E19V255 rV95 r rV63 C+0V147 C14V181 rV7 G18V220 rV72 C20 rV255 D+5V119 D5 F13V68 G13V254 C0 rV65 G13V255 rV224 A+9 G+19V255 rV127 A+1 rV255 rV245 F+2 rV255 B15V255 rV224 rV5 G15V255 r rV1 D5V255 rV66 r A+15V255 rV144 F+20V1 rV255 rV33 F+2V9 B20V255 C0V34 rV191 rV226 E1V9]

$$ALL
  [A+20V240 rV63 A+1V168 A15V127 rV224 rV5 G10V255 D5 A20V3 C+0V175 B19 D13V255 B11V208 F+10V127 G18V240 B1V168 D+13V7 G10V252 D5V1 G19V252 rV12 B19V65 F4V111 F+0V15 B20V254 E0V1 B20V240 rV255 D1V32 A20V253 F+2 G20V1 C+1V239 F+0V7 B20V254 F+1V11 B15V195 G6V254 F+2V65 D+19V240 r G+10V15 C7V240 rV255 B15V224 C+5V21 A2V127 rV192 rV93 r r F+2V255 G10 rV255 rV15 E13V160 A+7V255 F+0 rV209 D+0V175 D19V3 G20V254 A+0V2 G+20V211]

$$ALL
  [rV254 F+10V7 rV255 r B19V31 rV190 rV15 B15V41 E0V120 rV225 r rV255 rV254 D1 C+18V31 rV180 rV5 G10V219 E10 G+20V255 rV210 rV119 G10V254 F+10 C14V255 rV128 rV255 rV171 A+11 A+20V255 C0V8 rV67 rV251 r G16V255 G10 rV255 rV172 r rV255 F+10 D+15V255 G13 A+20V255 D+0V194 rV81 G2V254 D15V1 C14V123 A6 rV255 E0V2 rV17 rV255 r rV255 F+18 G0V127 C3V255 rV31 r rV15 rV251 D15]

$$ALL
  [rV255 r rV255 D5 A+0V219 rV255 rV127 r rV15 rV224 G+15V255 rV31 r rV3 r rV255 E0 A+20V255 C0 rV255 C+0 G20V255 D1 rV255 r B19V255 D1 B19V255 F+0 rV219 F10V236 G20V200 D7V10 rV216 rV91 G+0V42 C21V119 A+1V7 F10V164 C12V255 D1V55 F15V248 rV125 F+0 B20V255 rV128 F+18V63 r rV127 rV77 rV191 r rV255 r rV63 r rV255 r rV255 r D1V255 D5V176 A20V238 rV234]

$$ALL
  [rV255 r rV247 F+0V112 rV255 r rV254 F+10 B19V255 D0 rV255 r rV255 r rV255 rV120 rV255 rV160 rV15 rV240 rV15 rV255 r rV255 rV31 rV252 F+8V7 rV251 A+7V1 B20V240 G10V2 A20V4 C+0V179 rV28 D0V223 rV130 rV56 rV113 B15V15 C21V225 D1V60 C20V135 F2V112 D16V15 C16V3 F+10V248 D0V30 B9V124 C8V14 B19V227 B19V240 C20V3 F2V127 G18V231 C+11V7 D+20V192 D+10V124 G0V14 F+16V131 C+20V28 F+2V241 F+0V30 rV199 C+11V135]
