
$OPN, $UNKNOWN_0x88,

!ALL

@T56.00

$Inst1,
$Inst2,
$Inst3,
$Inst4,
$Inst5,
$Inst6,
$Inst7,
$Inst8,

$$ALL
  [D+5 D+5 D+5 r r r rV4 r r r r r r r r r r r r C8V105 rV101 rV67 rV1 rV1 rV5 G0 rV9 A+7 rV113 F9 rV115 G9 rV116 G+9 rV118 A+9 rV120 C10 rV121 C+10 rV122 C+10 rV124 E10 rV126 F+10 rV128 G+10 rV130 A+10 rV133 rV2 D0 D0V4 C+0 G0V5 C0V3 r D+0V6 r C+0 D+0V5 r D+0V1]
  [D+5 D+5 D+5 r r r r r r r r r r r r r r r r C+9V32 F9V105 C+0 r rV80 D11 rV75 G+17 rV144 G5 rV4 C+15 rV187 F+2 rV33 A+2 rV228 C+19 rV167 D+20 rV32 F+17 rV169 D20 rV116 G6 rV147 F6 rV105 D+2 rV11 rV1 D0V5 C0 D0 D+0V5 r E0V3 rV2 rV1 C+0V4 D0 D+0 rV1 C0V1]

$$ALL
  [C0V3 rV3 r r r C0 C+0V1 r D8V109 D9V97 r r G10 D+5 rV2 D+0 rV7 G+0 rV12 C+1 D+1V1 D0V16 D+1V6 G0V16 D+1V11 C1V16 D+1 C+0V208 D+17V5 F+0V208 D+17V10 B0V208 D+17V15 C0V224 G18V4 F0V224 G18V9 A+0V224 G18V14 C0 F0V6 F0V6 rV4 D+6V71 D8V83 F+9V111 B3V100 C5V97 C6V15 r F+0V68 r r C+0V73 G17V12 F+9V114 rV65 rV1 C1V11 F0V6 r C0V255 F6V78 r]
  [D0V3 r r rV63 rV1 C0 r rV97 G+8V104 G2V82 r r r r r r r r r r r r r r r r r rV255 r rV255 r rV255 r rV255 r rV255 r rV255 r r F0V6 F0V193 B18 rV99 C5V10 B8V99 C9V111 E8 r C+0V4 D+0 C6V11 r C+4 E5 E8V116 G0 D1V15 G0V7 E0V5 C0V12 r D4 C1V73]

$$ALL
  [G9V117 E6V24 r F+1V13 C6V83 D+0V78 F9V109 E6V1 r rV255 r rV255 r rV255 r rV255 r rV255 r rV255 r rV255 r rV255 r rV255 r r r rV255 r rV255 r rV255 r rV255 r rV255 r rV255 r rV255 r rV255 r rV255 r rV255 r rV255 r rV255 r rV255 r rV255 rV15 D1V15 D1V15 D1V15 D1V15 D1V15 D1V15 D1V15]
  [C+9V32 rV13 A2V28 D+0V255 C+0 rV110 G9V50 C0 C+0V255 rV5 F+0V255 rV10 B0V255 rV15 E1V255 rV20 A1V255 rV25 D2V255 rV30 G2V255 rV35 C3V255 rV40 F3V255 rV45 A+3V255 C0V60 D+4V255 rV55 G+4V255 rV60 C+5V255 rV65 F+5V255 rV70 B5V255 rV75 E6V255 rV80 A6V255 rV85 D7V255 rV90 G7V255 rV95 C8V255 rV100 F8V255 rV105 A+8V255 rV110 D+9V255 rV115 G+9V255 rV78 rV255 rV255 rV255 rV255 rV255 rV255 rV255 rV255]

$$ALL
  [D1V15 D1V15 D1V15 D1V15 D1V15 D1V15 D1V15 D1V15 D1V15 D1V15 D1V15 D1V15 D1V15 D1V15 D1V15 D1V15 D1V69 rV212 C6V115 G2 D+0V255 rV2 rV69 rV212 C6V115 G2 D+2V255 D+0V4 D0V2 C0V1 C0V3 G+5V73 G17V34 F+9V114 rV65 rV1 C6V83 C+2V78 F9V109 E5 C0V1 D+1V10 r F6V50 rV65 G+9V101 A2V8 rV10 C+0V255 D+0V4 G6V142 G8V96 G10 rV255 rV255 rV102 rV245 A+17V21 A+7V59 B2V38 E4V105 C8 B4V93 D+2V253]
  [rV255 rV255 rV255 rV255 rV255 rV255 rV255 rV255 rV255 rV255 rV255 rV255 rV255 rV255 rV255 rV255 F6V50 rV65 G+9V101 C2V8 rV15 r F6V50 rV65 G+9V101 E4V8 rV5 D0V3 C+0V2 C+0 C+0V2 C+4 E5 E8V116 G0 D1V255 r rV110 G9V49 rV255 F+2V25 C0V2 rV69 rV212 C6V115 G2 G0V255 G+0V8 C0V1 rV78 rV114 rV62 r rV255 rV255 rV7 D+2V56 C+3V2 A4V32 rV4 G2V59 D3V39 C21V5 C19V100]

$$ALL
  [C0V5 r F0V32 E20V238 D+0V38 rV255 D0V2 rV244 G+20V236 C21V231 D+18V232 G+1V71 C2V29 B1V20 E5V200 C+20V229 C7V213 D+4V204 B19V50 G0V161 G4V5 G0V14 C18V210 C+4V218 D+20V215 rV33 F1V222 C+1V7 F18V21 E0V7 G+17V187 rV42 G18V30 rV227 E1V33 A+19V148 G4V231 D0V249 C+20V255 D0V8 E20V243 D1V225 G+20V26 D+1V246 F20V201 C+19V237 rV58 G+17V31 E16V228 C+1V223 C2V222 A+17V238 E3V251 C+0V7 G+17V7 F17V236 F+1V27 F+19V233 D2V85 E1V32 G+19V98 C+3V219 C0V55 G18V67]
  [D+18V60 r D17V53 D+19V69 r C+3V3 G+7V236 rV247 rV8 rV219 B13V34 rV80 A3V28 A+16V29 C19V82 G4V27 F+16V15 A1V28 D+3V11 G1V69 G+0V2 D1V21 D2V70 D+14V12 G20V190 B3V1 G3V4 C+18V229 D18V12 rV255 C2V37 rV73 G17 C+19V229 A3V43 A+20V22 E16V232 D+4V43 A19V222 G+19V51 F20V19 A19V242 G1V46 E5V27 A+16V3 F+1V46 D+16V65 C+3V207 F+0V10 E0V47 A2V25 C0V38 rV29 F+19V199 A+16V28 B20V196 G19V49 C14V3 G+19V15 G1V229 B20V224 rV19 G+4V228 B19V1]

$$ALL
  [B5V244 A1V5 G+18V230 D20V26 D3V18 B2V235 F18 G20V217 A4V22 G+16V225 A+0V254 F+18V241 E20V250 G18V19 A+19V41 C+4V21 D+20V3 A19V68 D+19V25 D20V16 rV30 C+0V255 G+18V249 C+1V226 D+19V244 A20V29 F1V207 D18V233 C+20V250 F+18V36 A19V13 F19V29 B4V2 C+1V35 A+19V4 E0V239 D2V63 A+0V231 F5V251 F5V224 A20V223 D+2V224 C21V247 rV23 C+19V250 F15V42 G+2V25 D1V165 E19V252 G19V252 rV210 E20V52 G18V20 rV220 D5V23 C+1V66 D+1V12 A2V32 D+3V223 G19V247 F0V235 E15V205 B20V19 G20V255]
  [D+18V62 F0V232 A0V234 C+20V244 D+18V192 C16V47 D3V21 F2V254 C+20 F7V253 F+1V65 rV40 C+0V25 C20V63 A19V8 G16V240 C+1V54 F+18V24 G+3V242 rV239 F+18V240 G4V24 C+0V252 E2V254 A19V6 rV10 D+18V253 B2V225 F19V238 F1V22 A+18V249 A19V247 C+3V49 F+0V237 E1V2 C+19V7 G+17V252 C+3V190 F+20V48 D0V13 A18V194 G+3V230 C19V14 D+0V2 G+19V90 D+20V233 C+20V224 A20V218 G19V213 B17V238 C+19V226 B20V232 F+4V224 D18V74 F18V234 A+2V14 A20V44 rV24 E3V14 D+15V251 F+14V240 G+0V18 B2V209 C+1V18]

$$ALL
  [E20V255 G3V215 A20V47 A+18V3 A19V28 D20V27 G+1V45 A2V3 D0V223 A+18V255 C21V198 C+1V252 B0V254 D19V250 C+4V23 C+1V14 C+2V13 E1V243 D+20V36 D2V6 D0 G18V55 F20V78 C1V240 F+19V37 E2V39 F+4V46 C3V234 F2V229 D20V14 B1V244 F+2V237 F+1V237 G17V52 G20V8 G3V1 G20 A20V211 G+19V6 B18V4 A+0V246 C+1V17 E0V250 G0V196 E20V45 D+1V228 G+19V33 A2V218 B0V242 G1V236 B19V1 G0V31 F19V11 F+18V8 A+2V177 F+3V34 D+19V234 D3V250 C20V237 A+2V203 G+0V200 F+18V240 rV18 G+0]
  [G20V18 G19V231 C+2V11 G16V19 A19V243 B1V230 C+3V13 C20V24 A3V30 E17V39 C18V247 E3V251 rV243 G20V40 E20V234 F+3V213 A+18V196 C+1V29 G1V48 E19V46 C1V5 E1V201 A2V245 D4V30 E0V9 E19V69 A+20V231 F+2V10 C+19V21 F+20V227 D20V250 A1V197 F+20V22 A1V60 E2V18 F+19V234 G15V235 F5V241 A+1V219 F16V225 G+1V253 rV236 C20V6 B0V255 F+19V3 C+4V197 A+19V248 G+18V3 B17V230 F18V210 F+20V254 B17V39 G3V22 F3V11 C1V42 F3V61 D2V216 B0V49 C16V33 B19V13 B18V47 D0V42 B19V50 F+2V12]

$$ALL
  [B20V223 G20V43 G+0V214 F+4V237 rV9 D2V22 C20V249 B18V229 C21V213 C19V213 C+18V17 D+19V220 C+2V239 A17V26 E4V255 A+1V200 F+17V26 D2V22 E1V189 F+16V13 A19V25 G+2V240 C1V219 E1 F1V254 A+18V24 G0V24 C20V24 B20V40 A1V189 A+15V16 F0V16 D+19V225 A16V17 F+0V41 D18V15 G19V10 D+19V227 C20V252 D+20V253 A3V214 F+20V234 A+1V26 A20V249 D1V31 D+20V41 G+1V22 rV210 C4V224 D20V250 A+0V242 G+19V212 F2V11 G0V223 B3V21 G+1V253 F+2V250 D1V11 A+1V244 E19V254 G+2V227 C3V19 C+20V226 B19V229]
  [G+18V232 D+3V22 C0V240 D+17V26 C2V241 A+1V22 F+2V20 D+3V240 D+19V5 C+2V254 C19V233 C+19 C+16V248 D20V12 G4V11 C3V204 E20V23 G+1V32 F+2V15 F4V245 rV204 G+0V227 A1V17 D+1V11 A+1V36 D+19V234 G20V25 A3V4 C2V30 E18V6 F+17V226 D18V240 G+2V249 D1V233 G2V22 A+20V11 G0V8 D3V35 E19V23 G1V226 C+0V37 A2V8 G+18V249 C+18V235 G19V14 D1V204 A+18V60 F20V5 C+0V223 A19V30 F19V228 D19V222 F+19V235 C+1V249 A2V208 G+17V27 rV228 G1V27 A20V224 E0V20 F+0V19 B18V221 rV224 D1V24]

$$ALL
  [C19V223 G+0V17 D+2V45 rV239 C+3V254 F18V253 G+1V236 E18V229 D+20V240 A3V252 C1V26 A+20V27 C18V245 A+1V14 C19V245 D20V23 C+2V240 B20V6 A+20V233 B0V236 A20V247 B0V37 rV17 C19V13 D+0V215 A19V25 D2V233 D19V239 F20V6 F0V57 C+19V10 C+2V38 F+0V240 F1V204 D+18 F1V246 D+20V254 F0V249 F18V249 F1V21 D0V1 B0V1 F20V249 A20V201 G3V253 E19V239 A+1V244 C19V224 rV241 F20V20 D+19V243 D20V246 A+0V9 rV235 C2 C3V18 E18V223 A+2V16 C18V212 D20V25 A+20V225 rV228 B2V249 F20V7]
  [C2V233 F0 E19V10 A1V222 F+3V12 D0V250 E3V243 D+18 D+19V209 C21V239 G1V243 E0V46 F1 F+2V6 C1V250 E0V32 G3V10 C+1V25 C+20V25 C+19V19 G1V227 E17V4 A1V30 D0V234 D0V25 rV12 F17V252 G20V225 G0V9 G+19 D+5V13 G+2V38 B20V17 C+1V6 A18V223 D+1V231 F18V220 C21V247 D+0V8 F+20V22 G+1V237 F+0V35 A+20V40 A1V232 C+2V14 rV25 F+1V214 A+1V18 G+19V8 F1V36 F+18V251 G0V13 E20V242 E1V33 F1V6 F+0V237 rV230 F+0V253 C+1V229 G19V207 B19V11 G+20V241 B17V16 G+1]

$$ALL
  [A0V18 C+18V20 A+20V31 C21V238 E0V1 rV239 G20V224 F+1V237 C2 E0V228 A17V249 D+1V2 rV253 E20V239 B20V251 C21V215 rV243 B2V241 D+2V230 F0V241 E2V243 D20V251 F18V223 D+2V19 D+20V250 A+20V19 E19V228 B1V229 B19V244 A+20V14 rV29 F+20V218 B20V232 E17V19 D+19V218 A20V16 F+1V22 F18V25 A18V242 B20V23 C21V9 E0V252 D19V247 E19V241 C+1V4 C+1V2 C+1V23 D+0V232 F19V23 G19V9 E2V19 B20V252 B20V3 A2V247 E18V27 E20V253 G+0V35 C1V26 E1V4 D+0V246 C1V17 C+20V4 G20 B0V221]
  [C21 G+19V240 F19V21 C+0V248 G+20V240 G0V231 C0V16 E0V220 F2V248 C20V235 E20V246 C+1V241 C+19V13 G1V31 G+18V29 C16V241 F+0V242 F17V2 F0V255 D+0V232 G+19V246 C1V230 C+2V230 E3V20 A+18V15 F2V244 E20V13 A+20V233 G+19 A+0V247 B20V36 G+20V34 A20V251 B1V20 C2V234 A1V4 D+20V227 D+1V243 G+20V245 F20V28 rV13 G20V244 C+20V248 rV233 C3V253 G0V17 C1V19 C+0V35 F+0V5 G2V251 E1V251 B18V25 F20V42 D1V1 F19V246 C20V13 r F+18V18 C4V247 rV239 C1V28 F+18V242 A1V245 B0V237]

$$ALL
  [F+0V247 G+0V248 F+0V8 G+17V23 F+1V245 F+1V17 rV230 rV5 E1V242 D+18V28 F+1V248 D+20V6 D20V32 G+0V8 E20V254 D+2 B2V252 rV15 B0 B20 A+17V12 rV16 F18V38 D+20V14 E0V230 C1V32 G0V25 F1V3 B20V26 G0V31 F20V3 C+19V255 G0V240 rV237 F+19V245 A+0V20 A+0V237 A+0V4 C21V7 C19V237 rV225 C+0V3 E19V251 A+1V2 B20 rV219 rV253 C21V16 C21V245 E18V6 G0V230 D+0V232 F20V246 C20V7 D1V248 A1V3 F2V15 D+20V17 G+0 D0V236 F20V234 F+1V248 E3V5 F0V15]
  [C1V4 D+2V234 A+0V242 F2V22 C1V232 C+2V21 F18V43 D0V220 F2V227 C19 E1V255 B0V255 A+20V30 C20V218 B20V8 F+0V249 G+0V224 E20V8 A1V19 C19V236 G1V252 B20V4 rV244 G20V22 rV17 G+0V219 F+20V237 r A0 F+1V6 B19V230 F+0V242 D2V248 B1V238 C+20V28 C+0V251 E1V240 rV4 G+0V253 E19V240 F19V254 rV245 G+20V228 D1V19 F+19 D+20V16 E1V233 F+0V12 D+0 D+2V11 B18V245 D+20V246 G+20V23 F0V19 G0V10 C+2V15 F20V8 rV241 C19V242 D0V249 A20V10 G+20V3 F2V12 D+1V250]

$$ALL
  [D+1V249 D20V28 F20V10 G2V18 C21V229 C+20V21 D+0V249 A19V28 B19V10 G20V247 D0V25 E19V7 C21V243 C21V28 D+20V229 F20V16 F+0V253 E20V253 A0V251 C+0V17 E0 B0V250 A+0V10 A+0V16 G+1V251 A18V225 E20V5 C+19V38 rV11 F2V253 A+0V5 D0V244 F19V25 A19V237 D0V25 C1V18 C1V1 G20 C+19V218 G0 F+0V4 D+20V2 F0V252 G+19V2 rV249 D+0V252 D0V13 G1V242 F+20V8 C+1V240 C21V13 C20V250 B18V6 F0V9 F+0V228 D19V255 C1V255 F+18V238 A20V9 C+0V228 D+20V19 F1V12 D1V250 E0V255]
  [rV12 G+1V21 C+20 B1 A20V252 A0V249 F+1V18 D+20V17 rV251 F+1V242 C2V254 C21V5 E0V243 E1V228 D+18V250 F0V253 G1V2 C+1V4 rV253 C0V10 A+19V232 F1V1 G+1V253 E0V14 C1V5 rV12 A1V17 G19V10 rV17 D0V3 G0V10 F+0V3 rV253 B17V234 F+18V4 B20V23 C+19V3 F0V27 C21V228 F+20V16 A0V7 C20V5 A+19V244 rV247 G+20V239 C21V234 C1V13 C+2V9 C1V240 C1V225 D+1V9 G20V250 G18V10 D0V252 rV11 C1V250 F+0V249 D+20V6 A+20V247 C+20V9 A+20V3 E1V12 G19V20 E1V10]

$$ALL
  [C+20V3 E20V2 D20V12 D1V248 A+0V5 A0V7 G+19V244 F0V3 G+19V254 A+20V243 F0V6 D0V7 A+1V9 F1V1 A+19V24 G20V3 A+20V27 F0V232 F+20V252 C+0V239 A+20V245 rV242 rV239 G20V251 A+18V249 G+0V242 A+19 E20V18 C21V17 rV11 C20V254 G20V234 G0V8 G0V229 F2V5 F0V245 G19V5 rV246 F20 G0 E20V255 B19V4 C20V8 D20V251 rV254 B19 G20V17 A+20V234 B20V20 A+0V10 F20V248 C+0V20 D19V248 A19V12 C1V240 A+20V251 rV8 rV249 C+20V19 D0V5 E20V2 C21V5 B19V3 A+0V5]
  [F+20V25 F+0V251 B0V4 F0V223 A20V22 C21V233 G+0V9 B19V16 F+19V247 C21V12 C21V6 G+0V5 G1V239 rV6 D20V15 D+20V29 E0V8 D+1V2 B19V242 rV4 A1V5 C2V229 E20V5 F+19V251 G+0V2 E20V247 G20V9 B20V255 A20V251 C+0 D0V248 G1V28 rV3 A18V7 C+1V253 G19V238 B1V5 G+1V253 rV10 r E1V235 G+19V244 F20V16 rV253 A+0V20 A1V3 B19V246 C2V243 D1V27 E20V228 r D+19V16 A0V224 C1V250 rV234 F+20V1 G+20V254 A+20V248 A0V234 B20V21 rV13 D+1V240 F20V20 D1]

$$ALL
  [D+20V241 B19V254 D+1V14 rV255 C21 F1V15 rV226 F+19V3 A+0V236 F+0V6 F0V235 C0V250 rV9 G+0V7 C1 G+20V250 D+20V2 F20V10 A0V15 A0V252 B20V2 E19V14 C1V255 C21V234 D+0V8 B0V251 B19V250 G+20 r rV7 A+20V6 F+0V248 C21V244 C20V249 rV12 F+20V4 D+20V3 A0V239 D+20V18 F+0V12 rV250 F+19V9 C0V239 D+20V2 A0V1 E20V242 B0V9 rV249 C0V17 B20V13 F+0V243 rV7 G+0V245 F0V2 C+1V242 C+0V253 F0V5 C1V244 A+19V4 rV252 C+0V250 D0V252 G19V248 rV24]
  [A1V22 C21V249 rV235 F+0V7 F+20V9 D0V253 C+1 F19V247 A+20V243 C+0 F+20V2 E0V246 D+0 B0V254 F0V253 F+0 F0V12 B0V225 D+20V7 D+0V246 E0V12 D0V3 B0V5 E20V11 D+0V254 B19V244 C2V242 A+20V254 C+0V248 A+20V240 rV24 A+19V19 B20 G+0V246 D+20V251 D+20V239 C2V249 C0V2 G+19V250 r A20V253 D20V6 D+20V245 G+0V2 F+0V241 D1V6 F+19V254 C+0V229 G+0V245 G+0V5 B19V242 F+20V9 G+20V7 C+0V2 rV9 F0V252 B19V8 A20 C21V10 D+0V9 F+0V11 A0V242 rV249 A+0]

$$ALL
  [A20V255 A20V2 A+0V11 C+0V247 F0V244 D1V251 A+0V9 A+20V243 rV250 rV2 A20V254 D+0V252 G+20V2 D1V240 G19 rV236 B20V249 A+20V248 F+20 C1V4 F+20V252 C+2V235 C0V252 F0V6 A20V3 A+20V241 C+0V6 C21V254 D+0 A20V249 C+1V243 D+20V254 D1V3 D+0V3 E0V4 rV3 rV248 G0V2 F+0V246 rV244 C0V21 G0V252 r G0V2 G+20V4 D+1V238 D+0V20 B0V246 A+20V252 rV251 C+20 B20V5 rV253 C1V247 B0V4 A20V4 F0V255 F20V255 B20V255 C+0V9 D+20 C+0V4 C+0V254 E0]
  [F20V13 C+1V6 F0V244 rV255 E20 G+20V4 B19V251 C21V2 A+0V250 F1 D+0V254 D1V247 G+0V244 D+0V255 F+20V2 F+20V242 A20V7 r rV253 B20 B20V3 E20V234 A20V245 D+20V8 E20V237 F20V13 A+0V253 A+20V252 C+20V2 D1V1 B19V254 D+0V4 G20V244 rV248 F+0V243 B20V10 D+0V10 D+20V12 A0V240 E20V248 rV3 D0V17 G0V8 C+0V252 E1V8 A0V2 B20V10 B19V3 C+0V19 rV6 D0V252 G0V246 G0V248 rV251 G+0V7 F0V251 G+1V245 G20 E20V2 B20V252 D+0V250 G+0V250 G20V12 rV242]

$$ALL
  [F0V6 B20V13 D+20V250 G0V4 E0V2 C0V4 D+0V9 E20V253 B1V1 A0V1 rV14 G+0V247 D+0V3 C1V252 C21V13 G0V10 rV247 rV6 A+0V5 G20V14 rV253 C21 G+0V253 F20V7 F1V242 F20V249 F+20V5 A+20V245 C21V9 rV252 C21V253 G+20V245 B20V242 G0V9 C21V254 G+20V7 F+0V243 E0 F+20 A+20V254 rV13 D+1 rV13 F+0V1 F0V248 F0V247 r A+20V7 D+20V2 rV7 D0V255 rV16 D20V15 A20V3 rV249 G+0V252 A20V2 C+1V254 F+20V3 E20V7 rV250 F20V249 rV8 A+20V1]
  [B1V3 rV1 D+0V11 F+0V5 rV6 B20V253 C0V10 B0 F1V9 D0V3 C21V245 D0V254 D1V1 rV247 C+1 A+19V10 A0V247 D+0V7 C0 C1V255 C0V3 A20V1 F0V254 C21V249 F20V253 C20V249 G20V7 C21V19 A+0V11 D+0V2 G+20V6 rV9 rV7 rV6 G0V3 C+0 D0V252 A+20V10 D1V255 E0V247 C0 E20V255 rV6 C+0V13 D0V245 C+0V7 rV12 A+20V5 G+20V10 G0 G+20V249 G+20 rV11 E1V236 C0V251 C21V1 F+20V251 C21V246 C+20V253 C+0V3 rV5 rV248 C21V3 D0]

$$ALL
  [D0V244 D20V255 r C0V251 E20V3 C20 F0V245 G0V254 E0V3 rV1 B20V244 rV12 A0V246 G0V10 r F0 G20V255 G+20 C+0V253 A+19V8 rV246 C21V248 F20 E20V5 rV255 A0V255 C1V254 E0V249 D+0V255 G+20V1 rV1 E0V242 r D0V248 E20 rV253 E20V255 D+0V255 F+0V254 rV252 A20V8 rV253 rV248 F0 C1V3 C0V252 E0V3 rV249 rV254 C21 C0V3 A+20V6 B20V253 E0V245 F0V253 A20V6 G+0 rV255 E20 D+0V8 C0V3 C0V1 rV2 rV253]
  [C+20V247 G+0V3 G20V3 A+20V3 C0V250 rV246 G0V246 r F20V249 rV244 rV253 C21V1 G20V1 A0V255 rV252 rV3 F20V9 E0V1 rV251 D0V253 rV255 G0V8 C+0V255 A0V255 G+0V252 F+0V11 D+20 D0 C+0V5 E20V1 C0 C21V254 G+20V7 rV4 r A20V247 F+20V251 D+0V252 rV3 G0 F0V243 F0V9 C21V255 rV251 G+20V247 G+20 F+20 A20V243 D+0V252 G0V250 A20V252 G0V3 E20V251 rV1 D+0V253 B0V6 A0V250 D0V253 C0V4 F20 D1V254 A20V7 G+0V249 C21V1]

$$ALL
  [B20V7 D0V12 rV252 rV1 rV13 A0V251 B20V7 r C0V2 F+20 rV4 F+20V1 C0V2 G+0 G+0V253 rV12 D0V3 G+20V3 B0V245 rV250 F+20V1 G+0V7 G0V254 rV252 B20 rV3 G+0V250 rV249 C+0V4 rV246 A20V252 C+0 D+0V249 B20V251 rV249 rV249 F20 rV8 rV252 B20V245 rV3 B20V249 F+0V250 E0V15 D+0V8 rV255 B20V2 rV7 rV2 C21V255 r C+0 B20V5 D0V251 A+20V252 C0V251 C21V244 rV1 B20V12 A+20V2 rV253 A+20V4 r F+20V246]
  [E0V1 D0V250 A20 B20V4 rV1 G+20V1 A+20V255 D0 rV1 D+20V2 C0V247 F0V6 r A20 C0V255 C21 F0V1 C21V255 G+0V252 rV3 rV6 G+20V253 G+0V251 A20V1 B20V10 D0V254 E0V255 rV252 rV250 A+0V249 rV254 F20V249 E0V254 C0V251 F0V4 F+20V2 rV251 C0V3 G20 D+0 D0 rV2 C0V1 G20V252 G+0V251 B20 C0V250 C21V6 A+20V2 D0V248 G+0V248 C+0V2 rV251 D+0V6 G20V253 F+0V251 rV4 r C0V248 rV4 F+0V10 rV253 G0V1 A20V1]

$$ALL
  [F+20V3 C21V246 rV254 C0V254 E0V254 C+0V250 rV254 rV251 E0V253 rV1 C+0V6 A0V3 C0V3 D+0V250 F0V255 G0V248 B20V9 F0V10 D+0V255 B20V255 B20V5 A20 A20V4 B0V254 rV255 B20V2 rV251 C+0V255 r C+0V253 F0V253 rV11 E0V1 r D0V6 E0V251 rV2 E20V4 G+0 C21V1 rV248 rV2 r D+0V7 C21V1 C0V251 A+0V7 D0V1 rV1 F+0V254 D0V6 G+0V249 G+20V252 D0V253 rV253 C0V2 rV255 rV248 C21 rV3 A20V1 C+0 A20V255 r]
  [C+0 E0V245 D+0V250 F0V1 r C21V5 F0 F+20V254 r rV1 A20V2 F+0 C+0V6 B20V4 r rV250 rV250 A+20V10 C0V250 D+0V249 rV1 G+20V255 C0V3 G0V246 C+0V248 rV251 rV2 G+20 rV253 C+0V6 F0V251 rV252 A20V4 rV255 D0V1 rV1 D0V2 rV1 E0V255 rV255 rV254 E0V3 rV3 C21V4 rV4 D0V7 C+0V253 rV254 F0V247 C+0V5 rV3 rV255 r rV253 r rV246 r D0V255 A20V255 E0V251 rV251 C21V251 C0V249 G0V6]

$$ALL
  [D+0 D0V2 C21V250 C+0V249 rV1 C+0V247 C+0V4 rV1 B20V1 C21V254 F0V250 rV255 C+0 rV250 D+0V254 C21V255 C21V254 C0V8 E0V250 rV2 D0V5 D+0 D0V255 A+20V254 A+20 C+0V8 B20V4 rV2 C21V252 C21V252 D+0V255 C0V252 rV249 rV251 D+0V251 rV6 D+0V4 C+0V253 A+20V4 C21V1 C0V3 r C+0V253 rV2 F+0V247 rV1 r C21V3 E0V253 F+0 rV3 C0V248 D+0V254 rV250 F+0 rV254 rV254 F0V252 C0V253 r r D+0V255 C0 rV3]
  [E0 rV255 rV4 rV2 C0V1 C+0V254 rV3 rV255 rV255 rV255 r C+0V251 A20 rV8 rV6 rV5 C0V255 C+0V2 C21V249 E0V2 D0V255 C+0V252 B20V3 E0V1 C+0V4 rV2 E0V248 rV1 E0V252 A+20V3 B20V2 C0V254 r rV2 C21V253 D+0V5 A+20V255 rV254 B20 D0V1 rV249 rV7 C0V255 A+20V3 D0V2 F+20 F+0V5 F+0V4 D0V250 F+0V253 rV254 G20V253 C21V251 r F+20V255 rV4 rV255 C0V5 rV4 A+20V255 F0 A+20V2 rV1 C+0]

$$ALL
  [E0 F0V2 r A+20V1 rV3 C+0V255 r D0 C0V248 rV1 rV3 D+0V253 E0 C21V255 A20V2 A20 rV251 rV3 A+20V2 F+0V253 C21 E0V3 rV255 C+0V254 C21V254 rV255 D+0V6 B20V8 C0V254 C0 C0V254 E0V252 C0V250 r rV255 C+0V252 rV251 rV3 rV1 D+0V6 C21V4 rV248 A+20V3 A+20V254 C21V2 B20V1 C+0V3 A+20V5 C+0V254 rV254 r rV253 C+0V4 C21V254 C0V254 D0V2 C21V1 r rV4 D0 rV3 rV255 r rV1]
  [rV8 F+0V251 D0V2 D+0V250 C+0V1 r B20V3 D0V253 C21V252 G0V251 C0 D+0V252 C+0V1 C+0V3 rV5 C0V1 B20V5 C0V1 D+0V2 D0V3 B20 D0V6 D+0V253 A+20V1 rV3 r r F0V254 C+0V3 G+20V2 C21V254 C0V250 rV6 C21V255 r rV254 rV251 C21V6 rV253 C21 C0V249 rV3 D0 C0V1 B20V255 rV253 rV7 rV2 C0V4 r rV254 rV252 C+0 D0V255 C21V255 C21V1 rV2 C0V255 rV252 rV251 rV255 C+0V4 rV1 F+20]

$$ALL
  [C21V255 C0V253 rV252 C0V254 B20V254 C0 F0V1 r rV253 rV3 D0V255 C+0 C0V255 rV255 D0V252 E0V5 rV3 F0 C+0V1 r rV4 rV249 r r rV253 r r rV2 rV3 r C0V4 C21V252 rV3 D+0V1 rV255 r D0 C0V254 rV1 C+0V5 rV255 C0V1 rV3 r C21V253 r C+0 rV253 C0V252 C21V254 C+0V253 B20V1 rV1 C0V254 rV2 D+0 rV3 r rV255 rV3 r C+0 C0V2 C0V252]
  [rV4 A+20 rV255 E0V252 rV249 rV2 D+0V255 D+0V254 rV1 rV3 rV254 rV252 D0V254 B20 C0V252 rV2 C+0V4 D+0V251 C21 E0V252 rV255 C+0V255 rV252 B20V255 C+0V255 rV4 A+20V254 rV252 C0V3 C0V252 r C21V254 A20 rV1 A+20V2 rV1 C0V253 C21 C+0 rV4 r rV7 D+0V254 rV4 r rV2 rV251 D+0V5 rV253 r D0 C+0V4 rV252 C0 r rV5 r C21 r r C0V2 C21 C+0 r]

$$ALL
  [D+0 C0V2 rV2 C21 rV3 C+0 C+0V252 rV255 D0V3 C21 rV3 rV2 C0 r rV3 rV252 C0V1 C+0V3 rV254 rV2 r C+0V1 D0 r r C+0V1 rV5 rV2 r rV1 rV255 r D+0V250 C21V2 r C0 rV2 rV255 r r C0 r rV1 C0V252 r r C+0 rV1 C0 C21V3 C+0V3 r C0 rV1 r r rV4 r D0V3 D0V251 rV2 C0 r rV254]
  [rV255 rV254 r C0V1 r rV254 D0V252 r D0 E0V2 C0V4 r rV251 rV1 rV1 rV1 C0V3 r rV255 C21V255 rV255 C21V255 C+0V254 rV254 C+0V255 rV1 rV254 C0 r r rV254 C+0V254 rV1 rV1 rV254 D+0V2 r D+0 rV4 rV254 rV254 r rV3 rV255 r rV2 r rV255 C21 rV254 D0 rV252 C0V4 r rV254 C+0 D+0V1 r r rV2 rV3 r C+0V1 r]

$$ALL
  [r D0V255 rV255 C21V255 r r rV251 rV1 D0 C21V255 rV1 D0 r rV3 C+0 rV3 rV3 C+0V2 r C0V1 C+0V2 C0V1 rV1 C+0 r r rV255 rV255 rV2 C+0V1 r r rV2 rV1 rV1 rV255 r rV1 C+0V254 rV1 rV1 C21V3 r rV255 C0V3 C0V1 C+0 D0 r rV1 r rV253 rV1 C0V2 r rV254 C0V1 C+0V2 rV253 C0V255 r r rV254 rV1]
  [rV255 r rV1 B20V2 rV2 r rV1 rV254 rV1 rV255 rV253 D0 r rV1 rV255 C0 r D0V2 rV253 C0 r rV1 rV2 r r C0V1 r C0 rV3 r r rV2 C+0V2 r r C0 D0V255 r r D0V253 r rV1 r r rV2 D0 rV255 C+0V2 rV1 rV2 r rV2 rV4 r rV255 r rV1 rV253 rV255 r r r rV254 r]

$$ALL
  [D0 r rV254 rV2 D+0 rV2 C0V255 r r rV255 rV254 C+0V1 r rV1 r C0V2 rV2 rV2 rV2 rV1 rV1 rV2 r C0 C0 r rV255 rV1 r C+0V2 r C+0 C0V255 C+0 r r rV255 rV255 rV3 rV1 r C0 r rV1 rV255 r C+0V1 r rV255 r r r rV254 rV3 rV1 rV255 C0V255 r rV1 C0V1 rV1 rV255 rV255 rV2]
  [r r rV255 r r rV1 rV1 rV1 C0 rV3 rV254 C0V1 rV1 r r rV1 rV254 r rV255 C+0V255 rV1 C0 rV1 rV1 rV255 C0 rV1 C21V1 rV255 r rV255 C0V1 rV255 rV255 rV1 rV253 rV1 r r r rV1 C0V1 C0 rV255 r rV255 C0 rV254 r C0V1 rV1 rV255 r rV255 rV2 r rV1 rV255 rV1 rV254 rV254 rV255 C0 rV1]

$$ALL
  [r rV1 rV255 rV1 r C0V255 r C0V255 rV254 r r rV2 r r r rV255 r rV254 rV255 rV255 r r rV255 r C+0V1 rV255 r rV1 rV255 C0 r C0V255 rV1 r r r rV1 C0V255 r r r rV255 rV255 r rV1 r rV254 r r rV255 r rV1 r r r r r r rV255 r rV255 r r r]
  [r rV2 rV255 r r r C0 C0V1 rV255 r r C0 r rV1 rV254 r r rV1 r C0V255 r rV1 rV255 C0 r r r r r rV254 r C+0 rV255 rV255 rV255 r r rV255 r rV255 rV254 rV255 C0V255 r r r C0 r rV255 C0V255 r r r r C0 rV1 C0 r r r r r r r]

$$ALL
  [r rV255 rV1 C+0V1 C0V255 C0 r r r r r C0 r r C0 rV1 r rV255 r C0V1 rV255 rV2 C0 r r C+0 r r r rV1 rV1 r r rV1 r rV1 r r r r rV1 rV255 r r r r rV255 r r r r r r r C0 r r r r r r r rV1 rV255]
  [r rV1 r C0V255 r r r rV255 r rV255 r r rV255 rV1 r C0V255 rV255 r rV1 rV1 r rV1 rV1 rV2 r r r r rV1 rV2 r C0 C0 rV255 r rV255 r r r r r r r r r r r C0 r rV1 r rV1 C0 r r r r r r r r r r r]

$$ALL
  [r r r rV1 r r r r r r r r r r r C0 r r r r r r C0 r r rV255 r r r r rV255 r r r r rV255 r rV255 rV255 rV1 rV1 r C0 r r r r r r r r r r r r r r r r r r r r r]
  [r r r C0V255 r r r r r r r rV1 r r r r rV1 r r r r r rV1 r r r r r r r r r r r r rV1 r r r r r r C0V255 r r rV255 r r r r r r r rV1 r r r r r r r r r r]

$$ALL
  [r r r C0 r r r r r r r C0 r r r r r r r r r r r r r r rV255 r r r r r r r r r r r r r r C0 r r r r r r r r r r r r r r r r r r r r r r]
  [r r r r r r C0 r r r r r r r rV255 r r r r r r r r r r r r r r r r r r r r r r r r r r r r r r r r r r r r r r r r r r r r r r r r r]

$$ALL
  [r r r r r r r r r r rV255 r r r r r r r r r r r r r r r r r r r r r r r r r r r r r r r r r r r r r r r r r r r r r r r r r r r r r]
  [r r r r r r r r r r r r r r r r r r r r r rV255 r r r r r r r r r r r r r r r r r r r r r r r r r r r r r r r r r r r r r r r r r r]

$$ALL
  [r r r r r r r r r r r r r r r r r r r r r r r r r r r r r r r r r r r r r r r r r r r r r r r r r r r r r r r r r r r r r r r r]
  [r r r r r r r r r r r r r r r r r r r r r r r r r r r r r r r r r r r r r r r r r r r r r r r r r r r r r r r r r r r r r r r r]

$$ALL
  [r r r r r r r r r r r r r r r r r r r r r r r r r r r r r r r r r r r r r r r r r r r r r r r r r r r r r r r r r r r r r r r r]
  [r r r r r r r r r r r r r r r r r r r r r r r r r r r r r r r r r r r r r r r r r r r r r r r r r r r r r r r r r r r r r r r r]

$$ALL
  [r r r r r r r r r r r r r r r r r r r r r r r r r r r r r r r r r r r r r r r r r r r r r r r r r r r r r r r r r r r r r r r r]
  [r r r r r r r r r r r r r r r r r r r r r r r r r r r r r r r r r r r r r r r r r r r r r r r r r r r r r r r r r r r r r r r r]

$$ALL
  [r r r r r r r r r r r r r r r r r r r r r r r r r r r r r r r r r r r r r r r r r r r r r r r r r r r r r r r r r r r r r r r r]
  [r r r r r r r r r r r r r r r r r r r r r r r r r r r r r r r r r r r r r r r r r r r r r r r r r r r r r r r r r r r r r r r r]

$$ALL
  [r r r r r r r r r r r r r r r r r r r r r r r r r r r r r r r r r r r r r r r r r r r r r r r r r r r r r r r r r r r r r r r r]
  [r r r r r r r r r r r r r r r r r r r r r r r r r r r r r r r r r r r r r r r r r r r r r r r r r r r r r r r r r r r r r r r r]

$$ALL
  [r r r r r r r r r r r r r r r r r r r r r r r r r r r r r r r r r r r r r r r r r r r r r r r r r r r r r r r r r r r r r r r r]
  [r r r r r r r r r r r r r r r r r r r r r r r r r r r r r r r r r r r r r r r r r r r r r r r r r r r r r r r r r r r r r r r r]

$$ALL
  [r r r r r r r r r r r r r r r r r r r r r r r r r r r r r r r r r r r r r r r r r r r r r r r r r r r r r r r r r r r r r r r r]
  [r r r r r r r r r r r r r r r r r r r r r r r r r r r r r r r r r r r r r r r r r r r r r r r r r r r r r r r r r r r r r r r r]

$$ALL
  [r r r r r r r r r r r r r r r r r r r r r r r r r r r r r r r r r r r r r r r r r r r r r r r r r r r r r r r r r r r r r r r r]
  [r r r r r r r r r r r r r r r r r r r r r r r r r r r r r r r r r r r r r r r r r r r r r r r r r r r r r r r r r r r r r r r r]

$$ALL
  [r G6V183 G9V137 G6 rV255 rV255 r A0 A+20V247 B19V245 B0V238 D+2V244 A+0V4 rV6 F20V24 D0V255 B20V17 rV9 G+0V252 rV17 G+20V9 C0V245 E0 D20V249 F+0V237 A+20V8 G0 r A+0V11 D+0V6 A+20V252 C0V1 D+0V1 A+20V251 rV3 E0V12 C0V11 C21V8 G20V11 B20V4 r rV5 G+20V8 D0V3 D0V11 F0V249 C0 G+0V10 D0V252 F+0V3 A+0V252 E0V11 C0V252 rV8 D+0V3 C21V9 C+0V4 D0V3 C1V11 D0V1 B0V9 rV6 G+20V6 D0V2]
  [r rV105 rV32 r rV255 rV255 A+0V247 A+0V2 G+19V252 C0V237 B0V1 D0V13 A1V252 A+0V12 C20V4 rV2 F20V8 C0V247 G20V18 F0V4 E0V9 G1V253 A20V1 G+0V250 D+0 A20V7 rV9 C0V10 D+0V19 C1V253 C+0V240 D0V250 A20V6 rV1 E0V9 rV7 C+0V9 F0V248 C0V9 C+1V252 C0V3 rV243 C0V3 rV1 G+0V1 rV4 r rV17 B0 E0V4 F0V245 C0V6 A+0V1 rV12 C+1 E20V11 C21V4 F0V5 E1V252 F+20V9 G+0V16 F0V253 D+0V251 rV3]

$$ALL
  [B20V1 C0V1 rV4 E0 E0V3 G0V252 D0V4 C0V77 G+8V107 rV80 rV255 rV255 rV255 C+0 rV255 rV252 B20V5 B18 G+4V199 A19V41 C+3V57 F+1V33 E19V225 F+16V199 F17V244 C+3V57 G+4V57 G+4V57 A0V241 F+16V204 F+16V199 F+16V199 F17V204 B1V30 G+4V57 G+4V57 G+4V57 G+4V36 A+18V233 G16V199 F+16V199 F+16V199 F+16V199 F17V244 D+1V19 G+4V57 G+4V57 G+4V57 G+4V57 G4V54 rV247 F+16V199 F+16V199 F+16V199 F+16V199 F+16V199 B17V235 F+2V33 G+4V57 G+4V57 G+4V57 G+4V57 G+4V57 A+2V22]
  [C+0V252 G0V5 G+0V8 G+0V14 E0V3 rV2 E0V4 A7 E0 r rV255 rV255 rV3 C+0 rV255 A+20V251 F+19V227 rV236 F+16 G3V46 G4V36 G3V21 G+17V199 D+17V210 D+20V31 G+4V56 G+4V57 G3V17 B17V200 F+16V199 F+16V199 F+16V199 D+19V241 D4V57 G+4V57 G+4V57 G+4V57 B1V9 E19V202 F+16V199 F+16V199 F+16V199 F+16V211 E19V7 D+3V53 G+4V57 G+4V57 G+4V57 G+4V57 D2V22 A+17V201 F+16V199 F+16V199 F+16V199 F+16V199 F+16V202 D+20V8 G+3V57 G+4V57 G+4V57 G+4V57 G+4V57 G+4V46 D1]

$$ALL
  [F20V241 A+17V206 F+16V199 F+16V199 F+16V199 F+16V199 F+16V199 E17V211 A19V247 E1V17 G+2V39 C4V54 G+4V57 G+4V57 G+4V57 G+4V57 D4V50 C3V35 A1V14 B20V248 A+18V216 G16V199 F+16V199 F+16V199 F+16V199 B17V220 F+19V237 G20V247 C21V255 D0V7 A+0V15 D1V17 D+1V17 C+1V9 G+0V9 D+1V9 G1V22 D+2V30 F+3V38 G3V41 C3V36 C2V19 E0V2 G20V242 E19V230 F18V222 G18V228 F18V225 D+19V230 F+19V235 A19V238 A19V238 G19V235 A19V238 C20V239 F20V247 r D+0V9 C+1V16 F+1V22 D+2V29 B2V37 B2V40 C+3V37]
  [E19V224 G16V199 F+16V199 F+16V199 F+16V199 F+16V199 F+16V204 G+18V227 rV8 D2V27 A3V43 G4V57 G+4V57 G+4V57 G+4V57 G4V57 A3V45 F2V28 G+0 A+19V237 G+17V207 F+16V199 F+16V199 F+16V199 B16V210 A+18V230 A+19V246 A20V252 r F+0V9 F1V19 E1V17 E1V16 A0V11 A+0V13 D1V18 D+2V30 B2V33 E3V42 D3V38 F+2V30 C+1V11 rV249 G+19V235 B18V229 G18V225 B18V224 C19V227 C+19V229 F+19V237 A+19V238 A+19V238 A19V236 A19V240 C20V241 B20V255 E0V7 G+0V11 D+1V21 C+2V27 F2V33 B2V36 C3V36 C+3V33]

$$ALL
  [A+2V30 A1V18 D+0V2 C20V240 B18V224 F18V221 G18V224 F+19V238 C20V244 F+20V249 F0V5 A+0V13 F1V16 E1V16 G+0V7 rV255 D+20V241 A19V235 rV110 rV46 r rV255 rV255 r r E20V232 F+16V199 F+16V3 F+1V57 F4V56 G+4V47 C3V47 D+19V32 C0 A+19V228 F+16V205 F+16V199 A16V199 E17V214 G+20V243 A1V27 A3V32 G+4V57 G+4V57 G+4V57 G+4V50 C+1V10 C+0V254 C+20V238 F+16V199 F+16V199 F+16V199 D17V211 F20V248 A1V27 B3V56 G+4V57 B3V54 A+0V11 B20V9 D+0V2 F1V7 A+20V252 D20V237]
  [D2V24 A+0V10 C21V252 D+19V230 D+18V220 G18V221 C+19V229 G+19V240 F+20V248 rV2 F0V7 D+1V15 F1V19 D+1V9 C+0V2 G20V247 A19V238 G6V83 E8V37 D4 rV255 rV255 r r r A+17V215 F+16V199 E1V199 E18V55 G+4V57 G+4V48 G0V27 G1V244 G+0V234 B17V221 G+16V199 F+16V199 F18V225 C+19V229 B20V254 B1V23 G+4V57 G+4V57 G+4V57 G+4V57 A+2V29 G+0V4 B20V246 D+18V203 F+16V199 F+16V199 F+16V199 G17V222 rV3 B2V42 E4V57 G+4V57 A2V17 F+0V13 E1V240 F0V14 C0V254 C0V239 F+19V245]

$$ALL
  [G+19V230 C20V246 A19V233 F+20V247 A0 G+20V239 E19V246 A20V247 D+0V12 A1V28 G1V17 C1V4 F20V10 C0V2 C21V18 rV13 D+0V4 G+19V243 C+19V239 G+19V243 rV243 D+0V231 A+18 F20V231 D20V249 C+3V27 F+2V36 C+2V39 C3V31 E1V4 A20V16 F+0V252 C+20V247 C19V223 C+19V221 E19V215 D+17V228 C+19V233 C21V1 C2V13 D+2V22 C+2V25 C+2V29 F1V27 B0V9 C0V2 F+20V252 A+20V242 F20V241 F20V255 D+19V238 G20V232 C20V238 A+20V223 D1V251 A+1V30 D+2V31 E2V28 C+1V34 C+1V19 B0V17 C+0V9 D+20V244 F20V222]
  [C+19V250 C21V252 rV243 rV11 D+0V229 C20V243 D+20V248 A20V252 A1V18 G1V19 C+1V4 G0 D+0V3 D0 G+20V15 A+0V13 G20V248 A18V238 A20V219 A20V252 B0V244 C+20V237 A17V234 D20V243 D1V12 B1V32 C3V30 G+2V21 G1V15 C+0V1 C1V9 A20V255 A+19V238 E18V235 G18V216 A+17V217 C+20V218 G19V249 C+0V8 D2V23 B1V31 D2V25 E1V33 G1V21 D+2V3 rV4 E20V233 E20V234 C21V235 B19V238 E19V226 G+18V236 E19V229 F+19V241 B0V11 D2V22 A1V39 B2V32 C+2V18 D1V7 A+0V251 C21V1 A19V232 D20V239]

$$ALL
  [D+18V235 C19V222 F+19V239 F20V241 C+20 F+20V3 D+0V13 G+1V3 F1V23 A+1V23 G1V20 D+1V26 C+1V15 C+1V4 G20V245 G19V243 G19V216 C+19V224 B19V219 F20V241 F+20 G0V9 D1V6 D+2V15 A1V18 F+1V20 A1V4 A0V12 G+0V7 E0V246 C+20V235 G+18V246 B18V235 C+0V235 G+20V241 C21V2 D0V249 D1V9 A0V3 C1V10 A+0V2 D+1V24 G+0V15 G0V249 rV15 C21V252 rV246 D+20 B19 D0V243 A19V250 D20 rV253 r C+0V13 B0V9 G+0V11 F+1 D+0V3 D+0 A+20V3 C21V251 A20 A+20V253]
  [E19V222 A19V225 D20V237 B20V241 G20V1 G0V1 G+1V1 D1V4 B1V13 F0V24 E0V30 F1V17 D1 B20V4 D20V247 A19V225 B19V221 D+19V227 F19V249 G+19V249 C+0 F0V10 E0V12 G1V23 D+1V13 B1 C0V12 C1V7 E0V250 C20 F20V233 A+19V234 D+20V239 A19V246 rV245 C0V250 F0V9 F+0V2 D+1V8 B0V11 F+1V10 D+1V4 G0V1 D+0V1 r B20V249 A20V243 F+20V250 C+20V247 D+20V251 E20V246 rV243 B20V5 C0V14 E0V252 C1V4 E0V15 C1V250 rV11 E20V13 B20V251 G20V252 rV255 rV251]

$$ALL
  [r rV253 G+20V250 r rV255 C0V1 A20V4 rV1 E0V250 C+0V251 rV4 D+0V4 rV4 F0V254 C0V9 C0V2 C0V3 rV2 rV252 C+0V254 D+20V251 G+20 rV255 B20V253 rV5 D+0V255 F+0V4 rV4 G+0V6 F+0V7 E0V252 G+0 rV4 rV254 G+20V5 A+20V247 F+20V245 rV251 G+20V250 G20 C0 rV254 C0V5 C+0V8 C0V8 E0V5 G+0V5 C+0V2 D+0 r C21V254 rV249 rV249 rV250 A+20V245 rV245 C0V250 rV3 E0V3 F+0V9 D+0V13 F+0V6 C0V5 D+0V255]
  [B20 A20V252 C0V252 F0 B20V1 r D+0 E0V253 r rV6 F0V5 D+0V255 D0V4 G0V2 rV3 C21 E0V3 F+20V254 F+20 F+20V252 A20V249 rV246 C21V252 D0V255 rV7 F+0V253 A+0V8 C1V1 G0V4 C+0V1 C21V2 rV7 A+20V5 A+20V255 A20V252 rV248 D+20V252 rV254 B20V255 r F0V5 E0V1 D+0V3 A+0V5 G+0V5 C1V255 C0V5 A20V11 G+20V3 rV1 C0V254 rV249 rV244 B20V242 G20V254 r rV255 C0 C+0V5 G+0V7 D+0V9 F0V4 rV2 D0V255]

$$ALL
  [B20V3 r rV254 B20V253 G20V1 rV252 A+20V248 B20V255 rV251 D+0V252 G0V3 C+0V3 D0V6 G+0V3 G+0V2 D0V252 C+0V255 A20 B20V252 B20V252 C21 G+20V249 B20V252 A+20 r E0 C+0V4 r D+0 G+10V108 E9V129 G+10V113 G+10V109 C9V129 G+10V111 C9V255 r D1V55 D0V4 D+0V3 D0V4 D0V4 D+0V3 D0V4 D+0V80 rV2 G+6 D1V4 E9V129 G+10V118 A9V129 rV129 G+10V114 G9V129 rV114 r E9V15 D+0V3 D0V4 D+0V3 A+5V3 D0V4 D+0V3 D0V4]
  [C0V3 A20V1 rV251 B20V249 B20V250 F+20V253 A20V252 G+20V252 r D+0V3 D0V9 G0V12 F0V5 F+0 F0V2 C0V250 B20 rV252 rV251 G+20 C21V252 G+20V252 C21V252 B20V254 F0V255 E0V2 E5V78 rV63 D4V3 D0V4 D+0V3 D2V4 D0V4 D+0V3 D0V4 B6V81 rV15 G+10V108 B8V129 G+10V113 C9 C9V129 G+10V111 D9 F6 rV65 r F+4V51 D+0V3 D0V4 D+0V27 D+0V3 D0V4 D+0V3 G6V84 D+0 D+0V129 G+10V113 A9V129 G+10V114 G+10V114 G9V129 G+10V116 E5V78]

$$ALL
  [r D+0 G+10V113 A9V129 G+10V118 G+10V114 F9V129 G+10V116 F9V255 r D1V55 D0V4 D+0V3 D0V4 D0V4 D+0V3 D0V4 D+0V80 r F+4V3 D0V4 D+0V3 D2V4 D0V4 D+0V3 D0V4 B6V78 rV108 D+0V3 D0V4 D+0V3 A+5V3 D0V4 D+0V3 D0V4 r B6V78 rV113 D+0V3 D0V4 D+0V3 A+5V3 D0V4 D+0V3 D0V4 r D1V55 D+0V3 D0V4 D+0V27 D+0V3 D0V4 D+0V3 G6V84 E0 D0V4 D+0V3 D0V4 D+0V71 D+0V3 D0V4 D+0V3 F6 E9V15]
  [rV63 D4V3 D0V4 D+0V3 D2V4 D0V4 D+0V3 D0V4 B6V81 rV15 G+10V113 E9V129 G+10V118 F9 F9V129 G+10V116 G9 F6 F+2V4 G+10V108 E9V129 G+10V113 G+10V109 C9V129 G+10V111 C9V255 rV1 rV129 G+10V108 E9V129 G+10V109 G+10V109 D9V129 G+10V111 E5V78 rV255 rV1 rV129 G+10V113 A9V129 G+10V114 G+10V114 G9V129 G+10V116 E5V78 rV31 E9V129 G+10V118 A9V129 rV129 G+10V114 G9V129 rV114 r D+0 E9V129 G+10V118 A9V129 F9V129 G+10V116 G9V129 rV65 C0 G+10V113]

$$ALL
  [D0V4 D+0V3 D0V4 D0V4 D+0V3 D0V4 D+0V80 r B7V3 B7V3 B7V3 B7 D0V3 D0V3 D0V3 rV85 D0V85 D0V85 D0V85 D7 D7 D7 D7 F6 D0V5 E0 E0V24 rV3 D0V5 G13V27 E0V3 B1V164 G6V84 C+0 D+0V129 C11 rV128 C11V123 rV123 B9V129 rV113 G9V255 rV2 B1V164 D2V5 D0V5 G13V11 rV133 A10 G+10V121 E5V78 rV255 rV2 D0V3 D0V3 D0V3 D0V3 D0V106 D0V106 D0V106 D0V3 F8V3 F8V3 F8V3]
  [E9V129 G+10V118 F9 F9V129 G+10V116 G9 F6 D0V3 D0V3 D0V3 D0V3 D0V3 D0V3 D0V3 D0V3 D0V3 D0V3 D0V3 D0V3 D0V99 D0V99 D0V99 D0V80 rV1 D+0V129 G10V129 G+10V120 rV123 F+10V129 D+0V129 G+10V135 E11V4 r E0V5 E0 E0V3 D2V5 F+0V3 D0V5 E0V3 D0V5 B6V78 rV118 D+0V1 G+10V125 A10V129 D+0V3 D0V5 E0V3 D0V5 r B6V157 rV89 D0V89 D0V89 D0V89 A7 A7 A7 A7 rV102 rV102 rV102 rV102]

$$ALL
  [D0V3 D0V3 D0V3 D0V3 B6V85 rV137 D11V4 B10V129 D+0 rV130 D+0V129 D11V129 G+10V4 rV65 C+0 B1V164 D0V5 E0V3 F1V27 E0V3 D0V5 E0V3 D0V5 r G+10V4 G+10V128 G+10V132 D+0V129 E0V3 D0V5 E0V3 G6V84 r r B6V55 rV3 C+0V72 D0V2 F5V3 C+0V62 rV65 D0 F6 rV65 D0 r E5V78 rV3 C9V3 C9V3 C9V3 D0V2 D0V2 D0V2 D0V2 C+0V3 C+0V3 C+0V3 C+0V3 D0V2 D0V2 D0V2 D0V2 r]
  [G8V3 G8V3 G8V3 F7V255 rV2 B1V164 D0V5 G13V27 E0V3 D0V5 E0 E0V3 D2V5 C7 B11V3 G11V4 E11 C11V130 D0V129 rV126 C10V133 rV120 E5V78 rV3 G0V24 F1V3 D0V5 E0V133 rV137 C11V129 G+10V125 r E5V78 rV255 rV3 D0V2 A+5V3 C+0V67 D0V2 C5V3 G0 B14V80 rV4 F0 G6V84 F0 r rV110 rV110 rV110 rV110 C+9V3 C+9V3 C+9V3 C+9 D0V2 D0V2 D0V2 rV110 C+0V111 C+0V111 C+0V111 E5V78 rV255]

$$ALL
  [B6V27 rV3 D0V2 D9V255 rV4 D0V2 D0V2 D0V2 D0V2 C+0V109 C+0V109 C+0V109 C+0V3 C9V3 C9V3 C9V3 D0V2 D0V2 D0V2 D0V2 B6V157 rV110 C+0V111 C+0V111 C+0V111 C+9 D9 D9 D9 rV110 rV110 rV110 rV110 C+9V3 C+9V3 C+9V3 C+9V255 rV4 D0V2 D0V2 D0V2 D0V2 C+0V109 C+0V109 C+0V109 C+0V3 C9V3 C9V3 C9V3 D0V2 D0V2 D0V2 D0V2 B6V157 rV110 C+0V111 C+0V111 C+0V111 C+9 D9 D9 D9 rV110 rV110]
  [rV4 rV111 C+0V111 B6V157 rV110 C+0V111 C+0V111 C+0V111 C+9 D9 D9 D9 rV110 rV110 rV110 rV110 C+9V3 C+9V3 C+9V3 C+9V255 rV4 D0V2 D0V2 D0V2 D0V2 C+0V109 C+0V109 C+0V109 C+0V3 C9V3 C9V3 C9V3 D0V2 D0V2 D0V2 D0V2 B6V157 rV110 C+0V111 C+0V111 C+0V111 C+9 D9 D9 D9 rV110 rV110 rV110 rV110 C+9V3 C+9V3 C+9V3 C+9V255 rV4 D0V2 D0V2 D0V2 D0V2 C+0V109 C+0V109 C+0V109 C+0V3 C9V3 C9V3]

$$ALL
  [rV110 rV110 C+9V3 C+9V3 C+9V3 C+9V255 rV5 G+10V96 B8V129 rV113 E8 rV101 C8 G+10V97 D9V129 rV111 C8V255 rV5 G+10V96 B8V129 rV113 E8 rV101 C8 G+10V97 D9V129 rV111 C8V255 rV5 G+10V101 E9V129 rV118 A8 rV106 F8 G+10V102 G9V129 rV116 F8V255 rV5 G+10V101 E9V129 rV118 A8 rV106 F8 G+10V102 G9V129 rV116 F8V255 rV5 G+10V101 E9V129 rV118 A8 rV106 F8 G+10V102 G9V129 rV116 F8V255 rV5 G+10V101 E9V129]
  [C9V3 D0V2 D0V2 D0V2 D0V2 B6V102 rV108 D0 rV3 D0 rV3 D0 rV3 D0 rV3 D0 B6V102 rV108 D0 rV3 D0 rV3 D0 rV3 D0 rV3 D0 B6V102 rV113 D0 rV3 D0 rV3 D0 rV3 D0 rV3 D0 B6V102 rV113 D0 rV3 D0 rV3 D0 rV3 D0 rV3 D0 B6V102 rV113 D0 rV3 D0 rV3 D0 rV3 D0 rV3 D0 B6V102 rV113 D0 rV3]

$$ALL
  [rV118 A8 rV106 F8 G+10V102 G9V129 rV116 F8V255 rV6 D+0V3 D0 rV3 D0 rV3 D0 rV3 D0 rV3 C+7 B9V15 F+0 F+0V24 rV3 D0V7 G13V27 F+0V3 B1V164 G6V84 C+0 D+0V129 C10 rV116 C11V111 rV111 B8V129 rV101 G8V255 rV6 B1V164 D2V7 D0V7 G13V11 rV121 A9 G+10V109 E5V78 rV130 rV3 D0 rV3 D0 rV3 D0 rV3 D0 rV80 rV5 B1V164 D0V7 G13V27 F+0V3 D0V7 F+0 F+0V3]
  [D0 rV3 D0 rV3 D0 rV3 D0 B6V95 rV7 rV96 B7 G+10V101 E9V129 rV109 C8 rV97 D8 rV65 F0 D+0V129 G9V129 G+10V108 rV111 F+9V129 D+0V129 G+10V123 E10V4 r F+0V5 F+0 F+0V3 D2V7 F+0V3 D0V7 F+0V3 D0V7 B6V78 rV106 D+0V1 G+10V113 A9V129 D+0V3 D0V7 F+0V3 D0V7 r rV129 rV113 E8 rV106 A8 G+10V102 F9V129 rV116 G8 F6 F+0V7 D10V4 B9V129 D+0 rV118 D+0V129 D10V129 G+10V4]

$$ALL
  [D2V7 C7 B10V3 G10V4 E10 C11V118 D0V129 rV114 C9V133 rV108 E5V78 rV3 G0V24 F1V3 D0V7 F+0V133 rV125 C10V129 G+10V113 r F0V3 F0V3 F0V3 F0V3 D0V6 D0V6 D0V6 D0V6 F0V85 F0V85 F0V85 F0V3 D7V3 D7V3 D7V3 G6V84 C0 D0V6 D0V6 D0V6 rV82 F0V82 F0V82 F0V82 F6 F6 F6 F6 rV92 rV92 rV92 rV78 r F0V3 F0V3 F0V3 F0V3 D0V6 D0V6 D0V6 D0V6 F0V90 F0V90 F0V90]
  [rV65 F0 B1V164 D0V7 F+0V3 F1V27 F+0V3 D0V7 F+0V3 D0V7 r G+10V4 G+10V116 G+10V120 D+0V129 F+0V3 D0V7 F+0V3 G6V84 r D0V6 D0V6 D0V6 rV77 F0V77 F0V77 F0V77 C6 C6 C6 C6 rV87 rV87 rV87 rV73 r F0V3 F0V3 F0V3 F0V3 D0V6 D0V6 D0V6 D0V6 F0V90 F0V90 F0V90 F0V3 G7V3 G7V3 G7V3 G6V84 C+0 D0V6 D0V6 D0V6 rV82 F0V82 F0V82 F0V82 F6 F6 F6 F6]
