
$OPN,

!ALL

$Inst1,
$Inst2,
$Inst3,
$Inst4,
$Inst5,
$Inst6,
$Inst7,
$Inst8,
$Inst9,
$Inst10,
$Inst11,
$Inst12,

$$ALL
  [r D+5 D+5 D+5 D+5 D+5 D+5 D+5 r r r r r r r r r r r r r r r r r r r r r r r r]

$$ALL
  [r r r r r r r rV117 F6V115 C10V111 C6V84 G2V97 rV219 C+0V1 rV1 r rV1 D0 rV124 rV4 F+3 E0 rV14 rV6 D12 G+0 rV55 rV14 F+11 A1 rV9 rV31]

$$ALL
  [D8 F+2 rV155 rV31 F20 G2 rV81 rV32 F+14 G2 rV83 rV33 C15 G+2 rV32 rV34 r r r r C+0V2 E0V6 F+0 rV1 C0V1 C0V1 rV2 C+0V2 C+0V2 rV1 C+0V2 C+0V2]

$$ALL
  [C0V1 D0V3 r r r r r C0 rV1 rV1 rV2 r F12 r A+6V39 G2V101 G5V109 r rV63 r r r r rV3 r E0 r rV8 r A0 r rV13]

$$ALL
  [r D1 rV255 D+17V2 r D+0V208 rV255 D+17V7 r G+0V208 rV255 D+17V12 r C+1V208 rV255 G18V1 r D0V224 rV255 G18V6 r G0V224 rV255 G18V11 r C1V224 rV255 G18V1 C0 rV6 F0V6 F0V6]

$$ALL
  [F0V6 D0 rV227 rV76 D+3 B8V99 E8V61 D8V115 C9V108 A+8V48 D+9V109 D+8V61 G+9V10 G5V82 rV1 rV12 C0V3 F0V8 A+0V68 D+0 r C6V12 r r C+0V4 A+6V61 r F6V13 C+9V116 C9V110 B3V77 r]

$$ALL
  [r C0V14 C1V12 A+0V10 C+0V255 C0V1 G+5V73 C+4 A+15V34 E5 F+9V114 E8V116 rV65 G0 rV1 A0V12 D1V15 C0V255 rV2 F6V78 A5 r G1V78 F+9V32 G+3V97 F+5V111 D+8V77 r r C0V6 rV3 r]

$$ALL
  [r rV12 D+5V69 F6V50 rV191 rV65 F6V105 G2V105 C8V32 E8 G+4V8 C+2V255 rV15 C+1V13 A0V8 E0V4 D0V3 C+0 D+0 C0 B0 r F6V78 C5 r A+0V78 F+9V32 D8 B2V8 E0V255 rV15 C0V1]

$$ALL
  [rV193 G+0 r rV255 C6V83 r A2V78 rV111 E8V83 F9 G+4V8 C+2V255 rV15 B0V10 F+0V6 D+0V4 D+0V3 C0 r C0 G+0 r F6V78 A+4 r E0V67 A+5V77 r r C0V4 F0V7 C0]

$$ALL
  [C0V1 F+0V1 r rV78 A+6V58 r F6V4 A5 D+3V8 G+0V255 rV4 E0V6 G0V3 r E0V2 rV1 C+0V69 F6V50 rV191 rV65 F+5V66 E6V40 rV9 r D+0V5 F+0V8 r C0V7 C0V255 rV2 F6V78 D+20]

$$ALL
  [r C1V73 G9V117 C+9V32 A+6V228 rV31 rV1 r D0V255 rV255 rV6 r G0V255 rV255 rV11 r C1V255 rV255 D+0V16 r F1V1 r D0V21 r A+1V3 r D0V26 r D+2V3 r D0V31 r]

$$ALL
  [G+2V2 r rV36 r C+3 r C+0V41 r F+3V2 r rV46 r B3V2 r rV51 r E4V255 rV255 rV56 r A4V255 rV255 rV61 r D5V255 rV255 rV66 r G5V255 rV255 rV71 r]

$$ALL
  [C6V255 rV255 rV76 r F6V255 rV255 rV81 r A+6V255 rV255 rV86 r D+7V255 rV255 rV91 r G+7V255 rV255 rV96 r C+8V255 rV255 rV101 r F+8V255 rV255 rV106 r B8V255 rV255 rV111 r]

$$ALL
  [E9V255 rV255 rV116 r A9V255 rV255 C20V1 D1V15 rV255 D1V15 rV255 D1V15 rV255 D0V3 rV255 F0V7 rV255 G0V9 rV255 A+0V11 rV255 B0V12 rV255 C+1V14 rV255 D1V15 rV255 D1V15 rV255 D1V15 rV255 D1V15]

$$ALL
  [rV255 D1V15 rV255 D1V15 rV255 D1V15 rV255 D1V15 rV255 D1V15 rV255 D1V15 rV255 D1V15 rV255 D1V15 rV255 D1V15 rV255 D1V15 rV255 D1V15 rV255 C6V83 r A2V78 rV114 C+9V108 D6V99 E6V50 rV7 r]

$$ALL
  [D1V15 rV6 r r rV33 D+5 C2 r F6V78 C+6 r D1V84 C8V103 G2V110 E8V77 r r C0V15 D1V1 rV193 B3 r rV42 D+5 rV78 G6V34 rV105 E8V49 D+11 G+10 rV1 rV255]

$$ALL
  [rV255 rV255 rV255 rV255 C0V254 G10V16 D+0V255 C+13V254 G20V224 F+5V63 C0V17 A19V62 rV255 D+19V15 G10 rV255 C1V2 B4V224 rV44 D5V222 rV31 D19V44 F+4V19 A10V255 G14V126 G18V232 C0V254 G+10V17 A17V252 rV191 D+20V3 r]

$$ALL
  [G18V238 D+2V31 C16V224 rV48 D5V188 C0V128 B4V19 F10V254 G10V255 G+0V215 B19V224 G10V248 F+2V33 D+19V171 rV254 B19V15 D0 G18V223 G0V46 C15V224 E18V135 D5V240 rV172 B4V23 D7V214 E1V255 D13V212 rV63 rV98 G+15V4 E8V86 rV223]

$$ALL
  [G13V47 r C3V222 C6V69 A+8V208 D+18V47 C+15V128 A0V216 C+18V173 E12V106 A6V255 A+20V177 rV160 G10V212 A+7V34 G+13V171 rV238 G+13V118 B13 C+14V245 A6V138 D14V197 F+16V220 D15V2 A0V208 C+18V175 G+13V53 C7V255 D14V91 F1V130 D+1V37 F+20V146]

$$ALL
  [B6V85 rV207 G+9V118 G2 E12V117 C7V169 C7V210 D5V170 F+15V75 rV18 F7V171 C7V42 C+14V255 A9V109 C15 G0V149 D18V170 D+12V85 rV63 C7V182 C0 C+9V186 C+14V164 C7V202 rV173 F+7V181 G0V88 G+13V219 B6V105 C6V255 B5V170 F7V1]

$$ALL
  [rV212 C9V85 A6V84 rV254 G+17V107 C+0V26 C11V181 D14V149 A6V170 A+17V73 C15V106 rV192 F7V173 E12V84 E3V255 A7V218 A8V2 rV74 A17V85 A6V74 rV135 D+12V91 G+3 G+15V169 C7V170 C+14V170 F+10V191 F7V90 r C14V182 C14V82 E3V255]

$$ALL
  [D+19V173 C9V149 rV94 C+15V45 B6V74 rV255 F+20V85 C15 B19V37 C+15V74 F3V165 r G+15V85 r F18V74 A8V169 C14V255 D1V168 D15V149 rV128 F+7V165 C7V149 A+20V255 rV84 D9 rV252 D18V37 G+13V85 rV255 G2V84 F3 D+5V187]
