
$OPN,

!ALL

$Inst1,
$Inst2,
$Inst3,
$Inst4,
$Inst5,
$Inst6,
$Inst7,

$$ALL
  [r D+5 D+5 D+5 D+5 D+5 D+5 D+5 r r r r r r r r r r r r r r r r r r r r r r r r]

$$ALL
  [r r r r r r r rV107 A+6V110 G+9V114 F7V110 B6V109 D9V105 C8V97 G2V32 F9V46 E8V118 D9V116 rV67 C+0 rV1 r rV1 rV174 rV5 A+3 F0 rV207 rV6 A1 C+2 rV25]

$$ALL
  [rV34 D10 A2 rV223 rV35 E3 A+2 rV142 rV35 C18 B2 rV76 rV36 F12 B2 rV7 rV37 A+9 C3 rV19 rV38 F9 C+3 rV247 rV39 G+7 D3 rV232 rV40 F6 D+3 rV222]

$$ALL
  [rV41 B5 E3 rV218 rV41 D13 F+3 rV164 rV45 B15 A3 rV172 rV48 G0 C4 rV18 rV51 C+9 E4 rV90 rV54 G12 G4 rV163 rV56 C+19 rV2 E0V7 A0V4 F+0V9 B0V14 D1V3]

$$ALL
  [F+1V20 r D0V5 G0V2 E0V7 A0V12 A+0V15 E1V19 A1 C+0V4 F+0V9 D+0V6 A0V12 A+0V15 E0V19 A1 r r r r r r r rV2 D0V2 C+0V2 C+0V3 C+0V2 C+0V2 C+0V2 C0V1 C0V1]

$$ALL
  [r r r A+8V32 C+9V116 F9V32 C+9V32 G2V104 F6V83 E8V108 E8 G10 rV1 r D+0 r r F12V150 r F6V83 D9V105 G9V101 E8V103 D9V32 C+3V75 D8V108 r rV128 r rV48 r C0]

$$ALL
  [r rV4 r F0 r rV9 r A+0 r rV14 r rV208 rV255 D+17V3 r E0V208 rV255 D+17V8 r A0V208 rV255 D+17V13 r D1V208 rV255 G18V2 r D+0V224 rV255 G18V7 r G+0V224]

$$ALL
  [rV255 G18V12 r C+1V224 rV255 r rV2 F0V6 F0V6 F0V6 F3 E0 rV70 A+5 D8V111 A+6V108 A0V117 D9V67 D8V61 D+8V99 D9V101 F9V101 E5V73 r r rV1 D0V65 A6 r G5V82 rV1 rV3]

$$ALL
  [rV73 C+4 E14V34 E5 F+9V47 G+8V110 E8V77 r r C0V15 B0V9 F0V4 C+0V2 rV1 D0V83 rV255 G+5V73 C+4 E14V34 E5 C+9V32 F+9 G2V8 G+1V255 rV11 C+1V15 D1V15 C+1V14 C+1V13 E6 rV69 F6V50]

$$ALL
  [rV173 rV65 E6V105 E6V22 rV1 r C+0V255 C0V1 rV77 r F6V78 C8 r F1V78 F+9V32 G+3V97 F+6V101 E6V57 rV26 r G0V7 E0V5 D0V3 C+0V1 r C0V4 C16V1 rV12 D+5 rV77 r F6V78]

$$ALL
  [D1 r E0V75 A+8V69 F6V50 rV173 rV65 A+6V97 rV77 C0 F6V78 C2 r F+0V77 B6V109 E6 rV69 E6V50 rV75 A+8V136 rV129 B9 r rV255 rV255 rV255 rV255 rV202 A+11V241 G2V108 rV191 A0]

$$ALL
  [rV192 rV255 rV255 r r rV255 rV255 rV219 C1V8 r rV128 G+18V252 A+15V223 A+20V255 G+19V87 C+2V44 A2V22 D+0V8 B3V128 E1 B1V180 A+19V249 C21V255 D10V247 D8V241 G11V97 B1V8 D+1 G5V164 G+8V103 F14V60 D17V120]

$$ALL
  [F10V63 C20V69 D13V154 D17V248 F+9V24 C+16V32 B3V49 D16V196 D4V137 B0V19 G+12V28 C+5V227 F+10V231 G20V120 A+10V113 F+5V27 D11V227 D19V151 G18V24 G0V132 D+9V156 C5V191 A+13V143 D+2V114 C+11V24 D2V187 F+15V115 C+1V14 G+0V113 F2V92 D17V199 D+10V156]

$$ALL
  [D4V20 C+4V84 F+13V205 F8V50 F17V83 C7V85 C7V171 C+14V170 C+14V170 C+14V170 C+14V170 C+14V170 C+14V170 C+14V170 C+14V170 A8V170 C+14V170 C+14V170 C+14V170 C+14V170 C+14V170 C+14V170 C+14V170 C+14V170 C+14V170 C+14V170 C+14V170 C+14V170 C+14V170 C+14V170 C+14V170 C+14V170]

$$ALL
  [C+14V170 C+14V170 C+14V170 C+14V170 C+14V170 C+14V170 C+14V170 C+14V170 C+14V170 C+14V170 C+14V170 C+14V170 C+14V170 C+14V170 C+14V170 C+14V170 C+14V170 C+14V170 C+14V170 C+14V170 C+14V170 C+14V170 C+14V170 C+14V170 C+14V170 C+14V170 C+14V170 C+14V170 C+14V170 C+14V170 C+14V170 C+14V170]

$$ALL
  [C+14V170 C+14V170 C+14V170 C+14V170 C+14V170 C+14V170 C+14V170 C+14V170 C+14V170 C+14V170 C+14V170 C+14V170 C+14V170 C+14V170 C+14V170 C+14V170 C+14V170 C+14V170 C+14V170 C+14V170 C+14V170 C+14V170 C+14V170 C+14V170 C+14V170 C+14V170 C+14V170 C+14V170 C+14V170 C+14V170 C+14V170 C+14V170]

$$ALL
  [C+14V170 C+14V170 C+14V170 C+14V170 C+14V170 C+14V170 C+14V170 C+14V170 C+14V170 C+14V170 C+14V170 C+14V170 C+14V170 C+14V170 C+14V170 C+14V170 C+14V170 C+14V170 C+14V170 C+14V170 C+14V170 C+14V170 C+14V170 C+14V170 C+14V170 C+14V170 C+14V170 C+14V170 C+14V170 C+14V170 C+14V170 C+14V170]

$$ALL
  [C+14V170 C+14V170 C+14V170 C+14V170 C+14V170 C+14V170 C+14V170 C+14V170 C+14V170 C+14V170 C+14V170 C+14V170 C+14V170 C+14V170 C+14V170 C+14V170 C+14V170 C+14V170 C+14V170 C+14V170 C+14V170 C+14V170 C+14V170 C+14V170 C+14V170 C+14V170 C+14V170 C+14V170 C+14V170 C+14V170 C+14V170 C+14V170]

$$ALL
  [C+14V170 C+14V170 C+14V170 C+14V170 C+14V170 C+14V170 C+14V170 C+14V170 C+14V170 C+14V170 C+14V170 C+14V170 C+14V170 C+14V170 C+14V170 C+14V170 C+14V170 C+14V170 C+14V170 C+14V170 C+14V170 C+14V170 C+14V170 C+14V170 C+14V170 C+14V170 C+14V170 C+14V170 C+14V170 C+14V170 C+14V170 C+14V170]

$$ALL
  [C+14V170 C+14V170 C+14V170 C+14V170 C+14V170 C+14V170 C+14V170 C+14V170 C+14V170 C+14V170 C+14V170 C+14V170 C+14V170 C+14V170 C+14V170 C+14V170 C+14V170 C+14V170 C+14V170 C+14V170 C+14V170 C+14V170 C+14V170 C+14V170 C+14V170 C+14V170 C+14V170 C+14V170 C+14V170 C+14V170 C+14V170 C+14V170]

$$ALL
  [C+14V170 C+14V170 C+14V170 C+14V170 C+14V170 C+14V170 C+14V170 C+14V170 C+14V170 C+14V170 C+14V170 C+14V170 C+14V170 C+14V170 C+14V170 C+14V170 C+14V170 C+14V170 C+14V170 C+14V170 C+14V170 C+14V170 C+14V170 C+14V170 C+14V170 C+14V170 C+14V170 C+14V170 C+14V170 C+14V170 C+14V170 C+14V170]

$$ALL
  [C+14V170 C+14V170 C+14V170 C+14V170 C+14V170 C+14V170 C+14V170 C+14V170 C+14V170 C+14V170 C+14V170 C+14V170 C+14V170 C+14V170 C+14V170 C+14V170 C+14V170 C+14V170 C+14V170 C+14V170 C+14V170 C+14V170 C+14V170 C+14V170 C+14V170 C+14V170 C+14V170 C+14V170 C+14V170 C+14V170 C+14V170 C+14V170]

$$ALL
  [C+14V170 C+14V170 C+14V170 C+14V170 C+14V170 C+14V170 C+14V170 C+14V170 C+14V170 C+14V170 C+14V170 C+14V170 C+14V170 C+14V170 C+14V170 C+14V170 C+14V170 C+14V170 C+14V170 C+14V170 C+14V170 C+14V170 C+14V170 C+14V170 C+14V170 C+14V170 C+14V170 C+14V170 C+14V170 C+14V170 C+14V170 C+14V170]

$$ALL
  [C+14V170 C+14V170 C+14V170 C+14V170 C+14V170 C+14V170 C+14V170 C+14V170 C+14V170 C+14V170 C+14V170 C+14V170 C+14V170 C+14V170 C+14V170 C+14V170 C+14V170 C+14V170 C+14V170 C+14V170 C+14V170 C+14V170 C+14V170 C+14V170 C+14V170 C+14V170 C+14V170 C+14V170 C+14V170 C+14V170 C+14V170 C+14V170]

$$ALL
  [C+14V170 C+14V170 C+14V170 C+14V170 C+14V170 C+14V170 C+14V170 C+14V170 C+14V170 C+14V170 C+14V170 C+14V170 C+14V170 C+14V170 C+14V170 C+14V170 C+14V170 C+14V170 C+14V170 C+14V170 C+14V170 C+14V170 C+14V170 C+14V170 C+14V170 C+14V170 C+14V170 C+14V170 C+14V170 C+14V170 C+14V170 C+14V170]

$$ALL
  [C+14V170 C+14V170 C+14V170 C+14V170 C+14V170 C+14V170 C+14V170 C+14V170 C+14V170 C+14V170 C+14V170 C+14V170 C+14V170 C+14V170 C+14V170 C+14V170 C+14V170 C+14V170 C+14V170 C+14V170 C+14V170 C+14V170 C+14V170 C+14V170 C+14V170 C+14V170 C+14V170 C+14V170 C+14V170 C+14V170 C+14V170 C+14V170]

$$ALL
  [C+14V170 C+14V170 C+14V170 C+14V170 C+14V170 C+14V170 C+14V170 C+14V170 C+14V170 C+14V170 C+14V170 C+14V170 C+14V170 C+14V170 C+14V170 C+14V170 C+14V170 C+14V170 C+14V170 C+14V170 C+14V170 C+14V170 C+14V170 C+14V170 C+14V170 C+14V170 C+14V170 C+14V170 C+14V170 C+14V170 C+14V170 C+14V170]

$$ALL
  [C+14V170 C+14V170 C+14V170 C+14V170 C+14V170 C+14V170 C+14V170 C+14V170 C+14V170 C+14V170 C+14V170 C+14V170 C+14V170 C+14V170 C+14V170 C+14V170 C+14V170 C+14V170 C+14V170 C+14V170 C+14V170 C+14V170 C+14V170 C+14V170 C+14V170 C+14V170 C+14V170 C+14V170 C+14V170 C+14V170 C+14V170 C+14V170]

$$ALL
  [C+14V170 C+14V170 C+14V170 C+14V170 C+14V170 C+14V170 C+14V170 C+14V170 C+14V170 C+14V170 C+14V170 C+14V170 C+14V170 C+14V170 C+14V170 C+14V170 C+14V170 C+14V170 C+14V170 C+14V170 C+14V170 C+14V170 C+14V170 C+14V170 C+14V170 C+14V170 C+14V170 C+14V170 C+14V170 C+14V170 C+14V170 C+14V170]

$$ALL
  [C+14V170 C+14V170 C+14V170 C+14V170 C+14V170 C+14V170 C+14V170 C+14V170 C+14V170 C+14V170 C+14V170 C+14V170 C+14V170 C+14V170 C+14V170 C+14V170 C+14V170 C+14V170 C+14V170 C+14V170 C+14V170 C+14V170 C+14V170 C+14V170 C+14V170 C+14V170 C+14V170 C+14V170 C+14V170 C+14V170 C+14V170 C+14V170]

$$ALL
  [C+14V170 C+14V170 C+14V170 C+14V170 C+14V170 C+14V170 C+14V170 C+14V170 C+14V170 C+14V170 C+14V170 C+14V170 C+14V170 C+14V170 C+14V170 C+14V170 C+14V170 C+14V170 C+14V170 C+14V170 C+14V170 C+14V170 C+14V170 C+14V170 C+14V170 C+14V170 C+14V170 C+14V170 C+14V170 C+14V170 C+14V170 C+14V170]

$$ALL
  [C+14V170 C+14V170 C+14V170 C+14V170 C+14V170 C+14V170 C+14V170 C+14V170 C+14V170 C+14V170 C+14V170 C+14V170 C+14V170 C+14V170 C+14V170 C+14V170 C+14V170 C+14V170 C+14V170 C+14V170 C+14V170 C+14V170 C+14V170 C+14V170 C+14V170 C+14V170 C+14V170 C+14V170 C+14V170 C+14V170 C+14V170 C+14V170]

$$ALL
  [C+14V170 C+14V170 C+14V170 C+14V170 C+14V170 C+14V170 C+14V170 C+14V170 C+14V170 C+14V170 C+14V170 C+14V170 C+14V170 C+14V170 C+14V170 C+14V170 C+14V170 C+14V170 C+14V170 C+14V170 C+14V170 C+14V170 C+14V170 C+14V170 C+14V170 C+14V170 C+14V170 C+14V170 C+14V170 C+14V170 C+14V170 C+14V170]

$$ALL
  [C+14V170 C+14V170 C+14V170 C+14V170 C+14V170 C+14V170 C+14V170 C+14V170 C+14V170 C+14V170 C+14V170 C+14V170 C+14V170 C+14V170 C+14V170 C+14V170 C+14V170 C+14V170 C+14V170 C+14V170 C+14V170 C+14V170 C+14V170 C+14V170 C+14V170 C+14V170 C+14V170 C+14V170 C+14V170 C+14V170 C+14V170 C+14V170]

$$ALL
  [C+14V170 C+14V170 C+14V170 C+14V170 C+14V170 C+14V170 C+14V170 C+14V170 C+14V170 C+14V170 C+14V170 C+14V170 C+14V170 C+14V170 C+14V170 C+14V170 C+14V170 C+14V170 C+14V170 C+14V170 C+14V170 C+14V170 C+14V170 C+14V170 C+14V83 C+4V4 A+6V97 rV33 B9 G+10 C0V255 rV255]

$$ALL
  [rV255 rV255 rV255 rV106 A8V15 C16V12 A+19V247 F+10 r rV255 D1 r rV255 r rV176 rV191 rV59 C20 rV234 F20V255 F5V1 r rV255 C21V189 rV1 G10V242 D17V52 F+18 r A+15V255 F+19V110 F+1V1]

$$ALL
  [D+1V148 F+16V254 A+4V193 A17 D+0V251 F+18V235 D+0V2 F1V203 A+15V254 A19V200 rV48 D+1V126 D+20V68 A+5V232 C12V90 G+0V116 C0V238 D18V46 B15V242 rV94 C+6V225 G16V137 F+17V192 G15V226 E7V75 B7V101 A10V194 D10V94 A+0V81 C+16 B9V237 A11V97]

$$ALL
  [F+1V93 D4V32 E14V217 A+17V17 G+12V208 F19V55 A19V97 G6V234 F7V190 G+8V111 G+2V153 A12V16 A15V46 E6V208 B3V107 G+19V160 A14V2 B17V232 D+8V52 F12V179 F15V249 A+12V1 C2V51 A20V124 A+11V4 G+12V80 A+17V255 E6V16 B16V132 D7V223 E8V38 G+12V203]

$$ALL
  [A20V119 F+10V113 A10V194 C8V105 C12V124 A+20V174 A3V9 F8V67 F20V86 D+14V5 C+6V22 F+4V213 F+17V190 C10V52 D11V95 F+5V93 G3V12 F+5V239 A13V166 F5V33 F15V83 A+16V37 B10V105 C1V20 A9V102 D7V222 A14V207 G+19V175 B13V237 G+19V208 F8V162 F1V208]

$$ALL
  [G+19V111 G+8V161 B13V21 C17V102 G12V46 E12V97 C+4V66 A+16V41 F+6V211 C7V6 G+8V178 A+12V225 G+19V42 F5V110 E11V186 A+5V53 D4V89 F19V43 F11V158 C+11V100 B11V102 C+7V34 D4V86 E4V179 A+1V41 E20V42 E12V51 D4V80 F14V186 G+8V105 E8V81 A12V150]

$$ALL
  [E11V236 A1V86 G+13V21 C12V153 G+12V170 F19V106 C7V69 C7V169 C+14V102 G+8V86 G+12V153 F7V154 C14V164 E7V150 G+13V149 F11V170 C+7V90 G+12V89 C7V101 A8V154 C14V101 G+12V153 E8V166 A13V170 C+7V101 C7V86 G+12V105 A13V154 A13V102 A12V89 A12V153 C7V149]

$$ALL
  [E7V85 E7V153 F8V102 A13V170 G+8V149 C7V169 A13V153 G+12V149 E12V85 F8V154 A13V89 C+7V102 C+7V89 A12V102 C+14V170 C+14V170 C+14V170 C+14V170 C+14V170 C+14V170 C+14V170 C+14V170 C+14V105 C+14V170 C+14V170 C+14V170 E6V50 rV77 B6V109 A4 rV120 r]

$$ALL
  [rV255 rV255 rV255 rV255 rV255 C+14V170 C7V85 C+14V86 A13V170 E12V85 E16V41 G10V255 rV22 rV251 F+18V255 D0 G10V255 rV227 C+0 rV255 r rV160 F+20V97 C0V70 rV255 rV255 rV8 B19V255 rV255 r B19V255 rV3]

$$ALL
  [r rV239 rV41 r A+4V255 D13V222 rV4 G7V255 rV159 rV1 D+6V253 F+20V62 C14 D+2V213 rV217 C11 F0V244 rV253 A+6 D+0V80 F+18V170 D11V5 C+14V104 F+20V203 F15V85 G6V82 A16V245 G+3V255 G2V21 C+14V138 A+7V85 C7V65]

$$ALL
  [D+13V173 D9V239 C+14 G6V173 E20V175 A+13V85 B10V168 A7V191 G+15V42 D+1V80 D14V95 G+15V191 C+0V80 F+19V213 E20V255 F13V74 G6V84 F+20V175 C+14V84 B5V80 C+14V175 G+17V42 B5V82 C7V122 C7V85 B6V74 F3V173 A20V213 D17V75 F3V170 C+14V213 C7V171]

$$ALL
  [F3V74 F3V170 C+7V85 C7V74 E13V170 C+7V213 C7V85 B13V85 C+14V85 F+14V85 C+14V21 C+14V170 A8V107 C7V170 C+6V170 F+7V107 C7V85 C+6V21 C+14V106 G+17V85 C7V84 B13V170 C7V189 C+14V21 A6V170 C+14V189 C7V213 A6V40 C+14V106 A17V85 C7V82 C11V170]

$$ALL
  [G+17V86 C7V85 C11V85 C+14V85 F+14V85 C+14V21 C7V170 D14V245 C+7V170 E13V85 C7V171 C+14V85 C+6V42 C7V85 C+14V189 E12V42 C+6V85 C7V106 C+14V170 C7V42 C7V85 C7V170 C+14V84 C7V85 C+14V86 C+14V170 E13V84 C7V181 G+17V170 C+14V133 B6V85 C+14V85]

$$ALL
  [C+14V170 E13V84 C7V170 C7V170 A6V133 B6V85 C+14V85 C+14V84 B13V42 C7V170 C7V170 C7V21 C7V85 C+14V85 G+15V84 B13V42 C7V170 C7V170 B6V161 B6V85 C+14V85 C+14V85 B13V82 C7V170 G+17V170 C7V170 C7V181 F7V85 C+14V85 C+14V85 E14V170 F+14V170]

$$ALL
  [C7V170 C7V181 C7V85 C+6V85 C+14V85 C+14V90 C7V170 C7V170 C+14V170 C7V85 A6V85 C+14V170 C+14V90 F+14V84 C7V170 G+17V170 C7V85 C7V85 C+14V170 C+14V85 G+17V85 C11V170 C+14V170 C7V85 C7V85 C+14V170 C+14V85 C7V85 G+13V170 C+14V170 C7V85 C7V149]

$$ALL
  [C+14V170 C+14V85 C7V85 C+14V170 C+14V170 C7V85 C7V149 C+14V170 C+14V85 C7V85 C+14V170 C+14V170 C7V85 C7V165 C+14V170 C+14V85 C7V85 C+14V170 C+14V170 C7V85 C7V165 C+14V170 C+14V85 C7V85 C14V170 C+14V170 C7V85 C7V149 C+14V170 C+14V85 C7V85 C+14V170]

$$ALL
  [C+14V170 C7V85 C7V165 C+14V170 C+14V85 C7V85 C+14V170 C+14V170 C7V85 C7V149 C+14V170 C+14V85 C7V85 C+14V170 C+14V170 C7V85 C7V149 C+14V170 C+14V85 C7V85 C14V170 C+14V170 C7V85 C7V149 C+14V170 C+14V85 C7V85 C14V170 C+14V170 C7V85 C7V85 C+14V170]

$$ALL
  [C+14V85 C7V85 C14V170 C+14V170 C7V85 C7V85 C+14V170 C+14V85 C7V85 E12V170 C+14V170 C7V85 C7V85 C+14V170 C+14V86 C7V85 C7V170 C+14V170 C7V85 C7V85 C+14V170 C+14V85 C7V85 C7V170 C+14V170 C7V85 C7V85 C+14V170 C+14V90 C7V85 C7V170 C+14V170]

$$ALL
  [C+7V85 C7V85 C+14V170 C+14V106 C7V85 C7V170 C+14V170 A8V85 C7V85 C+14V170 C+14V170 C7V85 C7V170 A13V85 C7V85 C7V85 C7V85 C+14V170 C+14V170 F7V85 C7V85 C7V85 C+14V170 C+14V170 C+14V85 C7V85 C7V85 C7V170 C+7V85 C+14V170 C7V85 C7V85]

$$ALL
  [C7V85 C+14V170 C+14V170 C7V85 C7V85 C7V170 C+14V106 C7V149 C+14V85 C7V85 C+14V170 C7V170 C+14V170 C+14V170 C+14V170 C+14V170 C+14V170 C+14V170 C+14V170 C+14V170 C+14V170 C+14V170 C+14V170 C+14V170 C+14V65 D+2 r F+6V15 G10V180 rV1 F+6V137 rV80]

$$ALL
  [F6 rV1 D0V2 D+9V131 C+0V3 A+10V119 D0V2 E5V78 r rV27 D+0 C4V27 D+0 C4V27 D+0 C4V25 rV3 rV4 C2V4 G6V84 r D0 C0V4 B1V82 B0V4 D+0V255 B6V29 r rV84 D+0V133 A6V4 D+0V131]

$$ALL
  [C0V4 G6V84 r E0 C0V24 G+10V12 A+0V4 G6V84 r F0 C0V4 B1V82 B0V4 F+2V1 C4V80 F6 rV7 D0V1 B14V69 B1V113 F+6V4 D0V1 E5V78 r rV3 C11V4 D+0V131 A+10V81 D+0V255 B6V22 r rV80]

$$ALL
  [B1V82 B0V4 D+0V255 B6V29 r rV104 D+0V133 A6V4 D+0V131 C+0V4 G6V84 r A+0 C0V24 G+10V12 A+0V31 D1V49 B14V91 G6V84 r B0 D+0V129 A+10V11 F+6V15 C11V4 G6V84 r C1 C0V49 D+0V129 A+10V11 G7V15]

$$ALL
  [G10V180 C0V80 F6 rV14 A10V4 D+0V131 A+10V80 D+0V128 D0V1 E5V78 r rV27 D+0V133 A6V4 D+0 C0V4 G6V84 r D+1 C0V24 G+10V12 A+0V31 D1V49 E5V78 r rV31 D1V49 D+0V129 C0V49 D+0V129 C0V49 E5V78]

$$ALL
  [r rV3 G10V180 C0V24 G+10V12 A+0V4 G6V84 r F+1 C0V4 B1V82 A5V4 B1V82 A6V4 G6V84 r G1 C0V24 G+10V69 C4V24 G+10V81 C4V80 F6 rV21 F+0V1 B1V82 A5V4 B1V82 A6V4 G6V84 r r]

$$ALL
  [C+0V4 B1V49 A+8V4 B1V49 F+8V4 B1V49 F+9V4 B1V49 E9V4 B1V49 D+9V4 B1V49 E5V78 r rV27 D+0 C4V27 D+0 C4V27 D+0 C4V25 rV3 rV4 C2V4 G6V84 r C+0 C+0V4 C0V3 G+10V4 D+0V133 A+10V110]

$$ALL
  [D+0 C+0V80 F6 rV3 D0V2 D+0V131 rV112 D+0V129 C4V27 D+0V129 C4V4 G6V84 r D+0 C+0V4 C0V3 G+10V4 D+0V133 A+10V110 D+0 C+0V80 F6 rV5 D0V2 D+0V131 rV112 D+0V129 C4V27 D+0V129 C4V4 G6V84 r]

$$ALL
  [F0 B14 G+8V15 D+0V129 D+0V129 C+0V24 G+10V180 rV65 D+3 C0 E8V129 C4V25 rV3 G+10V4 D+0 C+0V4 B1V49 E5V78 r rV128 D+0V135 C+0V3 G+10V106 D0V2 D9V255 B6V41 rV1 rV4 D2V2 G+10V110 D0V2 D+0V129]

$$ALL
  [C+0 B8V129 C4V80 F6 rV10 D2V2 G+10V4 D+0 C+0V4 B1V49 B0V31 D1 B14V122 G6V84 r A+0 C4V27 D+0V129 C4V4 D+0V133 rV65 G3 C0 G9V15 G+10V4 D+0 C+0V4 B1V49 B0V31 D1 C+10V255 B6V43]

$$ALL
  [rV1 rV4 D2V2 G+10V4 D+0 C+0V4 B1V49 C+10V4 B1V49 E5V78 r rV31 D1 D+0V131 rV120 D+0V129 C4V4 F+2V2 rV24 rV65 F3 C0 F+10V4 B1V49 E10V4 D0V2 D+0V129 C+0 D+0V131 rV65 D+3 C0]

$$ALL
  [B9V15 G+10V4 D+0 F+9V4 D+0 C+0V4 D0V2 E5V78 r rV31 D1 D+0V131 rV4 D+0V133 rV122 D+0 C+0V80 F6 rV18 D0V2 D+0V131 rV124 D+0V129 C4V27 D+0V129 C4V4 G6V84 r F+1 C+0V4 D0V2 D+0V129]

$$ALL
  [D+0V135 C+0V3 G+10V120 B1V82 E5V78 r rV128 D+0 C+0V24 G+10V180 rV120 D0V2 B9 A6V25 rV3 rV65 E3 C0 A10V129 C4V4 F+2V2 rV24 A+10V12 F+10V15 G+10V4 G6V84 r A1 B0V31 D1 D+0V131 rV123]

$$ALL
  [D+0V129 C4V27 D+0V129 C4V80 F6 r D0V2 F+7V129 C+0V3 G+10V103 D0V2 E8V131 C+0V80 F6 rV1 D0V2 B14V91 C0V129 C+0V1 G6V84 r C+0 rV128 D0 rV160 rV128 D0 rV160 rV128 rV160 rV128 rV160]

$$ALL
  [rV128 rV160 rV128 rV160 rV128 rV160 rV128 rV160 rV128 rV160 rV128 rV160 rV128 rV160 rV128 rV160 rV128 rV160 rV128 rV160 E5V78 r rV27 C19V27 C19V27 C19V27 C19V27 C19V27 C19V27 C19V27 C19V27 C19V27]

$$ALL
  [C19V27 C19V27 C19V27 C19V27 C19V27 C19V27 C19V27 C19V27 C19V27 C19V27 C19V27 C19V27 C19V27 C19V27 C19V27 C19V27 C19V27 C19V27 C19V27 C19V27 C19V27 C19V27 C19V255 B6V161 rV2 rV72 G10V96 D+13V108 G10V108 D+13V72 G10V180 rV108]

$$ALL
  [D+13V74 G10V108 D+13V108 G10V108 D+13V76 G10V108 D+13V108 G10V108 D+13V77 G10V108 D+13V120 G10V108 D+13V76 G10V108 D+13V120 G10V108 D+13V74 G10V108 D+13V108 G10V108 D+13V76 G10V108 D+13V108 G10V98 D+13V80 F6 rV5 D2 D2 D2 D2 D2]

$$ALL
  [D2 D2 D2 D2 D2 D2 D2 D2 D2 D2 D2 D2 D2 D2 D2 D2 D2 D2 D2 D2 D2 D2 D2 D2 D2 D2 D2 rV65 D10 C+0 B5V229 B7V229]

$$ALL
  [B8V229 B14V72 B14V108 B14V74 B14V108 G+7V229 D+6V229 G+7V229 B8V229 G+7V229 E6V229 B14V120 B14V76 B14V120 B7V229 C+6V229 B7V229 B8V229 B7V229 D+6V229 B14V108 B14V80 F6 rV7 D2 C0V3 D2 D2 D2 D2 D2 D2]

$$ALL
  [C0V3 rV76 B14V108 G+7V229 E6V229 G+7V229 B9V229 G+7V229 D+6V229 G+7V229 B9V229 G+7V229 C+6V229 G+7V229 B8V229 G+7V229 D+6V229 G+7V229 B8V229 G+7V229 G6V84 r G0 rV128 rV160 rV128 D0 D0 D0 D0 D0 D0]

$$ALL
  [rV160 rV128 rV160 rV128 rV160 rV128 rV160 rV128 rV160 rV128 rV160 rV128 rV160 rV128 rV160 rV128 rV160 E5V78 r rV27 C19V27 C19V27 C19V27 C19V27 C19V27 C19V27 C19V27 C19V27 C19V27 C19V27 C19V27 C19V27]
