
$UNKNOWN_0x83, $FM1,

!ALL

$Inst1,
$Inst2,
$Inst3,
$Inst4,
$Inst5,
$Inst6,
$Inst7,
$Inst8,
$Inst9,
$Inst10,
$Inst11,
$Inst12,
$Inst13,
$Inst14,
$Inst15,
$Inst16,
$Inst17,
$Inst18,
$Inst19,
$Inst20,
$Inst21,
$Inst22,
$Inst23,

$$ALL
  [D+5 D+5 D+5 r r r r r r r r r r r r r r r r G+8V104 B6V109 D+3V114 D+8V66 rV67 rV1 rV1 rV9 G+0 rV10 A+0 rV12 C1 rV14 D1 rV16 C+3 rV67 G5 rV69 A5 rV71 B5 rV74 C+6 rV76 E6 rV78 G6 rV81 A6 rV83 C7 rV87 D7 rV88 D+7 rV88 F7 rV91 G7 rV92 G7 rV93 G+7 rV94 A7 rV94 A7 rV94 A+7 rV96 C+0V4 G0 E0V6 rV1 F+0V8 D0V4 A0V10 C0V3 rV1 D+0V1 C+0V3 G+0V9 D+0V6 A0V1 F+0V8 C0V1 C0V5 C0V1 D0V3 r r r r rV1 rV2 F12 F+8V32 A+3V101 E8V83 G+9V102 E3 r G10 C+4 C0 C+0V16 D+1V5 F+0V16 D+1V10 B0V16 D+1V15 C0V208 D+17V4 F0V208 D+17V9 A+0V208 D+17V14 rV224 G18V3 E0V224 G18V8 A0V224 G18V13 D1V224 r F0V6 rV5]
  [D+5 D+5 D+5 r r r r r r r r r r r r r r r r D8V114 D9V108 G2V114 C8V41 C+0 r rV168 D8 rV115 G2 rV25 E17 rV201 C20 rV194 E10 rV172 C12 rV240 E17 rV79 C+4 rV158 C+10 rV239 B18 rV60 C15 r F19 rV35 B12 rV153 F+8 rV213 A7 rV188 D7 rV108 G1 rV66 B7 rV141 B5 rV2 G2 rV77 A+8 rV152 B17 rV83 rV1 F0V7 C0V2 G0V8 D0V5 G0V1 F+0V8 C0V1 C0V1 C0V2 D+0 F0V7 C0V2 G0V9 D0V4 A0V10 D0V5 C+0V2 D0V3 r r r r C0 rV1 r r C+9V115 G2V114 A9V114 G2V78 r r r r r r r r r r r rV255 r rV255 r rV255 r rV255 r rV255 r rV255 r r F0V6 F0V6 G11]

$$ALL
  [E0 r C+0V4 B0V14 A1V68 r r C6V83 D+0V78 F+9V40 E3V83 B3V255 rV48 B3V255 rV48 B3V255 rV48 B3V255 rV48 B3V255 rV48 B3V255 rV48 B3V255 rV48 B3V255 C0V48 B3V255 rV48 B3V255 rV48 B3V255 rV48 B3V255 rV48 B3V255 rV48 B3V255 rV48 B3V255 rV48 B3V255 rV48 B3V255 rV48 B3V255 rV48 B3V255 rV48 B3V255 rV48 B3V255 rV48 B3V255 rV48 B3V255 rV48 B3V255 rV48 F6V241 rV255 rV255 rV255 rV255 rV255 rV255 rV255 rV255 rV255 rV255 rV255 rV255 rV255 rV255 rV255 rV255 rV255 rV255 rV255 rV255 rV255 rV255 rV255 rV255 C+4 E5 G2V121 F5V115 A5V36 D2 D+5 rV48 D+6V7 C0V78 r F9V118 G2V108 rV77 F2V14 F1V90 F+4 rV68 B15V69 rV218 D7V114 G6V97 F+8V70 A6V223 F+18V72 A+5 rV76 E0V1 r rV111 D+9V99 A5V36 B11 D+5 rV50 D+6V7 C0V78 r D9V100 D8V32 D9 G2V20 C+2V10 F+0V23]
  [C6V30 r F+0V9 E1V19 D+0 C6V9 r C+0 rV114 G9V77 C0V255 rV255 r rV255 r rV255 r rV255 r rV255 r rV255 r rV255 r r r rV255 r rV255 r rV255 r rV255 r rV255 r rV255 r rV255 r rV255 r rV255 r rV255 r rV255 r rV255 r rV255 r rV255 r rV255 r rV255 r D1V15 D1V15 D1V15 D1V15 D1V15 D1V15 D1V15 D1V15 D1V15 D1V15 D1V15 D1V15 D1V15 D1V15 D1V15 D1V15 D1V15 D1V15 D1V15 D1V15 D1V15 D1V15 D1V15 D1V15 G+5V73 C+18V1 G+8V97 A+6V97 B5V80 F+4V32 rV39 F3V12 E0V231 G2V80 A+6V83 F6V22 E8V69 G2V97 D+20 rV48 C+4V31 F+2V69 rV5 F6V50 rV65 G9V101 G2V104 rV71 D+5 rV16 A1V8 rV32 C6V83 C0V78 G2V102 B5V114 A+1V32 rV26 C+2V6 E0V23 G2V80 A+6V85 F6V24 F8V83 G6V32 B2V244 D+5 rV2 C+4V159]

$$ALL
  [A+1 G6V192 C+7 C2V86 A+6V97 G2V97 rV23 G4 rV26 F1V5 rV32 C6V83 rV78 C8V32 E6V43 r rV2 D0V7 r F6V50 rV65 G9V79 r C0V12 F0V4 rV2 D0V7 r F6V50 rV65 A+5 rV13 A+1V4 D+1V120 C+14 G6V192 C+6 C1V70 B5V80 D+4 rV23 G+1V19 G0V170 G2V80 A+6V71 F6V10 G+8V101 rV54 A8V95 A+7 D+5 E0V5 C+4 E5 G2V112 C+9V83 G2V111 E6 G+0V56 C+3 rV15 G5 G+5V73 C+18V1 G+8V32 E8V72 A+9V83 G2V111 E6 B0V56 C+3 rV15 G5 G+5V73 C+18V1 G+8V32 E8V72 G9V83 G2V111 E6 D+1V56 C+3 rV15 G5 G+5V73 C+18 A+5V66 C6V83 rV78 G8V67 E5 C0V1 C1V13 A0V10 F+0V6 D+0V3 C0 C0V253 r C0V1 C0 C6V83 rV78 G8V67 D+6V110 D+9V8 rV14 C+1V13 B0V12 A0V9 F+0V6 D0V2 E0V255 rV2 D0V14 r r B5 A+0V77 E8 G2V1 G1V17 G+0V181 G+16 G6V192 G4 E1V80 G2V114]
  [F+0 F6V78 r D+8V79 G2V111 G2V70 C+8V159 D13 D+5 rV76 E0V1 r rV105 D9V101 rV8 A0V6 rV1 r rV69 rV218 B5V45 C+9V77 r A0V9 C+0 rV1 r rV69 rV218 A5V110 B2V244 G2 rV18 E9V31 F+0 F6V78 r A+8V71 A5V36 F+2V32 D+5 rV113 D+6V7 C0V78 r D9V103 E6 C+2V115 B3 rV21 G5 G+5V73 C+18V1 G+8V32 E8V72 F+8V116 E8V41 rV98 C+4V148 A+11 D+5 E0V5 C+4 E5 G2V112 D9V83 F+8V116 E8V41 rV98 C+4V159 D13 D+5 E0V5 C+4 E5 G2V112 D9V70 F+8V116 E8V41 rV98 C+4V159 D13 D+5 E0V5 C+4 E5 C+9 r rV114 C+8V108 rV255 C+1V14 B0V11 G+0V8 E0V4 C+0V2 r rV1 C+1 r rV255 r rV114 C+8V108 F9 G+4V255 C+1V14 C1V13 A+0V10 G0V8 E0V4 C0V1 rV251 rV1 r r F6V78 r F+8V108 B2V244 F+5 rV4 D+0V95 F+0 F6V78 r G2V111 D+3V41]

$$ALL
  [E5 C0V2 A+0V11 C6V83 rV78 F+6V103 F5 D1V255 G+0V9 G+0V255 r rV117 D9V101 E8 rV13 A+1V4 D+1V120 C+14 G6V192 D+7 D2V70 B5V80 G2V111 E6 B1V69 A+5 rV16 G5 G+5V83 C+8V115 G8V100 rV34 rV255 rV255 rV255 C+3V221 A+20V34 A+0V241 C+6V248 D0V255 D2V24 A2V222 B20V127 D+6V230 B20V88 F+10V128 F+10V132 F+10V57 C2V44 E13V140 G13V155 B15V213 D+3V62 F+10V127 D+9V127 A+7V63 E2V36 D1V44 C1V241 G13V147 C11V128 G10V142 G+12V154 D+15V184 E17V221 C+20V249 A1V63 E10V103 F+10V127 F+10V69 F+10V122 F+10V127 F+10V86 E7V96 G20V13 G15V128 G10V128 G10V128 G10V128 G10V128 G10V128 G10V128 A+15V170 D+16V232 B1V243 A0V54 G+8V75 A9V127 F+10V127 F+10V127 F+10V127 F+10V127 A7V87 F6V76 A+4V225 B13V253 A+13V144 A+12V145 E11V128 G10V128 G10V128 B12V146 A13V144 F+13V167 D+17V220 A+0V212 rV56 D6V83 B8V92 E7V112 G+8V127 F+10V127 D+9V75 G5V85 B4V15 A3V41 F+0V239 B16V196 C+14V197 C13V149 A13V142 E13V151 D11V171 A13V181 D16V171 F19V230 A20V233 A+1V8]
  [C0 F0V6 D+0V255 r rV83 E5V112 C+2V8 r D+0 C6V83 C0V78 G2V116 C+7V108 B2V244 G2 rV18 E9V31 F+0 F6V78 r A+8V71 D+6V119 C9V41 rV23 C8V31 F+2V32 C+1 E0V5 C+4V21 F9V109 G+1 r rV255 rV255 C18V254 G+1V238 B19V36 rV239 A14V27 F2V203 C+18V186 B18V205 A+1V249 G10V77 D+4V33 A+16V128 E15V126 G+5V179 F+0V21 F+16V178 A+13V173 A+19V13 E8V112 F+10V127 C10V123 F+9V53 A+18V241 G10V147 G+12V161 G+13V128 G10V128 A10V139 A13V171 D+16V206 C+19V237 G+1V71 D+4V29 E9V50 F+10V127 F+10V127 F+10V127 B6V112 C+10V97 G2V17 rV228 D15V173 G10V128 G10V128 G10V128 G10V128 G10V128 G10V128 F+15V179 F+20V226 F5V62 E7V62 F+10V126 F+10V127 F+10V127 F+10V127 F+10V127 C+10V127 C+8V72 D+1V55 G0V253 D+15V216 F15V141 D+12V128 G10V128 G+10V128 G10V133 D+12V165 C+14V207 A18V220 C+19V17 B3V37 C3V57 F9V108 F+10V127 E10V80 G+7V79 D+9V86 A+8V68 F+8V85 C1V15 C+1V237 A18V237 G+15V164 D+13V174 B11V142 G10V141 G10V142 D14V162 A+14V200 D17V240 C20V240 rV254 C3V26]

$$ALL
  [A1V48 F+4V69 C6V73 D+7V86 G7V95 G7V89 A6V81 E6V70 A+4V40 D+2V17 D+2V11 C21V245 E18V227 C+17V207 D+16V187 E14V176 A+13V157 F14V168 A13V181 C15V201 A18V220 D+18V232 D+19V245 D0V16 D+3V20 A+2V41 A3V47 E4V52 D5V70 G5V70 B4V56 C5V47 B3V53 D+2V14 G1V14 D0V2 G20V242 B19V248 A18V226 A+16V206 G16V209 C+17V188 G16V200 G+15V189 C+16V199 B17V203 G+16V221 B18V227 C+20V255 F0V20 G1V19 G+2V49 D3V48 A+4V37 A+3V44 E4V49 F2V53 E3V50 A+3V49 G3V40 C3V29 E1V23 D1V9 C+0V3 E19V240 A+19V232 B18V227 A+17V214 G16V204 B16V197 D+16V199 C+16V196 A15V193 F+16V195 C+17V214 D+18V221 E20V236 F+0V1 A+0V24 G+2V48 G+4V62 F+5V59 A5V62 F5V69 C+5V68 A+4V56 A3V50 A+3V40 D2V20 A1V16 r B20V245 C+19V232 D18V210 E17V209 E16V196 E16V212 G17V210 G16V208 F17V208 D+18V229 D+19V234 F19V239 G19V240 F+20V243 C21V253 F+0V254 rV4 G0V11 D1V14 D2V29 B1V37 D+3V36 A+2V41 B3V39 E3V44 D+3V36 A2V28 F+1V14 A+0V17 G+0V11 rV4 C0V254 A20V250 F+20V239 E20V239 A+19V236 G+19V237]
  [A+3V34 F+5V73 A5V77 G6V85 F7V96 D+8V79 C5V69 A+3V39 A2V23 G+2V26 E20V245 C+19V212 B17V210 D+17V184 G14V166 D15V168 G14V168 E13V188 F15V196 G17V199 D+19V228 D+18V9 rV242 D3V23 C3V26 C+4V39 C4V49 D+4V52 F+5V70 F5V57 F+4V60 C4V62 G3V41 G1V40 C+0V16 D+0V245 C+19V245 G19V222 C19V215 E16V204 D+16V182 F+16V194 G+15V190 G15V195 D17V201 G+16V222 A18V219 G+19V241 rV4 C1V11 E2V36 B2V42 A+3V48 G3V46 B3V60 A3V41 B3V56 A+3V47 F3V28 G3V26 D+2V16 F2V13 D+0V2 G20V255 G19V229 A+17V222 E18V209 A+17V208 A+16V210 F+16V208 G+16V194 B16V200 D17V195 G16V194 C18V208 B18V233 C21V1 C+0V11 A+2V24 D+3V52 C+5V61 F+5V69 G+4V61 G5V62 G+4V60 C+4V53 D+4V36 F2V27 G1V17 A+0V9 D0V253 G19V236 F18V226 A17V216 F17V209 D16V201 F17V208 G16V201 A17V206 A17V220 C19V221 F19V240 B19V236 B19V242 B20V253 G20V252 C0V1 A+0V7 A1V20 D2V16 E2V29 A+2V39 G3V37 C3V41 E3V46 E3V41 E2V35 B1V17 E1V15 G0V14 F+0V4 rV252 rV3 F+20V250 G20V236 C20V240 D+19V230 E19V230]

$$ALL
  [A+18V222 F+18V221 A+18V227 D18V222 B17V217 D+18V226 D+18V230 F+18V233 G19V232 G+19V234 B19V239 G+20V241 B20V254 C21V255 G0V9 C1V19 A2V33 B2V40 B3V48 D+4V56 G+4V60 A+4V56 B3V47 B2V37 D+2V29 F+1V9 D0 F+20V242 F19V239 E19V229 A+18V221 C+19V228 B18V229 C19V226 E18V229 F+18V226 D+18V222 B18V228 A+18V223 E19V226 C+19V230 D+19V232 G+19V240 D20V237 F+20V248 G+20V253 rV6 D+0V9 E1V14 F+1V27 A1V23 E2V30 G+2V34 G+2V35 D3V39 A2V39 F2V34 F2V24 G1V16 C1V13 F+0V2 C0V253 F+20V248 C+20V243 C20V242 G+19V241 E19V237 A+19V237 C+20V241 E20V245 G20V247 B20V252 F+20V249 E20V243 C20V243 B19V237 E19V236 A+19V237 C+19V233 D+19V228 E19V233 G19V236 A+19V242 C+20V241 B20V254 C0 G0V8 A+0V13 D+1V19 B1V26 E2V29 G+2V34 B2V35 G+2V34 D+3V40 B2V35 A+2V34 D2V27 A+1V24 C1V14 F+0V3 rV255 E20V240 C+20V240 G19V237 D+19V227 A18V222 D18V219 F18V222 A18V222 A+18V227 C+19V234 B19V239 D20V242 G20V250 r C0V3 C0V3 rV2 r rV252 C21V252 rV252 G+20V248 C21V253 C21V255 C+0V3 F0V9]
  [F+18V226 D+18V227 D18V219 C18V222 A+18V220 F+18V227 C+19V230 F19V229 G19V233 G+19V237 C20V245 G+20V249 A20V250 C0V8 C1V14 A1V26 A+2V40 B3V47 B3V55 G4V53 C+5V56 A+4V57 A+3V44 A2V33 C+2V20 G0V3 C21V249 F+20V245 C19V237 D+19V228 C19V229 B18V230 A+18V226 B18V230 A18V228 F18V228 A18V223 C19V227 C19V227 F+18V229 B18V233 C20V236 A+19V237 G+20V245 A20V250 rV4 F0V7 C1V15 C+1V14 A1V23 A+1V24 E2V30 B2V29 B2V37 C3V35 A2V36 G+2V34 D2V26 C+1V19 G+0V6 rV254 C0V254 E20V247 B19V242 G19V236 B19V239 A+19V239 G+19V239 B19V243 E20V250 G+20V242 B20V252 G20V248 G+19V245 C+20V239 G19V239 G19V237 G+19V237 G19V228 C+19V233 C19V234 G+19V237 E20V245 F+20V248 rV1 F0V7 G+0V8 D+1V14 G1V22 C+2V26 G+2V30 G+2V33 B2V40 A+2V37 D3V36 D3V37 F2V29 E2V24 F+1V20 G0V8 C+0V1 A20V249 G20V247 A+19V239 E19V228 F+18V223 E18V219 D18V220 D+18V220 F+18V219 A+18V229 F19V234 A+19V242 G20V248 C21V254 rV1 rV6 C0V3 r rV252 C21V254 C21V252 G+20V252 B20V252 G+20V253 r D0V4 G0V8]

$$ALL
  [G+0V11 D1V11 D+1V17 G1V16 F+1V20 E1V17 F+1V19 G1V20 D+1V17 C1V14 G+0V13 F+0V7 G0V6 D+0V2 rV1 B20V253 A20V252 G20V247 E20V247 E20V245 C20V241 C20V237 G19V233 G+19V239 G19V239 A+19V240 B19V240 B19V241 D20V245 F+20V248 G20V250 B20V252 rV254 rV4 F+0V6 D+0V6 F+0V4 F0V6 D0V4 F+0V7 D+0V4 D0V4 D+0V6 F0V4 F0V7 D0V2 F+0V6 F0V2 D+0V7 D+0V4 D0V2 C0V2 rV254 r A20V255 B20V253 C21 C21V253 C21V252 C21V254 C0V1 C0V4 D+0V6 D+0V6 G0V7 F+0V4 C+0V3 D+0V2 r A20V252 G20V247 E20V241 C+20V241 C20V240 B19V240 C20V242 B19V240 C20V241 F+20V249 G+20V250 C0V1 C+0V255 D+0V6 F+0V6 F+0V4 F0V6 F0V4 D+0V3 D+0V6 D+0V6 F0V6 F+0V7 D+0V4 D0V2 C+0V1 rV3 C+0V3 C0V3 D0V2 D+0V4 C+0V4 D0V3 D0V2 D0V2 C0 rV252 C21V252 A20V252 B20V252 A20V249 G20V250 A20V249 A20V248 G20V252 G+20V252 A20V252 C21V253 C21V254 C21V253 rV255 r rV254 r rV1 r C0V255 C0 r]
  [C1V15 D+1V15 D+1V17 A1V19 G1V17 F+1V19 G1V20 F+1V22 E1V17 D1V11 A+0V8 F0V6 D0V3 rV1 C21V255 B20V2 C21V252 G+20V248 D20V243 C20V241 C+20V241 B19V239 G+19V237 G+19V236 G+19V234 G+19V237 A+19V241 A+19V242 D20V247 A20V250 A20V253 C21V254 C0 C+0V2 D0V4 F0V4 F0V7 D+0V7 F+0V7 F0V7 G0V4 F0V6 F+0V7 D0V7 F0V6 F0V4 F0V3 D+0V4 D+0V6 F+0V3 D0V3 C0V1 rV255 rV255 rV253 rV253 G+20V253 B20V250 C21V253 rV253 C0V1 C0V6 F0V4 F0V7 F0V7 D+0V3 D0V2 rV1 C21V253 A20V248 E20V245 C+20V243 C20V241 B19V240 A+19V239 B19V241 B19V243 E20V245 G+20V249 C21V253 r D0V4 F0V6 G0V6 D+0V6 F0V6 F0V7 F+0V6 D+0V3 D+0V4 F0V8 D+0V4 D0V3 C0V2 C+0V3 C0V2 C+0 C0V3 C+0V1 D0V2 D0V2 C+0V1 C+0V3 r r rV254 B20V252 B20V252 G+20V252 G+20V250 A20V249 A20V250 G+20V250 B20V252 B20V252 B20V253 B20V252 rV252 C21V253 rV255 rV255 rV255 r r r C0 r r]

$$ALL
  [r r C0V1 r C0V1 D0V2 C0V2 F0V4 D+0V8 D+0V4 D0V2 D+0V3 C0V2 rV1 rV254 C21V252 A20V250 G20V249 G20V249 F+20V247 E20V247 A20V252 B20V252 C21V254 r C0 C+0V1 D0V4 D+0V3 G0V8 F+0V8 F+0V7 F0V4 D0V2 C+0V2 C0V1 rV254 C21V253 rV252 B20V250 A20V250 B20V252 C21V253 B20V252 rV255 rV255 rV255 r C+0 r r rV255 rV254 rV255 rV254 rV254 rV254 rV255 rV255 r rV1 r C0V1 C0 C0V1 rV1 C0V1 rV1 r r r rV255 r rV255 r rV255 r rV255 rV255 rV255 rV75 rV27 G8 rV255 rV255 rV5 A+10V133 F11V128 G14V127 G+7V13 F+17V90 F+10V127 F+10V126 G+3V10 D14V227 C+4V157 G+10V129 C+15V214 B2V104 F+10V47 F+0V239 F16V138 G10V129 C+14V23 A6V77 F10V121 F7V94 E7V124 C+18V168 G+4V241 F+18V127 D+0V149 G10V247 D3V135 F+11V169 F20V127 G+3V41 F+11V47 G+4V44 D+2V67 D10V96 F20V9 A+15V183 D0V255 B16V243 C15V176 E13V238 A+18V158]
  [rV1 C0 r C+0 C+0V2 D0V3 D0V3 D+0V6 F+0V6 D+0V6 D+0V1 C+0V2 C0V2 C0V255 rV254 B20V253 A20V249 G20V248 F+20V247 F+20V248 F+20V248 A20V252 C21V254 rV255 rV1 C0V2 D0V3 D+0V4 D+0V6 F+0V8 F+0V8 D+0V4 D+0V3 C+0V2 C+0 r rV252 C21V254 A20V250 A20V250 B20V252 B20V252 B20V252 C21V254 rV255 rV255 rV255 C+0V1 rV255 r rV255 rV255 rV255 rV254 rV254 rV255 rV254 rV255 rV254 rV255 r r C0V1 C0 C0V1 C0V1 C0V1 rV1 r rV1 r r rV255 rV255 rV255 rV255 rV255 r rV255 G6V131 F6V95 G+0 C0V255 rV255 rV255 F3V215 G10V128 G+10V135 F+10V22 F+10V126 A+9V116 F+10V127 C9V127 F4V229 C15V196 G10V128 B14V134 E19V219 F+10V69 F+5V88 C3V170 F+11V128 A+12V160 F+0V30 F+9V79 G6V127 B3V99 C16V207 B13V71 C+18V127 F4V208 F17V215 G10V203 F+13V222 G10V53 C+1V57 G+20V14 F8V178 A+3V109 F+10V127 A+3V39 B2V146 C+16V56 D1V247 A16V223 D+17V225 C+17V236 G1V234]

$$ALL
  [A+17V51 A+15V221 A+15V19 C7V243 F+10V70 A+8V10 D9V70 G8V240 G+15V91 F17V248 G8V87 C+17V253 C+20V228 A18V187 C+12V246 B14V223 G20V194 F8V11 F0V71 C6V112 D+9V236 F9V218 B15V204 D14V128 C+11V160 C0V155 F1V167 F+0V244 F+16V12 C+19V44 A+4V26 G18V66 F+20V50 C18V95 C+8V19 E18V166 G+15V255 A+1V53 E18V248 B1V249 F15V243 C+15V7 G18V27 D0V38 C4V9 G3V221 F19V255 E15V37 D+2V56 D5V247 E9V11 A6V17 G0V254 A+15V128 B12V136 A0V251 F3V127 C+5V127 F+3V25 A+3V8 F+2V22 B2V198 F20V190 E2V249 F6V36 C3V9 C19V65 A+20V242 A2V218 A20V183 C21V28 G2V48 F2V56 C+5V37 E1V47 rV241 G19V220 B20V196 F19V220 D+0V46 C20V7 A+0V46 B20V14 rV223 F+1V191 F18V61 E18V236 B3V35 D+2V77 rV234 G+18V185 A15V23 F19V233 G+20V252 D+0V10 F+3V21 D+20V239 A20V32 F1V204 G+18V247 F+20V235 G2V254 G5V10 B0V232 E1V220 G+18V22 A20V15 C+19V25 C19V231 D+0V21 A19V35 F+20V226 G+4V234 G+1V244 F1V205 D+20V240 B20V4 B17V1 G+0V5 A+19V22 D+0V248 G+17V8 F3V240 rV1 E1V8 C+0 G+3V54 E0V246]
  [B17V71 E15V235 C+19V127 G+1V106 D3V8 D+18V10 D+15V40 C1V141 G+2V185 C16V18 B12V2 D19V223 F16V178 A15V209 C17V5 A+20V244 D+1V65 F+1V82 C+1V111 C+17V96 F+10V100 D5V74 C+19V225 D+14V140 C6V226 C12V219 A20V198 F9V72 G16V40 rV60 G+16V17 C+4V254 F19V81 D+2V45 C8V14 F2V239 G20V61 D+19V66 D+2V166 G10V224 B11V153 D+19V254 rV49 rV239 G1V246 F15V250 A+2V164 C+9V220 D10V47 F+0V95 F+15V35 rV147 C+11V161 C14V207 E14V192 C19V59 G6V127 F2V73 G+0V70 A20V11 A+19V235 F+16V211 E20V228 E17V21 F6V250 A3V101 A+20V128 C+15V146 D15V212 F+0V202 F+1V234 G1V82 A+16V31 D2V54 A0V239 A2V236 A+18V248 B14V48 E20V228 G+2V47 G+18V21 G0V228 G+19V16 B16V231 B17V211 F+1V29 G3V9 F20V77 rV238 D+18V240 G+19V9 C+16V239 C+19V234 G+1V25 C+2V47 D+4V9 D+3V251 C+1V3 C3V254 G0V2 E18V4 E0V241 D0V44 B1V48 A+1V230 F+20V37 D17V189 C+15V10 A+0V19 A+1V1 A+1V37 C+5V2 G+0V42 G+18V244 A18V239 G15V230 E17V13 E3V239 F16V13 G0V199 B19V37 E20V233 G+1V253 B19V15 A+2V2 G+4V25 F+4V22 rV20]

$$ALL
  [G20V221 D0V223 F18V1 C2V8 A+1V29 E0V251 A+19V41 F18V246 G+19V241 C+3V236 B1V7 C+2V8 D+0V20 A+20V245 D0V6 A+18V11 G0V243 B20V11 G+20V10 A+17V243 A0V241 B1V14 A1V244 E0V17 D+20V236 A+20 D+1V5 G+20V9 G20V19 F+2V255 G1V239 D19V4 F20V19 D0V10 G19V237 G+0V239 B1V252 G+1V245 rV27 F0V3 B19V233 A+20V1 G+20V6 C+0V228 A+20V236 rV254 F19V4 A+19V255 B19V23 D+0V249 F+19V253 D0V230 F+0V253 G+1V13 A19V21 A20V251 E17V244 G+19V237 F1V11 C20V12 rV226 E0V14 A+19V237 D+2V229 A+20V250 G20V227 A+0V2 D+0V252 B2V2 F+0V255 rV255 A20V237 G0V12 A+18V13 C+20V253 A+0V1 rV18 A+19V27 A0V238 C+20V243 E1 D20V252 G0V13 rV19 G+19V6 A+19V15 C+20V3 A+20V11 B0V250 E20V8 C+0V253 A+0V16 D1V22 F0V6 A+20V245 C+0V244 E20V235 B1V1 B0V21 B1V244 C+0V254 G+20V248 C+20V242 rV240 B20V4 D+0V23 D+2V253 D3V235 E20V253 rV237 D+0V255 B0V6 rV248 A+0V8 A0V255 D+0V254 A+20V1 rV6 A+20V251 rV9 G0V3 A+0V253 C21V17 D20V251 rV252 F0V242 G+20V254 D+0V242]
  [E17V245 F19V15 D20V209 F+19V40 G19V47 C2V222 A20V233 A+20V39 E19V244 B0V226 D20V255 D+20V233 D3V5 G+18V37 rV9 E1V242 F20V253 F18V207 A20V35 G+19V242 C3V253 D+0V4 D+3V12 rV16 G+0V21 F18V16 A+1V240 rV242 A+20V17 A20V242 G18V247 C+0V12 G19V11 D20V239 C0V238 rV13 E20V244 G2V3 E20V1 C+0V27 E20V245 B0V3 E0V247 rV24 rV11 C+1V240 F1V249 E19V18 C0V27 F+0V241 F0V19 rV32 C+1V23 D+1V18 B20V6 D1V26 B20V22 F1V233 E1V247 E1V245 C20V253 C0V253 B0V22 A+19V246 G20V254 F0V255 A20V34 B20V16 A20V8 F+19V249 C+20V250 F19V247 G+0V253 B0V233 B19V2 A+20V251 F+0V8 D1V254 F1V247 rV255 F20V7 G+20V1 D+20V7 D+0V2 rV1 G+20V241 F19V250 C21V240 E19V16 r D1V3 D0V252 A0V7 F+0V250 A19V251 C20V8 E20V4 F1V232 B19V252 F+0V253 C0V245 E19V237 E18V241 C+1V4 A0V255 F0 rV2 C21V252 F+20V248 C+20V254 C21V5 C2V9 C+1V249 D+0V248 C+1V247 G0V247 C+0V247 G0V244 G0V247 E20V7 rV3 G+0V252 C0V254 A20V5 F+0V247 C21V1 D0V3 A20V11]

$$ALL
  [C1V2 C1V2 C21V4 E20V7 G+20V1 F19V255 C0V230 C+0V238 F1V252 C21V5 C+1V3 D0V4 F+1V248 B20V6 D+20V255 C+0V250 F+20V3 rV247 D+0V251 rV249 C+1V247 D+0V5 E1V254 rV247 D0V255 D20V3 C+0V251 C21V255 D+0V249 D+0V6 rV3 D0V2 B0V2 rV248 C21V3 G+20 G+20V4 rV251 rV254 G0V9 C0V9 C21V252 rV246 A+20V245 B20V255 B20V253 C0V2 C0V17 F0V3 F0V1 C0V252 F+0V241 F+20 A20V251 C21V3 D0V1 D+0V2 C21V1 C0V3 G+20V6 rV248 rV254 D0 rV254 A20V5 C0V254 A0V4 B20V1 rV4 rV7 D+0V5 E0V251 D0 rV249 A+20V255 r rV253 C+0V1 D0 C0V6 rV254 E20V251 C0V255 C0V6 D0V6 D0V2 D0V1 C+0V250 rV252 C0V1 C21V249 C21V2 rV251 C+0V5 E0V255 C0V3 G0 rV254 r rV250 rV250 C21V254 B20V254 D0V3 F0V1 rV255 C21V254 C+0 E0V3 rV3 E0V255 C21V253 rV253 A+20V1 C+0V254 r r r C0V253 B20V250 rV1 C0V2 D0V3 D+0V1 rV2 rV2 rV253 B20]
  [A+19V7 rV3 A0V246 A+20V1 rV8 C21V243 G20V254 F+20V7 G20V17 D+0V5 D0V6 C+0V6 F0V253 rV250 E20V247 rV253 rV247 B20V245 E0 rV255 E0V1 E1V253 B20V1 rV1 F0V254 C+1V255 F+20V2 C21V250 A+20V255 A20V253 F+20V251 F0V1 C21V6 F0V251 A20V1 C+0V1 A20 C21V253 C0V6 E0V1 E0V4 C21V246 C21V252 C+20V8 F20V251 C+0V250 F0V6 rV6 D0V5 C21V1 F0V253 D20V252 A20V251 F20V4 D0V253 A20V1 G+0V6 F+0V1 D0 C0V253 rV251 G20V4 A+20V253 A+20V254 C+0V255 rV8 D0V255 C21V253 D+20V2 E0 F0V3 rV3 G+20V253 B20V254 G+20V250 rV253 C+0V253 C0V255 C+0V255 r rV2 G20V2 E0V255 C+0 rV5 C21V254 B20V251 C+0V246 C21V252 G+20V254 C0V253 A+20V255 rV255 rV3 C+0V1 F+0V8 C21V2 C21V1 C0V250 A20V249 C21V252 rV255 D0V2 D+0V2 rV252 rV253 r rV1 C+0V255 F0V2 rV254 A+20V2 C21V255 B20 rV255 r C+0V254 C0V253 B20V254 r C0V2 rV1 D0V254 C0V1 C0 rV255 rV253 rV255]

$$ALL
  [rV254 rV253 B20V254 B20V1 C0V2 C+0V3 C+0V3 r C21V252 rV252 C21 C0V255 D0V2 C+0V3 C+0 A+20V2 B20V251 rV251 rV2 C0V4 C+0V2 C21V254 r C21V254 rV252 r r r rV254 rV254 C21V255 rV1 C+0V1 D0V3 D0V1 r C21V254 B20V255 rV255 rV255 rV255 rV2 r rV1 C0 C21 rV254 r C0V255 D0V2 rV255 r rV254 rV253 C21V252 rV254 rV1 r r C0V255 r D0V3 C+0 r rV255 B20V253 rV252 rV1 C0V255 C+0 rV255 C0 rV1 rV1 rV1 r rV254 rV255 r rV255 rV255 rV1 rV255 r r r C0V254 r rV1 rV255 rV255 rV254 rV255 r rV1 rV255 rV1 r C+0V255 rV1 C0V2 C0V1 r C21V253 rV254 rV254 rV255 rV254 rV254 r r rV1 C0V2 C+0V1 r rV255 C21V254 rV254 rV255 rV255 rV254 rV255 rV255 r r C0V1 C0V1 C0V1]
  [C21V254 C21V255 r C+0V1 C0 E0V4 D+0V3 rV255 A+20V253 rV254 rV253 C0 C+0 rV1 C21V254 B20V252 rV253 r C0V3 D0V4 C+0V1 C21 rV254 rV254 r C0V254 C21 rV2 rV254 rV255 r r C+0V4 C+0V4 D+0V1 B20V253 rV253 rV255 C21V254 r rV1 C0V255 rV1 r rV255 r C0V255 D0V2 C0V1 rV1 r r C21V253 rV253 rV254 rV255 C0V1 C0V1 rV254 rV255 C0V1 C0 rV1 rV254 rV252 C21V253 rV254 C0V255 rV255 rV1 C0 C+0V255 rV255 r rV254 rV255 rV254 r r rV254 C0V2 r rV254 rV255 C+0 r C0V1 rV1 C0 rV254 rV254 rV254 r rV1 rV255 rV254 r r r C+0 C+0V1 r rV254 B20V253 C21V253 r rV255 rV254 rV254 rV1 rV1 C0V1 C0V2 C0V1 rV255 rV254 rV255 rV255 rV254 rV254 rV255 rV255 rV254 r rV1 C0V2 C0V1 C0V1]

$$ALL
  [C0 rV254 rV255 r rV255 rV254 rV254 rV255 rV1 r C0V1 rV1 C0V1 rV255 rV255 rV255 r C0 rV254 rV255 rV255 rV1 r r rV255 r r r r rV255 r rV254 rV254 rV255 r C0V1 C0 C0 rV255 r rV255 rV255 rV255 rV254 rV254 rV255 C0 r r C0V1 r rV255 rV255 rV255 r rV255 r r rV255 r r r r r rV1 r rV255 r rV255 rV255 rV255 rV255 r r r r r r r r r rV255 rV255 rV255 rV255 rV255 r r rV255 rV255 rV255 r r r r r rV255 rV255 r r rV255 rV255 r r r r rV255 r rV255 rV255 rV255 r r r r r rV255 r r rV255 rV255 rV255 rV255 r rV255 r rV255 rV255]
  [r rV255 rV255 rV255 rV254 rV253 rV255 r C0V1 r C0V1 C0V1 rV255 r rV255 rV255 rV255 r rV254 rV255 r r r r r r r rV255 rV255 rV255 rV255 C21V255 rV255 rV255 C0 C0 r C0 r r rV254 rV255 rV254 rV255 rV255 r r r C0 C0 r r rV255 r rV255 r r rV255 rV255 r r rV255 r r C0 r r rV255 rV255 rV255 rV254 r r r r rV255 r r r r rV255 rV255 rV254 r rV255 r r rV255 rV255 rV255 r r r r rV255 rV255 rV255 rV255 r r r rV255 r r r r r rV255 rV255 rV255 r r r r r r r r r r rV255 rV255 rV255 rV255 r rV255 rV255 r]

$$ALL
  [r r r rV255 r rV255 rV255 rV255 rV255 r rV255 rV255 r r r r rV255 r D+0 E7V1 E0V3 B0V8 A+8 G+10V106 D0V5 C0V129 C0V1 G+10V104 D+0V1 rV108 B8 G+2V104 D0V4 E5V78 rV59 G+10V180 C0V129 G+10V94 C0V129 D8V129 C0V129 G8V3 C0V129 B14V1 G+10V104 r C0V3 D0V10 G+10V180 C0V129 C0 E8V1 A+8V108 G8V129 C0V129 D9V1 B6V133 rV111 C0 B14V1 rV116 C0V129 G9 B14V1 rV180 C0 E9V1 G+10V116 A9V128 C0 E5V78 rV1 rV113 C0V129 E9V1 rV111 C0 B14V1 rV113 C0 rV120 A+9V1 rV116 D0V10 G+10V113 C0 G8V1 r E11V111 C0V133 G0V137 E5V78 rV35 B14V1 G+10V101 G+1V1 G+10V96 G+10V96 G+10V101 D0V22 G+10V180 C0V133 C0V255 r C0V129 G8V3 A7V129 B14V1 A0V1 B14V1 G+10V101 G+0V1 G+10V108 G+10V104 r B0V8 D10V122 G9V106 D10V122 G9V103 D10V122 G9V106 D10V122 G9V80 rV9 F+10V125 A+9V117 F+10V125]
  [r r r r rV255 rV255 rV255 r r rV255 rV255 rV255 r r r rV255 E5V78 rV59 G+10V180 C0V129 rV180 D0V5 F0V3 B0V8 D8V129 E7V1 C0V129 A8V129 G+2V107 D0V5 D+0V1 G+10V106 D+8V6 r G+0 E8V1 A0V3 B14V1 C11V94 G+10V101 G+10V180 G+10V99 G+10V107 C0V129 E5V78 rV1 B10V106 E8V3 G8V1 G+10V101 rV180 D0V9 D0V9 G+10V106 G+10V180 C0V255 r E9V1 rV113 C0 E9V1 D0V10 rV113 C0V129 E9V1 rV111 C0V133 E9V1 G+0V1 rV111 r C0 B8V1 rV180 C0 E9V1 rV108 C0 B14V1 C0V132 D0V9 C0 B14V1 A9V129 B14V1 rV180 G6V84 E0 D9V1 C11V12 E11V97 r G+1V16 C0V129 C0V129 C0V129 A7V3 E8V129 B14V1 D8V3 A+8V1 G+10V106 B6V103 rV101 G+10V180 G+10V99 G+10V95 C0V129 D0V9 C0V129 C0V129 C0V129 A+8V3 E5V78 rV39 D+0V4 D+0V4 D+0V4 D+0V4 D+0V4 D+0V4 D+0V4 D+0V4 F6 E0V127 D+0V4 E0V127 D+0V4]

$$ALL
  [A+9V117 F+10V125 A+9V117 E9V111 A+8V106 F8V101 C8V96 G6V84 r D+1V1 G+10V108 D+0V1 F8V4 D+0V4 F+10 D+0V25 G+10V101 C0V129 C+9V129 C0V128 E10V123 G+9V116 C+9V129 G0V24 G8 D1V11 G+10V107 C0V129 B14V1 G+10V106 C0V129 E9V1 G+10V113 C0 A+8V1 B6V107 rV108 B0V1 E8V3 G8V1 G+10V101 C0 B8V133 C0V129 D0V12 C0V129 D9V255 rV1 C0 B14V1 C11V113 C0V129 G+9V3 C0 D9V1 rV113 C0 B14V1 G+10V113 G10V116 C0 C+14 D9V3 E9V129 D9V3 E9 B14V3 B14V1 C1V1 E9V1 rV108 C+1V120 B9V131 B14V1 rV180 G+10V118 E9 B14V1 rV180 r E11V104 C0V133 E11V104 F6 G10V12 G+10V101 D0V22 G+10V180 C0V133 C0V129 C0V129 E8V129 C0V129 B8V1 G8V80 rV7 C0V129 D9V1 G+10V180 C0V133 F+8V1 G+10V180 C0V129 F9V1 G+10V113 F6 D3V96 D+0V4 D+0V4 D+0V4 D+0V4 D+0V4 D+0V4 D+0V4 D+0V4 r F+10V4 D+0V4 F+10V4 D+0V4 F+10V4 D+0V4 D+0V4 D+0V4 D+0V4 D+0V4 D+0V255 rV2]
  [E0V127 D+0V4 D+0V4 D+0V4 D+0V4 D+0V4 B14V4 r E8V1 C0V129 C+9V129 C0V128 E10V123 G+9V116 C+9V129 G0V24 rV1 G+10V108 D+0V1 F8V4 D+0V4 F+10 D+0V25 rV65 C0 G0V129 B8V1 G+10V101 C0V129 G8V1 G+10V180 C0V129 B14V1 A+10V180 C0V255 rV1 D0V14 D0V13 G+10V180 C0V129 B14V1 rV180 C+1V108 G+10V101 B14V1 C11V108 B6V135 rV111 rV113 C0 B14V1 G+10V113 G10V116 rV180 C0 B14V1 C11V113 C0V129 G+9V3 B14V1 rV65 C0 rV180 rV180 rV180 rV108 G+10V113 C0 D0V12 C0 C0 D0V13 G+10V119 C0 A9V3 D0V13 rV111 C0 E5V78 rV3 G8V1 C11V104 G8V80 rV6 G0V129 B14V1 D8V3 A+7V1 G+10V99 G+1V1 G+10V104 G+10V106 G+10V180 D0V22 F6 F+0V4 G+10V180 C0V129 F8V1 G+10V106 C0V129 D9V1 G+10V180 C0V133 D9V80 rV8 G0V149 C+10V120 A7V149 C+10V120 F+7V149 C+10V120 A7V149 C+10V120 G6V84 G+0 E10V123 G+9V116 E10V123 G+9V116 E10V123 G+9V116 D9V110 A8V105 E8V100 B7V1 B6V149 rV15]

$$ALL
  [C0V8 G+10V180 C0 D+0V133 C+10V120 B8V4 rV100 C2V1 G+10V180 C0 D+0V133 C+10V120 B8V4 rV100 G6V84 C0 rV1 C0V131 A8V1 B14V1 C0V129 G8V1 B8V1 G+2V116 D9V1 G+10V111 G2V8 G+10V106 F6 F+2V3 F+10V1 G+10V125 C0V129 B9V1 rV120 C0V1 G+10V120 C0V129 F+10V1 r G+10V132 C0 A10V1 C11V132 C0V1 rV132 C0V129 B10V1 rV130 C0V133 B10V1 C0 A10V80 rV4 rV180 C0 B14V1 rV180 C0 F+10V1 rV180 C0 B10V138 C0 B14V1 G+10V139 C0 B14V1 rV180 r E11V100 C0V133 G0V137 E5V78 rV1 r D+0V129 B14V1 G+10V96 C0V129 E8V1 G+10V103 C0V129 B14V1 C11V109 G6V84 G0 rV12 E1V32 G0 D10V17 B0V8 G+2V123 rV12 D+1V33 G0 B0V16 G2V8 rV12 E1V32 G0 D10V17 B0V8 G+2V123 rV12 D+1V33 G0 B0V16 G2V8 rV12 E1V32 G0 D10V17 B0V8 G+2V122 rV12 D+1V33 G0 B0V16 G2V8 rV12 E1V32 F6 G10V180 rV1 E0V127 C0V128 rV1]
  [C0V129 B8V1 G10V111 D+0V4 D+0V4 C0V129 rV1 C0V129 B8V1 G10V111 D+0V4 D+0V4 C0V129 rV1 r D1V11 B14V1 A+8V16 C0V129 G8V1 A8V16 C0V129 B14V1 G+10V113 G+2V180 B14V1 C0 G8V80 rV2 E1V1 C0V129 B14V1 G+10V180 C0 B14V1 C0V129 E10V1 G+10V130 G6V84 D0 B14V1 rV180 C0 D11V1 C0 B14V1 rV180 C0 B10V1 G+10V135 E11V1 rV180 F6 C0V129 B10V1 G+10V132 C0 A10V1 rV180 C0V129 B10V1 rV138 F+11V1 rV137 C0 E11V1 rV130 C0 E5V78 rV3 D+8V1 C11V12 E11V112 r G6V84 F+0 G+10V103 C0V129 B14V1 C11V96 C0V129 B14V1 G+10V108 C0V129 B8V1 C0 G9V125 rV12 D+1V33 G0 B0V16 G2V8 rV12 E1V32 G0 G9V17 B0V8 G+2V116 rV12 D+1V33 G0 B0V16 G2V8 rV12 E1V32 G0 G9V17 B0V8 G+2V116 rV12 D+1V33 G0 B0V16 G2V8 rV12 E1V32 G0 F+9V17 B0V8 G+2V115 rV12 D+1V80 r D1V3 B14V1 A8V1 F8V25 C3V99]

$$ALL
  [C0V24 G+10V101 E8V5 B7V1 C11V99 E5V78 rV1 G+10V180 G+10V106 B1V102 A8V5 C2V1 C0V129 C0V129 D+0V141 C11V99 F6 D5V101 C0V129 G8V3 C0 A+7V1 G+10V99 B0V1 G+10V104 B0V1 G+10V95 C0V129 rV65 D0 G+10V101 C0V129 B14V1 G+10V180 G+10V96 G+10V180 C0V129 A7V1 G+10V96 rV65 D0 C1V1 B14V1 G+10V96 C0V133 C0 D8V129 D0V12 C0V129 A7V1 B0V1 rV96 r C0 B7V1 rV101 C0V129 E8V1 rV180 C0V129 rV99 C0 G8V1 G+10V104 C0 B14V1 B6V38 rV106 E11V106 D3V118 E11V118 r G6V84 G0 G+10V115 C0V129 B14V1 C11V108 C0V129 B14V1 G+10V120 C0V129 B9V1 C0 B0V3 C0V33 G0 B0V1 G2V8 rV12 E1V32 G0 F+10V17 B0V8 G+2V127 rV12 C0V33 G0 B0V1 G2V8 rV12 E1V32 G0 F+10V17 B0V8 G+2V127 rV12 C0V33 G0 B0V1 G2V8 rV12 E1V32 G0 E10V17 B0V8 G+2V125 rV12 C0V33 B6V101 rV12 E1V32 G0 A9V17 B0V8 G+2V118 rV12 C0V33]
  [rV100 G+10V180 G+10V106 C0V129 B1V8 r D2V3 E8V5 B7V1 G8 rV3 C2V1 G+10V104 A10V107 D+0V129 C0V80 rV2 C0V8 G+10V180 G+10V99 G+10V180 C0V133 C0V129 C0V129 E8V129 C0V129 B14V1 C1V3 F8 E8V129 B14V1 G+10V94 C0V129 A7V3 B14V3 E8V1 G+10V99 C0V129 A7V3 F+9 D8V129 D0V12 C0V129 A7V1 B0V1 rV96 C1V1 B14V1 G+10V96 C0V133 C0 E5V78 rV1 rV101 C0 B14V1 rV180 C0V129 E8V1 C0V132 D8V1 rV180 C0V129 E8V1 rV99 C0V255 rV3 C0V137 A8V1 G0V137 E5V78 rV1 r D0V129 B14V1 G+10V108 C0V129 E9V1 G+10V115 C0V129 B14V1 C11V121 G6V84 G+0 E1V32 G0 A9V17 B0V8 G+2V118 rV12 C0V33 G0 B0V1 G2V8 rV12 E1V32 G0 A9V17 B0V8 G+2V118 rV12 C0V33 G0 B0V1 G2V8 rV12 E1V32 G0 A9V17 B0V8 G+2V118 rV12 C0V33 G0 B0V1 G2V8 rV12 E1V32 G0V255 rV3 rV12 C0V33 G0 B0V1 G2V8 rV12 E1V32 G0]

$$ALL
  [G0 B0V1 G2V8 rV12 E1V32 G0 A9V17 B0V8 G+2V118 rV12 C0V33 G0 B0V1 G2V8 rV12 E1V32 G0 A9V17 B0V8 G+2V118 rV12 C0V33 G0 B0V1 G2V8 rV12 E1V32 G0V255 rV4 C7V1 C0V1 G6V84 C0 C0V129 E8V129 C0V129 B7V1 B7V3 E8V1 C0V1 B14V1 C11V94 rV65 D+0 rV108 C0V129 B8V1 G+10V96 C0 B7V1 G+10V96 C0V129 G0 B14V80 r C0V133 C+5 B7V1 G+10V96 C0V137 B7V1 C11V97 C0V129 E5 B7V1 G+10V96 C0V133 B7V1 G+10V96 C0V133 E5V78 rV1 C11V97 C0V133 C8V1 C11V97 C0V255 rV5 B7V1 C11V96 C0V133 B7V1 C11V97 F6 rV80 rV1 F6 rV80 rV3 C11V114 D9V1 D+0V4 D+0V4 D+0V4 D+0V5 E0V5 E0V1 C0V129 D0V2 D0V2 D0V2 A9V80 rV4 B9V4 D+0V4 D+0V5 D0V2 C0V129 E0V5 D0V2 C+0V118 A9V129 E0V5 E0V4 C0 C11V120 C0V1 D+0V5 E0V5 r G+10V120 E0V1 A9V129 E0V5 E0V4 C0 rV3 D0V2]
  [F+10V17 B0V8 G+2V127 rV12 C0V33 G0 B0V1 G2V8 rV12 E1V32 G0 F+10V17 B0V8 G+2V127 rV12 C0V33 G0 B0V1 G2V8 rV12 E1V32 G0 E10V17 B0V8 G+2V125 rV12 C0V33 B6V29 rV180 C0V1 C0V1 r C+0V1 G+10V104 G+10V94 G+10V180 D0V1 G+10V180 C0V129 D0V2 C0V129 D8V129 D7 B7V131 B7V1 G+10V180 C0V129 B14V1 rV180 C0V129 B7V1 rV65 D+0 F6 F19V96 rV65 E0 C0V133 C8V1 G+10V96 C0V129 B7V1 rV65 E0 C0V133 C8V1 G+10V97 C0V133 C8V1 G+10V97 r C0V129 B7V1 G+10V96 C0V129 B7V1 B6V56 rV96 C0V133 C8V1 C11V97 C0V129 C8V80 r F6 rV80 rV2 F6 G10V115 B10V113 C0V130 D9V130 B8V130 B8 rV3 D0V2 F+9V1 G+10V113 E0V5 E0V5 E0V5 F6 G10V118 C+0V120 B9 C11V120 E0V1 rV3 G10V123 E0V4 D+0V4 rV3 D0V2 C+0V118 D+0V5 D10V1 C0 rV3 E5V78 rV128 D0V2 D+0V4 rV3 D0V2 C+0V118 D+0V5 E0V5 E0V1]

$$ALL
  [D+0V4 D+0V5 E0V5 F+10V1 D+0V5 E0V5 E0V1 G+10V120 E0V4 D+0V4 B6V159 rV99 rV9 D+0 G+0V4 rV11 D+0 A+0V4 rV7 rV10 D+0 D8 G0V4 rV10 D+0 D+0V134 F+0V4 r rV65 F0 D+0V4 D+0V4 G0V1 G+10V8 F8V129 D0V103 G+10V103 F0V4 G0V6 G+10V108 D+0V4 G0V4 E0V8 C0V255 rV6 E5V78 rV254 r E5V78 rV254 r E5V78 rV254 r E5V78 rV254 r B0V4 rV8 D+0 G0V4 rV10 D+0 A0V4 rV88 A0V4 rV10 A+0V4 rV7 D+0 F+0V4 D+0V134 F0V4 r rV65 F+0 D+0V4 G0V4 E0V8 C0V129 D0V95 D+0V3 C0V129 G0V6 G+10V8 G8V129 A8V4 E0V8 D+0V5 A8V1 r B14V80 rV10 F6 rV80 rV1 F6 rV80 rV3 F6 rV80 rV5 F6 rV80 rV7 F6 rV80 rV9 F6 rV80 r A+12V141 G+11V155 A+12V141 rV65 G+0 G+10V155 G+10V155 G+10V156 F+0V1 B12V129 G+10V155 G+10V156 F+0V1 G+10V155 A+12V3 D0V7 B6V118]
  [B9 rV3 B10V126 C0 rV3 D0V2 C0V129 D0V2 C+0V115 D9V255 rV6 D+0 G0V4 rV10 D+0 A0V4 rV12 D+0 C8 G+0V4 rV9 rV9 D+0 G+0V4 rV97 B10V8 G6V84 F+0 B11 B8V129 D0V108 D+0V3 C0V129 D+0V4 D+0V4 C0V129 B8V4 E0V8 D+0V5 A8V1 D+0V3 F0V4 F9V1 B6V8 rV180 r E5V78 rV254 r E5V78 rV254 r E5V78 rV254 r E5V78 rV7 D+0 F+0V4 rV9 D+0 G+0V4 rV11 D+0 rV11 D+0 G+0V7 D+0 F0V4 rV8 F+0V20 B10V7 G6V84 F+0 C+12 F+0V15 D+0V3 F0V4 E8V1 D+0V4 D+0V4 G0V1 G+10V101 D+0V5 D+0V4 G+10V99 F0V4 G0V6 C11V107 G6V84 G+0 F6 rV80 r F6 rV80 rV2 F6 rV80 rV4 F6 rV80 rV6 F6 rV80 rV8 F6 rV80 rV10 F6 D0V7 F+0V3 D0V7 G0V3 A+9 A+12V129 B12V3 C0V129 A+12V129 D0V8 F+0V3 C0V129 A+12V129 C0V129 D0V7 G+10V156 A+12V255 rV9]
