
$UNKNOWN_0xA0, $FM1,

!ALL

$Inst1,
$Inst2,
$Inst3,
$Inst4,
$Inst5,
$Inst6,
$Inst7,
$Inst8,
$Inst9,
$Inst10,
$Inst11,
$Inst12,
$Inst13,
$Inst14,
$Inst15,
$Inst16,
$Inst17,
$Inst18,
$Inst19,
$Inst20,
$Inst21,
$Inst22,
$Inst23,
$Inst24,
$Inst25,
$Inst26,
$Inst27,
$Inst28,
$Inst29,
$Inst30,
$Inst31,
$Inst32,
$Inst33,
$Inst34,
$Inst35,
$Inst36,

$$ALL
  [D+5 D+5 D+5 r r r rV14 r r r r r r r r r r r r C9V103 rV111 r r r D+1 rV17 F1 rV19 F+1 rV21 G+1 rV23 A+1 rV24 C2 rV26 D2 rV28 E2 rV30 F+2 rV33 G+2 rV34 A+2 rV37 D3 rV40 E3 rV43 G3 rV44 G3 rV47 B3 rV50 D4 rV52 F4 rV56 A4 rV59 C5 rV63 D+5 r F5 rV67 G+5 rV71 B5 rV74 D6 rV75 D6 rV77 F6 rV79 G6 rV83 B6 rV84 B6 rV84 C+7 rV88 D+7 rV90 F+7 rV93 G+7 rV94 A7 rV96 C8 rV98]
  [D+5 D+5 D+5 r r r A5 r r r r r r r r r r r r C8V105 G+8V105 rV2 r G2 rV19 A13 rV179 C14 rV212 F11 rV204 C8 rV133 F3 rV100 A20 rV36 C+16 rV193 A+14 rV68 D7 rV59 F+19 rV130 A1 rV127 C6 rV85 C20 rV140 A+16 rV52 C+17 rV53 C12 rV48 D+5 rV195 C+3 rV57 F+7 rV216 F+20 rV87 A4 rV129 D+16 rV167 C16 rV19 C+0 rV93 D12 rV25 G+4 rV151 C6 rV98 r rV61 G7 rV204 A+13 rV127 C+5 rV164 A0 rV106 F12 rV4 G+6 rV23 G+14 rV10 D7]

$$ALL
  [C+8 rV98 D8 rV100 E8 rV102 F+8 rV104 G+8 rV108 C+9 rV112 F9 rV116 G9 rV117 A9 rV119 B9 rV122 C+10 rV124 D+10 rV125 F10 rV127 G10 rV130 A+10 rV133 C11 rV133 C+11 rV135 D11 rV137 F11 rV139 rV2 A+0V13 F+1V21 C2 G+0V9 D1V2 A+0V20 E0V7 A+0V13 F+1V7 D0V5 E0V11 E1V19 D0V5 G+0V6 F1V20 C0V3 G0V9 D+1V18 r E0V5 G+0V11 F+0V16 D+0V5 A0V11 F0V7 D+0V4 E0V7 A0V4 D0V5 D0V3 D+1V18 C0V3 F+0V3 C+1V16 G1V1 r r r D0V2 F+0V8 D0V3 C0V1 D0V3 D0 r rV80 rV80 A+6V32 rV83 r rV77 G+9V116 D8V34 C+9V32 A0V77 E8V105 G2V69]
  [rV180 C+2 rV162 B16 rV63 E1 rV120 C+20 rV30 D2 rV20 C+12 rV2 F+9 rV13 C+5 rV15 E14 rV176 C+10 rV137 D14 rV117 E20 rV78 G+0 rV246 B16 rV139 F+2 rV163 E20 rV177 G1 rV13 B17 rV166 G17 E0V7 D0V16 A+1V11 D0V5 C1V3 D0V9 C+0V4 F+0V9 D+0V4 rV2 F+0V7 C+1V4 G0 F+0V8 C1V15 G0V9 E0V7 A+0V13 G+1V8 D0V4 D0V1 C1V5 C0V3 F+0V8 C1V14 rV1 D+0V4 G0V2 C+0 F0V8 A+0V13 F+0V19 F0V6 D+0V11 F+0V7 D+0 F0V4 r rV1 D0 rV5 C0V1 C0V1 D0V3 r rV80 rV80 r G6V71 D4 r C+4V58 E8V83 E5V99 G+8V110 C+4V58 D9V105 G9V114]

$$ALL
  [G9V41 G+8V97 G+9V114 C+8V121 A0V111 E6V108 A0V73 F9V97 C9V32 A3V10 C5V61 C5V61 C5V61 C5V10 G2V111 G9V32 E8V117 A0V108 G2V97 D9V32 D9V32 D9V104 G2V67 C+9V32 G2V121 D3V32 G3V115 A9V44 D9V116 F8V108 D9V32 C+9V99 A0V110 G2V85 F+6V116 G+9V111 G2V108 G+9V116 D8V34 G2V102 G+8V32 G9V65 G2V108 G2V119 E8V118 A+6V108 A2V32 F+9V109 D+9V97 G2V112 A0V104 C10V105 D+8V116 A9V114 C9V103 A2V32 A+6V97 B8V34 G2V32 G2V32 G2V32 G+8V108 C5V61 C5V61 C5V61 C5V61 E17V209 E17V32 G+10V190 A10V140 G2V186 A15V130 D+17V10 A15V137 D+17V208 D+17V208 D15V143 D+17V208 F13V190 F+6V108 G2V184 G+15V181 D+17V208 G2V184 G15V34 G6V111 G+15V176 G2V184 D+17V208 C15V208 E17V208 E17V208 D+17V32 G+10V184 A15V209 E17V32]
  [A0V114 C+8V32 A2V116 A6V110 F9V98 F9V108 G+8V32 D3V32 D+8V108 C5V61 C5V61 C5V61 C5V61 G9V105 E8V114 G+8V32 G2V111 E8V116 C+9V32 C+9V121 C+9V32 G2V111 G4V32 F+9V46 G2V119 B8V101 G+8V116 G9V101 E8V117 E8V114 E8V116 G+9V105 C10V97 E8V115 D+8V32 A0V65 G3V32 E8V83 F+9V111 C8V115 C+9V105 E8V115 F+8V105 G8V32 C10V117 E8V105 G8V116 G9V116 G+8V32 G+8V110 D3V32 E8V105 D+8V32 D9V10 C8V105 D+8V32 G2V105 A0V32 G2V32 G2V32 D9V107 C5V61 C5V61 C5V61 C5V61 D+17V32 G14V187 D+17V209 D+17V208 G+11V130 D+17V209 G2V191 D+17V208 G2V141 C15V189 G2V208 E17V209 D+17V208 G2V186 E7V117 D+17V208 D+17V208 G2V208 E17V208 G+9V111 D8V34 F+5V57 A10V176 A3V208 A15V178 A10V181 G15V190 E17V208 D+17V208 A10V184 G+11V187]

$$ALL
  [D+17V209 D+17V208 A+10V183 G+3V209 E17V208 D+17V46 G14V32 A+15V181 C+12V189 D9V46 D+17V208 G2V67 A+6V111 G+11V130 D+17V208 G2V186 D+17V32 G2V108 D+17V208 E17V32 A9V32 B8V66 G2V32 A10V190 D+17V208 D+17V32 C15V128 D+17V208 G10V190 G2V10 D+17V208 E17V32 E17V208 B14V181 G11V208 E17V209 A2V109 G+9V34 G2V32 C+6V103 G2V32 G2V32 G2V32 G+15V208 E17V209 C5V61 C5V61 C5V61 C5V61 A0V10 r C0V4 C0 r C8V77 A9 G2V108 B6 r r C+4 C0 C+0V16 D+1V5 F+0V16 D+1V10 B0V16 D+1V15 C0V208 D+17V4 F0V208 D+17V9 A+0V208 D+17V14 rV224 G18V3 E0V224 G18V8 A0V224 G18V13 D1V224 rV1 F0V6 rV15 D+1 rV104 C4V99 C5V10 B8V99 B8V79 E8V109 E8V110 F9V115 rV76 G8V112 D8V111]
  [G10V190 E15V208 D+17V208 A15V178 C15V185 G12V208 D+17V208 E17V46 G2V111 D+17V32 C+15V181 G9V114 A2V45 G2V190 D+17V208 E17V209 D8V101 C+9V44 G10V143 A0V76 G+9V32 G+8V100 D+17V208 E17V209 C+15V180 E17V208 A15V177 G+15V208 E17V208 D+17V209 D11V181 G2V128 F+15V209 D+17V209 G14V178 D+17V208 G+8V97 G2V208 D+9V99 E8V10 G2V32 G2V32 G2V179 A15V130 A0V61 C5V61 C5V61 C5V61 A0V10 F8V166 C0 C0 rV90 rV83 C8V68 D8V101 C+9V32 r r r r r r r r r r r rV255 r rV255 r rV255 r rV255 r rV255 r rV255 r r F0V6 F0V6 G0 E5V80 B6V112 D8V83 F+9V111 B3V102 C5V97 C5V97 B9V77 C8V115 C6 D+9V61 A+6V108]

$$ALL
  [A0V117 D8V61 C10V111 E8V110 E8V101 A0V65 F+0 D2V117 r B1V80 F+6V108 rV84 F+5V57 D+1V22 A0V7 E2V90 D0V33 r A6 F6V50 rV65 C10V117 D+8V70 G8V31 F+2 D+6 rV76 E0V1 r rV104 rV71 r rV26 B1V17 rV32 C6V83 C0V78 F9V109 E6 r r rV19 G5 G+5V73 A17 A+5V77 r rV1 F6V50 rV65 G2V97 F+4 rV37 G+2V4 E0V40 G2V80 rV7 F+0 F6V50 rV65 A+7V97 D+20 rV48 C+0V95 F+2V69 G0V1 B0 E0V5 C+4 E5 A+7V105 rV71 B3 rV20 G+1V12 rV32 C6V83 C0V78 E8V32 C8V101 D+0 rV127 F+10V10 A1V249 G2V80 A+6V114 F6V16 G2V118 A5V36 F+2 D+5 rV1 E6V33 r F+10V7 rV1]
  [D9V67 C+9V69 E8V116 G8V115 F8V108 A6 D+0V19 D9V32 D+0V13 r E7V117 G8V117 F+0V6 F9V109 A0V18 D+9V116 E5V73 rV65 r rV214 D9V108 C+4V108 rV71 r rV27 D2V15 rV32 C6V83 C0V78 F9V70 G0V31 F+2 D6 rV76 E0V1 r rV110 G9V50 rV52 D+4V31 G+0 D+5 E0V5 C+4 E5 r C0V2 C0V69 rV214 D+9V97 A5V36 A+7V65 D+5 rV1 D+6V7 C0V70 D0 rV69 rV214 C9V95 rV77 D3V11 F1V255 B1 rV65 rV65 G5 G+5V73 A17V1 B3V95 D9V70 B0V156 B12V72 B5 rV76 E0V1 r rV108 G+8V101 A5V36 F+2 D+5 rV1 D+6V7 C0V78 r B8V118 G2V112 D+0 rV127 F+10V10 A1V249 rV7 C+8V115 r C0V76]

$$ALL
  [rV32 C6V83 C0V78 E8V32 A+9V41 rV85 G+6V31 F+2 D+5 rV255 F+10V115 C0V1 rV68 B15V69 rV214 D8V97 G+8V107 rV85 G+6V31 F+2V95 D+5 E0V5 C+4 E5 r C0V14 B0V11 G+0V9 F+0V7 F0V5 E0V4 D+0V3 D0V2 C0V1 C0V1 r A+6V67 F6V6 A5V36 F+2 D+5 rV15 D+6V7 C0V78 r C8V115 D+20 rV1 E4V213 F+2 G0V1 B0 E0V5 C+4 E5 A+7V99 F+9V70 D+0V223 F+18 G+5 rV76 E0V1 r rV105 G+8V103 A+5 rV31 F1V7 F+0V55 G2V80 A+6V77 F6V16 G+4V115 A5V36 D17 D+5 rV104 D+6V7 C0V78 r F9V115 E8 C+7V255 C1V14 C+1V13 B0V11 A0V9 G0V8 F0V6 D+0V4 C+0V2 C0 C0V19 C0V1 C+4 E5]
  [E0V1 r rV108 D9V32 E6 G0V243 G+14 rV2 E5 C0V1 C+1V255 r rV5 F6V50 rV65 F+9V43 E6 C+2V243 G+14 rV127 G5 G+5V73 A17 A+5V77 r C1V13 A0V10 G0V8 F+0V6 E0V5 D+0V4 D0V3 C+0V2 C0V1 rV1 rV78 r D9V103 G5 rV127 rV17 A1V249 G2V80 A+6V86 F6V7 rV77 F3V11 C1V24 F+2 rV65 rV65 G5 G+5V73 A17V1 B3V95 G9V105 rV71 C+0 rV14 C+1V8 rV32 C6V83 C0V78 G8V115 A5V36 F+18 D+5 rV100 D+6V7 C0V78 r G8V53 G+8V103 A+5 rV31 F1V7 F+0V55 G2V80 A+6V146 F6V14 C+9V102 A9V8 rV15 D1V14 C1V12 A+0V10 G+0V9 F+0V7 E0V5 D0V3 C0V1 r C+0V255 G+5V73 A17 G8V116]

$$ALL
  [E5 C0V1 C0 D0V255 rV78 r C+9V116 C4 rV33 G+0V17 A0V255 r G6V192 G5 F+0V34 E6 D1V159 D13 rV20 G5 G+5V73 A17V1 F9V110 F+9V120 rV77 F2 rV2 F+4 rV65 rV1 rV32 C6V83 C0V78 C+9V115 B9V104 E6 rV18 C+0 rV20 E5 C0V1 G2V80 A+6V78 F6V17 D9V95 rV77 B1V15 B1 F+4 rV68 B15V69 rV214 D+4V112 A5V36 F+2 D+5 rV50 D+6V7 C0V78 r D9V105 F8V114 G+8V103 rV104 D+0V17 F1V76 D+6 E0V5 C+4 E5 G9 G2 D+3 F1V185 G0 G6V192 C11 D+0V80 G0 D1V14 B0V11 G+0V9 F+0V7 E0V5 E0V4 D0V3 C+0V2 C0V1 C0V1 C0V1 C+4 E5 r C0V11 C+0V1 r]
  [rV255 G+0V5 C0V1 rV3 A+6V75 F6V14 C9V110 B2V244 F+5 G0V100 G0V26 F+0 F6V78 r G+8V34 rV56 D+4V20 F+2 D+5 E0V5 C+4 E5 A+7V97 G2V43 D+20 rV99 A0V13 B0 G0V1 rV76 E0V1 r rV116 G+8V95 F+3V41 rV8 E8V207 C1 D+5 C0V255 D+6V7 C0V78 r C+9V121 A+7V101 G9 G0V4 G8V18 F+2V76 rV5 F6V50 rV65 B8V116 E4V32 rV40 F+3V18 rV8 G2V80 A+6V86 F6V25 A+9V118 G8V100 E6 E1V96 B7 rV15 G5 G+5V73 A17V1 D+9V102 B2V244 D+5 rV57 C+4V16 F+0 F6V78 r rV65 rV1 C1V13 A0V10 G0V8 F0V6 E0V5 D+0V4 D0V3 C+0V2 C0V1 C+0V255 G+5V73 A17 A+5V77 r D+0V2 C0 C0V255]

$$ALL
  [C6V83 C0V78 E8V32 F+8V101 rV91 G+6V31 F+2 D+5 E0V5 C+4 E5 F+3V116 G2V118 A5V36 F+2 D+5 rV3 E6V33 r F+10V7 rV1 rV32 C6V83 C0V78 E8V32 B2V244 D+5 rV82 C+4V20 F+0 F6V78 r A+8V104 A+9V70 B3V31 F+2 A5 rV76 E0V1 r rV117 B2V244 D+5 rV82 C+4V83 F+0 F6V78 r D+9V116 A5V36 A+6 D+5 rV50 D+6V7 C0V78 r G+8V116 F+8 rV30 F+2 F+0V55 F+4 G6V192 F4 F+8V127 rV3 D0 rV3 D0 B6V102 rV102 D0 rV3 D0 rV3 D0 rV3 D0 rV3 D0 B6V243 rV8 F0V8 F+8V8 A+8V8 D+8V8 F+8V8 B7V8 D+8V8 G+7V8 B7V8 F+7V8 G+7V8 E7V8 B8V8 F+8V8]
  [r rV108 G9V105 E6 G0V255 G+14 rV2 G5 G+5V73 A17V1 C8V101 C8V103 G2V112 G5 rV127 A0V21 A1V249 rV7 C+8V115 r C0V76 E0V1 r rV117 F+9 G2V24 G+3V19 rV15 A0 G6V192 D+6 D1V115 G8V95 rV53 r rV43 C+1 rV32 C6V83 C0V78 E8 G2V28 D+5 rV15 A0 G6V192 C+6 C1V122 G+3V115 D3V32 rV42 G1 G+0V10 G2V80 A+6V75 F6V14 F+9V114 B2V244 D+5 rV8 F8V31 F+0 F6V65 r F+8V133 C11V100 F+8V133 C11V100 D+8V255 r G+10V96 B7V129 G+10V100 D+8V129 G+10V93 B7V129 G+10V102 D+8V129 G+10V93 G+7V255 r B1V140 D0V6 D0V6 D0V6 D0V6 D0V6 D0V6 D0V6 D0V6 D0V6 D0V6 D0V6 D0V6 D0V6 D0V6]

$$ALL
  [A+8V8 D+8V8 F+8V8 B7V8 D+8V8 G+7V8 B7V8 F+7V8 G+7V8 E5V78 rV24 C0V3 D+1V3 C0V3 D+1V3 C0V3 D+1V3 C0V3 D+1V3 C0V3 D+1V3 C0V3 D+1V3 C0V3 D+1V3 C0V3 D+1V3 C0V3 D+1V3 C0V3 D+1V3 C0V3 D+1V3 C0V3 D4 D+7V123 G+18V136 D0V16 E11V99 D+1V225 r B14V80 rV6 E1V3 G7V24 G+18V128 D0V16 B1V241 rV65 r D+12V100 rV27 rV27 rV27 rV27 rV27 rV27 rV27 rV27 rV27 rV27 rV27 D0 D0 D0 D0 D0 D0 D0 r E10V17 B1V241 D+11V109 C+1V225 C20V3 C9V24 D6 C+9V24 G+18V136 D0V14 B1V241 A10V105 C+1V225 C20V3 E5V78 rV3 G+8V24 G+18V136 D0V14 B1V241 D+11V109 B6V68 rV110 C+1V225 C20V3 C+9V24]
  [D0V6 D0V6 D0V6 D0V6 D0V6 D0V6 D0V6 D0V6 D0V6 r G+10V107 rV102 rV105 rV100 rV102 rV95 rV100 rV93 rV95 rV90 rV93 rV88 rV107 rV102 rV105 rV100 rV102 rV95 rV100 rV93 rV95 rV90 rV93 rV65 r E12V103 D+1V225 C20V3 G+18V136 G6V84 E0 F6 F+2V16 B1V241 B10V90 D+1V225 C20V3 A8V24 D16 F8V24 G0 G0 G0 G0 G0 G0 G0 G0 G0 G0 G0 G0V3 D+8V8 G+7V8 D+8V8 G+7V8 D+8V8 G+7V8 E5V78 rV31 C20V3 A+8V24 G+18V136 D0V14 B1V241 rV65 r D+11V109 C+1V225 C20V3 F8V24 G+18V132 D0V14 B1V241 r B1V241 D+11V107 C+1V225 C20V3 A+8V24 G+18V255 r G+18V136 D0V14 B1V241 A10V110]

$$ALL
  [G+18V130 D0V14 B1V241 r F10V24 C+0V115 D+9V24 B1V1 F+9V95 B1V2 C+0V111 B1V24 G19V7 F+9V126 B1V2 C0V112 C9V24 C+0V115 D+9V24 F0 G6V84 D1 B1V120 D+10 C0V123 B9V24 rV24 F+9V121 B1V1 B1V120 C+10 C0V130 B9V24 A9 G+10V121 B1V1 B1V120 C+10 C0V116 B9V24 rV24 C+9V124 B1V1 B1V120 D+10 C0V80 rV17 G+10V4 G+2V18 rV236 E5V24 G19V31 E5V24 G19V7 B1V93 F+0V31 C9V24 G+2V18 E10V24 A2V24 B1 F6 F+0V34 G+7V24 G+2V18 C0V117 D+0V131 D+9V121 G19V7 B1V1 G10V4 C0V112 G10V4 C0V110 D+0V132 F1V24 B1 F6 F+2V31 B1V125 F+2V6 rV100 rV103 rV96 rV100 rV93 rV96 rV91 rV93 rV89 rV108 rV103 rV107 rV100 rV103 rV96]
  [C+1V225 C20V3 E5V78 rV7 D0V24 G10V236 F+0V24 B1V236 G19V3 C+9V102 B1V2 F+0V24 F10V236 G19V3 B1V128 G19V7 D0V24 G10V236 rV65 r r B1V8 G19V31 D+0V132 D+0V129 F+2V24 B10V236 G+10V4 B1V4 G19V31 D+0V132 D+0V129 rV65 r G+10V4 B1V4 G19V31 D+0V132 D+0V129 F+2V24 B10V236 G+10V4 B1V4 G19V31 D+0V132 F6 D2V32 B1V1 G+18V130 G7V124 A+10V4 E10V24 A+10V4 D+10V225 D+0V24 G+18V128 B1V1 G+18V128 B1V1 G10V4 C0V80 rV18 G+18V128 B1V1 G+18V131 B1V65 rV236 B1V65 B9V225 A2V24 B1 F1V24 B1 B1V65 C0V117 G10V4 C0V80 rV19 C2V225 D+0V24 C0V3 D+1V3 C0V3 D+1V3 C0V3 D+1V3 C0V3 D+1V3 C0V3 D+1V3 C0V3 D+1V3 C0V3 D+1V3 C0V3 D+1V3]

$$ALL
  [rV100 rV93 rV96 rV91 rV93 rV65 r F0V1 F0V16 F0V1 F0V16 F0V1 F0V16 F0V1 F0V16 F0V1 F0V16 F0V1 F0V16 F0V1 F0V16 F0V1 F0V16 F0V1 F0V16 F0V1 F0V16 F0V1 F0V16 F0V1 rV65 r B1V241 C20V7 F+0V16 D+1V24 B1V241 C20V7 F+0V16 D+1V24 B1V241 C20V7 F+0V16 D+1V24 B1V241 r D+10V225 F0V16 F0V1 F0V16 F0V1 F0V16 F0V1 F0V16 F0V1 F0V16 F0V1 F0V16 F0V1 F0V16 F0V1 F0V16 F0V1 F0V16 F0V1 F0V16 F0V1 B6V118 rV82 G1V3 D0V20 G1V229 E6 rV77 A6V127 D0V20 G1V3 D0V20 G1V3 D0V20 r B1V241 D+11V105 C+1V225 C20V3 D+9V24 G+18V130 G6V84 C2 rV3 D0 rV3 D0 rV3 D0 rV3]
  [C0V3 D+1V3 C0V3 D+1V3 C0V3 C+20 G0V129 G+8 D+8 F8 A+7 D+8 G+7 A+7 F7 G+7 D+7 F7 A+6 G+8 D+8 F8 A+7 D+8 G+7 A7 F7 G+7 D+7 F7V24 D11 G8V121 G8V114 C+10V225 G+18V130 A10V100 A+7V122 F+9V225 G+18V130 A10V92 G7V114 D+10V225 G+18V130 A10V90 E5V78 rV7 B1V140 A+7 D+8 G+7 A+7 F7 G+7 D+7 F7 A+6 G+8 D+8 F8 A+7 D+8 G+7 A+7 F7 G+7 D+7 F7V255 r G0 rV77 A5V145 D0V20 G1V3 D0V20 rV82 E6V129 C12V70 E6 rV77 E5V78 rV3 C9V24 G+18V140 D0V14 B1V241 A10V112 C+1V225 r rV129 G+10V96 B7V129 G+10V100 D+8V129 C11V102 D+8V133 rV65]

$$ALL
  [D5 F+0 D+8V133 G+10V96 D+8V133 C11V96 B7V129 F6 G10V100 D0 rV3 D0 rV3 D0 rV3 D0 rV3 D0 B6V198 rV108 D0V6 F0V3 D0V6 F0V3 D0V6 F0V3 D0V6 F0V3 D0V6 F0V3 D0V6 F0V3 D0V6 F0V3 D0V6 F0V3 D0V6 F0V3 D0V6 r D+10V3 D0V6 F0V3 D0V6 F0V3 D0V6 F0V3 D0V6 F0V3 D0V6 F0V3 D0V6 F0V3 D0V6 F0V3 D0V6 F0V3 D0V6 F0V3 G6V84 D+0 D1V225 C20V3 B8V137 D0V15 F6 F11V93 B1 B6V59 rV108 G+18V136 D0V21 B1V241 D+11V100 D1V225 r D1V225 D0V4 B6V22 rV94 D0V4 B6V21 rV99 A7V149 F6 D0V4 D+0V3 D3 F+8V127 G19V3 rV236 D0 G19V3 rV236 D0 G19V3]
  [C0 D0 rV3 D0 rV3 D0 rV80 rV1 G+10V93 D+8V129 G+10V96 B7V129 G+10V103 G+7V129 G+10V100 B7V129 G+10V96 F+8V255 rV1 rV107 D+8 rV100 F+8 rV93 B7 rV96 F+7 rV91 B6 rV103 A+8 rV96 D+8 rV100 G+7 rV93 E7 rV89 E5V78 rV7 rV102 G+8 rV95 D+8 rV100 G+7 rV93 D+7 rV88 A+8 rV100 F8 rV102 A+7 rV95 F7 rV90 G+7 rV83 r D1V149 D0V15 B1V241 D1V225 C20V80 rV5 E11V89 E7V255 rV1 E12V105 A1V225 C20V3 A+7V24 G+18V136 G6V84 F+0 F+0V4 G+7V255 rV1 E12V98 A7V255 rV1 D0V4 D+0V80 rV11 E7V149 rV65 C0 C+0V100 B1V2 F+8V24 C+0V96 B1V2 D+8V24 C+0V93 B1V2]

$$ALL
  [rV236 D0 G19V3 rV236 D0 G19V3 rV236 D0 G19V3 rV236 D0 G19V3 rV236 D0 G19V3 rV236 D0 G19V3 rV236 D0 G19V3 E5V78 rV3 D0 rV3 D0 rV3 D0 rV3 D0 rV3 D0 rV3 D0 rV3 D0 rV3 D0 rV3 D0 rV3 D0 r rV105 C+8 rV98 E8 rV89 C8 rV97 E7 rV89 G6 rV101 G+8 rV93 C+8 rV101 G7 rV92 C7 rV85 E5V78 rV3 D0V6 F0V3 D0V6 F0V3 D0V6 F0V3 D0V6 F0V3 D0V6 F0V3 D0V6 F0V3 D0V6 F0V3 D0V6 F0V3 D0V6 F0V3 D0V6 r rV112 G+8 rV105 B8 rV98 E8 rV101 B7 rV96 E7 rV106 D9]
  [G+7V24 C+0V100 B1V2 B7V24 C+0V96 B1V2 F+8V24 C+0V96 B1V2 D+8V24 C+0V100 B1V2 B7V3 C+0V100 B1V2 E7V24 C+0V96 B1V2 D+8V24 C+0V93 B1V2 r rV100 G+7 rV96 F8 rV93 B7 rV100 G+7 rV96 F+8 rV96 F8 rV100 D+8 rV100 G+7 rV96 B7 rV93 E5V78 rV3 D0V6 F0V3 D0V6 F0V3 D0V6 F0V3 D0V6 F0V3 D0V6 F0V3 D0V6 F0V3 D0V6 F0V3 D0V6 F0V3 D0V6 F0V3 D0V6 r rV112 G+8 rV105 B8 rV98 E8 rV101 B7 rV96 E7 rV108 D+9 rV101 G+8 rV108 E8 rV101 B7 rV96 E5V78 rV3 D0V6 F0V3 D0V6 F0V3 D0V6 F0V3 D0V6 F0V3 D0V6 F0V3 D0V6 F0V3]

$$ALL
  [rV101 F+8 rV108 E8 rV101 B7 rV96 E5V78 rV3 D0V6 F0V3 D0V6 F0V3 D0V6 F0V3 D0V6 F0V3 D0V6 F0V3 D0V6 F0V3 D0V6 F0V3 D0V6 F0V3 D0V6 F0V3 D0V6 r C10V17 F9V225 G+18V130 A10V95 A+7V117 C+10V225 G+18V130 A10V92 D7V121 F9V225 G+18V130 A10V85 C7V116 F6 D0V6 F0V3 D0V6 F0V3 D0V6 F0V3 D0V6 F0V3 D0V6 F0V3 D0V6 F0V3 D0V6 F0V3 D0V6 F0V3 D0V6 F0V3 D0V6 F0V80 rV20 G+10V93 D+8V129 G+10V96 B7V129 G+10V103 D+8V133 C11V96 E5V78 rV255 rV2 D+9V24 G19V3 F+8V136 B1V1 rV65 C+0 B6V247 rV103 rV96 rV103 rV96 rV103 rV96 rV100 rV93 rV100 rV93 rV100 rV93 rV103 rV96 rV103]
  [D0V6 F0V3 D0V6 F0V3 D0V6 F0V3 D0V6 r rV105 D+8 rV100 F8 rV93 A+7 rV95 F7 rV90 A+6 rV102 G+8 rV95 D+8 rV100 G+7 rV93 D+7 rV88 E5V78 rV31 C20V7 F+0V16 D+1V24 B1V241 C20V7 F+0V16 D+1V24 B1V241 C20V7 F+0V16 D+1V24 B1V241 C20V80 rV19 G+8 rV105 D+8 rV100 G+7 rV93 A+7 rV88 F7 rV107 F8 rV102 A+7 rV95 D+8 rV90 G+7 rV93 D+7 F6 G10V100 D0 rV3 D0 rV3 D0 rV3 D0 r B6V50 rV103 D0V2 D+11V236 C0V100 C+0V24 G+0 G+7V255 rV2 C0V3 D+1V3 C0V3 D+1V3 C0V3 D+1V3 C0V3 D+1V3 C0V3 D+1V3 C0V3 D+1V3 C0V3 D+1V3 C0V3]

$$ALL
  [rV96 rV103 rV96 E8 B7 E7 B7 B7 B7 E8V255 rV2 C0V3 D+1V3 C0V3 D+1V3 C0V3 D+1V3 C0V3 D+1V3 C0V3 D+1V3 C0V3 D+1V3 C0V3 D+1V3 C0V3 D+1V3 C0V3 D+1V3 C0V3 D+1V3 C0V3 D+1V3 C0V3 D+1V3 F+15 B6V8 F+6 rV72 rV93 rV96 rV89 rV72 rV79 B6 rV84 F+6 rV72 rV93 rV96 rV89 rV72 rV79 B6 rV65 C+0 D0V20 G1V3 D2 D2 D2 D2 E1V3 D0V20 G1V3 D0V20 G1V3 D2 D2 D2 D2 E1V3 D0V20 G1V3 F+9 A6V8 E6 rV70 rV77 A6 rV77 rV82 E6V129 C12V70 E6 rV77 E5V78 rV27 G1V3 D0V20 D+1V88 C0V81 D+1V84 C0V77 D+1V84 C0V84]
  [D+1V3 C0V3 D+1V93 rV1 rV16 rV1 rV16 rV1 rV16 B6V245 rV102 rV96 rV102 rV96 rV102 rV96 rV100 rV93 rV100 rV93 rV100 rV93 rV102 rV96 rV102 rV96 rV102 rV96 rV100 rV93 rV100 rV93 rV100 rV93 rV65 C+0 D0V20 G1V3 D2 D2 D2 D2 E1V3 D0V20 G1V3 D0V20 G1V3 D2 D2 D2 D2 E1V3 D0V20 G1V3 F+15 B6V8 F+6 rV72 rV93 rV96 rV89 rV72 rV79 B6 rV84 F+6 rV72 rV93 rV96 rV89 rV72 rV79 E6 rV65 C+0 D0V20 G1V3 D2V20 D0V20 G1V3 D2V20 D0V20 G1V3 D0V20 G1V3 D0V20 r G0 rV79 B5V131 D0 D0 D0 D0 D0 D0]

$$ALL
  [D+1V84 C0V89 D+1V88 C0V81 D+1V88 C0V88 D+1V88 rV1 B1V16 B1V1 B1V16 B1V1 B1V16 rV65 C+0 D+1V90 C0V84 D+1V90 C0V84 D+1V90 C0V84 D+1V88 C0V81 D+1V88 C0V81 D+1V88 C0V81 D+1V90 C0V84 D+1V90 C0V84 D+1V90 C0V84 D+1V88 C0V81 D0V20 G1V3 D0V20 r G0 rV78 B5V131 G+7 B7 F7 B5V8 F6 rV78 B6 rV78 B5V131 G+7 B7 F7 A+5V8 F6 rV78 E5V78 rV27 G1V3 D0V20 G1V17 G1V3 D0V20 G1V3 D0V20 G1V80 rV12 rV86 G+6V129 D13V86 G+10V79 C+6 rV80 C7 rV87 r G1V17 G1V3 D0V20 D0V6 D0V6 D0V6 D2V20 D0V20 G1V3 D2V20 D0V20 G1V3 C0V3 D+1V3 C0V3 D+1V27 G1V3 D0V20 G1V80]
  [D0 D0 D0 D0 D0 D0 D0 rV3 rV3 rV3 rV3 rV3 rV3 F+19 G0V129 D0 D0 D0 D0 D0 D0 D0 D0 D0 D0 D0 D0 D0 D0 D0 D0 D0 D0 D0 A+5V8 F6 rV78 E5V78 rV27 G1V3 D0V20 rV16 rV1 rV16 rV1 D0V20 G1V3 D0V20 G1V3 D0V20 rV16 rV1 rV16 rV1 D0V20 G1V3 D0V20 r G0 rV81 C+6V159 C+7V129 G+10V74 C6 rV85 G6 F6 D2V20 D0V20 G1V3 E1V3 D0V20 G1V3 D0V20 G1V3 G6V84 C1 D+7V129 G+10V74 B8V8 E8V8 G+8V8 C+8V8 rV81 D+7 rV81 rV88 G+6V129 A10V110 rV101 rV108 rV101 G0 rV87 G6 F6]

$$ALL
  [rV14 rV88 G+6V129 A10V108 rV101 rV105 rV98 G0 rV88 G+6 G0 rV82 D6V130 F+8 D8 G8 D6V8 G6 rV80 E5V78 rV27 G1V3 D0V20 rV16 rV1 rV16 rV1 rV16 rV1 rV16 rV1 rV16 rV1 rV16 rV1 rV16 D2 D2 D2 D2 D2 D2 G6V84 D+1 D+8 rV103 B7 rV100 G+7 rV93 D+8 rV96 B7 rV103 B7 rV100 D+8 rV96 rV100 G+7 rV96 B7 rV93 E5V78 rV27 rV27 rV27 rV27 rV27 rV27 rV27 rV27 rV27 rV27 rV27 rV27 rV27 rV27 rV27 rV27 rV27 rV27 rV27 rV27 rV27 rV27 rV27 rV27 rV229 r C+0V17 C+0V3 C1 A8V197 F6 rV65]
  [D2V20 D0V20 G1V3 C0V3 D+1V3 C0V3 D+1V27 G1V3 D0V20 G1V27 G1V3 D0V20 F0V1 F0V16 F0V1 F0V16 D0V20 G1V3 D0V20 r G0 rV81 D+6V131 G+7 B7 E7 B7 B7 B7 E8 D+8 G+7 D+8 D+8 D+8 rV101 rV96 rV89 rV96 rV96 rV96 rV101 r rV17 rV3 D0 rV3 D0 rV3 D0 rV3 D0 rV3 D0 rV3 D0 rV3 G+7V3 D0 rV3 D0 rV3 D0 r G0 G0 G0 G0 G0 G0 G0 G0 G0 G0 G0 G0 G0 G0 G0 G0 G0 G0 G0 G0 G0 G0 G0 G0 G6V84 F1 F+8V149 rV65 C+0 C+0V80 r E4]

$$ALL
  [D0 D+12V236 G19V7 D0V2 D+11V236 C0V80 rV2 E5V78 rV31 D+8 rV103 B7 rV100 G+7 rV93 D+8 rV96 B7 rV103 B7 rV100 D+8 rV96 rV100 G+7 rV96 B7 rV93 E5V78 rV27 rV3 D0 rV3 D0 rV3 D0 rV3 D0 rV3 D0 rV3 D0 rV3 D0 rV3 D0 rV3 D0 rV3 B14 B6V127 D0V20 G1V3 C19 rV96 E7 F+10V144 G1V3 D0V20 G1V3 D0V20 G1V31 G+7 rV93 D+8 D0V20 G1V3 D0V20 r F+10V144 G1V3 D0V20 rV93 B7 rV100 B11V3 D0V20 G1V3 D0V20 G1V3 F+2 rV100 G+7 rV72 G1V3 D0V20 G1V80 rV7 B11V3 D0V20 G1V31 E6 rV82 E6 D0V20 G1V3]
  [F+8V118 B8V119 G9V24 G19V3 B7V148 F6 D0V2 r F+10V22 rV3 D0 rV3 D0 rV3 D0 rV3 D0 rV3 D0 rV3 D0 rV3 G+7V3 D0 rV3 D0 rV3 D0 r F+1 rV93 D+8 rV102 B7 rV96 F7 rV93 D+8 rV103 D+8 rV102 B7 rV100 G+7 rV93 D+8 rV94 A7 rV65 D0 rV84 F+6V129 A+10V96 rV3 D0 rV31 F+6 rV84 F+6 G+10V79 B5 F+10V112 rV3 D0 G1V229 F+6 rV79 E5V78 rV31 B6V129 G+10V72 B7V127 D0 rV3 F+2V20 rV79 B6 rV84 F+6 rV72 D+9V3 D0 rV3 C19 rV84 F+6 F6 F+2V20 G+10V77 A5 F+10V144 G1V3 D0V20 G1V229 E6 rV70]

$$ALL
  [D0V20 G1V3 D0V20 B6V189 rV84 G1V3 D0V20 G10V100 G+7 rV93 D+8 rV96 B7 rV103 B7 rV100 D+8 rV96 rV100 G+7 rV96 B7 rV93 r F7 rV81 D+7 rV90 B6 rV84 F6 rV81 D+7 rV91 D+7 rV90 B6 rV88 G+6 rV81 rV78 A+6 rV78 r G1V229 F6 rV72 D+9V3 D0 rV3 C19 rV84 F6 rV84 F6V129 A+10V96 rV3 D0 rV31 F6 rV83 C7V255 rV3 C19 rV81 C+6V159 D0V20 G1V3 D0V20 G1V3 D0V20 B6V87 rV86 G1V3 D0V20 G1V229 F+6 rV74 G6 rV78 D7V255 rV3 C19 rV81 C+6V130 F0V3 D0V6 F0V31 G+6 rV88 G+6 D0V20 G1V3 F+0V6 E8 rV104]
  [E6 rV82 E6V255 rV3 C19 rV79 B5V131 D0 rV3 D0 rV3 D0 rV3 D0 rV3 D0 rV3 G+7V3 D0 rV3 D0 rV3 G6V84 G+0 rV3 D0 rV3 D0 rV3 D0 rV3 D0 rV3 D0 rV3 D0 rV3 D0 rV3 A+5V127 D0V20 G1V3 G6V84 A0 D0V20 G1V3 F+2 rV100 G+7 rV72 G1V3 D0V20 G1V3 D0V20 G1V3 C19 rV96 F7 F+10V144 G1V3 D0V20 B6V87 rV86 G1V3 D0V20 G1V229 G+6 rV74 G6 rV78 C7V255 rV3 C19 rV81 C+6V159 D0V20 G1V3 D0V20 G1V3 D0V20 B6V179 rV88 G1V3 D0V20 F0 rV98 E8 F+10V144 G1V3 D0V20 G1V229 G+6 rV74 D0V6 F0V3 D0V6]

$$ALL
  [C6V127 D0V20 G1V3 G6V84 C+1 D0V20 G1V3 F+0V6 E8 rV101 C+6V127 D0V20 G1V3 F+2V20 G+10V82 D6 G9V3 D0V6 F0V3 C19 rV87 G6 F6 F+2V20 G+10V81 D+6 F+10V128 rV3 D0 rV3 D0 rV3 D0 rV3 D0 rV3 G+7V3 D0 rV3 D0 rV3 D0 r F+10V23 rV3 D0 rV3 D0 rV3 D0 rV3 D0 rV3 D0 rV3 D0 rV3 G+7V3 D0 rV3 D0 rV3 D0 r F+1 rV93 D+8 rV102 C8 rV97 F7 rV93 D+8 rV103 D+8 rV102 C8 rV100 G+7 rV93 D+8 rV97 C8 rV65 D0 E12V103 C+8V255 rV3 E16V108 r E5V78 rV27 C+0V24 G19V3 G+7V136 B1V1]
  [rV80 D7 rV80 r G1V229 G+6 rV74 D0V6 F0V3 D0V6 rV81 D+7 rV81 B11V3 D0V20 G1V7 rV101 B8 G10V75 G1V3 D0V20 G1V80 rV15 B11V3 D0V20 G1V31 G+7 rV93 D+8 rV96 B7 rV103 B7 rV100 D+8 rV96 rV100 G+7 rV96 B7 rV93 E5V78 rV31 D+8 rV103 B7 rV100 G+7 rV93 D+8 rV96 B7 rV103 B7 rV100 D+8 rV96 rV100 G+7 rV96 B7 rV93 E5V78 rV27 rV3 D0 rV3 D0 rV3 D0 rV3 D0 rV3 D0 rV3 D0 rV3 D0 rV3 D0 rV3 D0 rV3 B1 E8V120 D0V2 B6V14 rV106 G6V84 r r C19V149 D0V2 D+11V236 C0V91 E5V78]

$$ALL
  [r rV65 D+0 C+0V3 D0V2 B6V9 rV93 r B8 rV100 F+8 rV103 B7 rV96 F+7 rV91 G+7 rV84 A+8 rV107 D+8 rV100 G+7 rV93 B7 rV89 F+7 F6 D0V20 G1V3 D0V20 F0V3 D0V6 F0V72 F+6 rV79 B6 rV79 B5V132 rV93 B7 D0V20 G1V3 D0V20 B6V163 rV84 F+6 rV72 B7 rV96 F+7V3 D0V20 G1V3 D0V20 G1V3 D0V20 F0V3 D0V6 F0V72 F+6 rV79 E5V78 rV3 D0V20 G1V3 D0V20 G1V3 D0V20 G1V3 D0V20 G1V3 D0V20 G1V3 F10 B6 rV79 B5V131 D0V26 B1V2 D+9V24 C+0V114 G10V236 D0V26 B1V2 D0V26 B1V1 G6V84 A0 rV78 A+6 rV78 r G1V3 D0V20 G1V3 D0V6]
  [rV3 E2 B6V149 E11V93 C+8V255 rV4 G6V84 E0 F0V3 D0V6 F0V3 D0V6 F0V3 D0V6 F0V3 D0V6 F0V3 D0V6 F0V3 D0V6 F0V3 D0V6 F0V3 D0V6 F0V3 D0V6 F0V80 rV6 B6V129 G+10V72 D+8 rV100 G+7 D0V20 G1V3 D0V20 G1V3 D0V20 F0V3 D0V6 F0V3 F+6 rV84 F+6V255 rV4 D0V20 G1V3 D0V6 F0V3 D0V6 rV79 B6 rV79 B6V129 G+10V72 D+8 rV100 G+7 D0V20 G1V3 D0V20 r rV82 E6V129 C12V70 E6 rV77 A6 rV77 A5V145 rV77 A6 rV65 D+0 G1V3 D0V20 C+2V24 C+0V3 C+2V236 D0V26 G19V3 D+9V24 G19V3 C+2V24 C+0V115 C+2V236 r C+0V3 D0V20 G1V3 G6V84 A+0 G+10V78 B5 rV96 D+8]

$$ALL
  [F0V3 B5 rV84 F6 rV84 F6V129 B10V100 G+7 rV93 G1V3 D0V20 G1V3 G+6 C+7 rV81 C+6V159 G+10V81 C+6 rV80 C7 rV85 r G1V3 D0V20 G1V3 D0V20 G1V3 D0V20 G1V3 D0V20 r rV88 G+6V129 A+10V101 G+8 rV105 C+6 rV88 G+6 rV88 G+6V129 A+10V105 C+9 rV98 C6 rV87 G6 F6 D0V20 G1V3 D0V20 F0V3 D0V6 F0V3 D0V20 G1V3 D0V20 G1V3 D0V20 F0V3 D0V6 F0V3 D0V20 G1V3 G6V84 D+1 G+10V81 D+6 rV93 B7 rV100 G+7 rV96 E8 rV96 F+8 rV100 D+8 E8 rV93 D+8 rV96 B7 rV65 D+0 rV3 D0 rV3 D0 rV3 D0 rV3 D0 rV3 D0 rV3]
  [rV90 G1V3 D0V20 G1V3 D0V20 G1V3 D0V6 F0V3 D0V6 rV78 A+6 rV65 D+0 G1V3 D0V20 G1V3 D0V20 G1V3 D0V20 G1V3 G6V84 C1 G+10V81 C+6 rV86 F+6V129 C12V73 G6 rV80 E5V78 rV3 D0V20 G1V3 D0V6 F0V3 D0V6 G1V3 D0V20 G1V3 D0V20 G1V3 D0V6 F0V3 D0V6 G1V3 D0V20 G1V80 rV15 D+7V129 G+10V74 E8 rV101 G+8 rV81 D+7 rV81 E7V129 G+10V75 E8 rV101 B8 rV80 D7 rV80 r G1V3 D0V20 G1V3 D0 rV3 D0 rV3 D0 rV3 D0 rV3 D0 rV93 rV3 D0 rV3 D0 rV3 E16 F8 rV93 D+8 rV102 B7 rV96 F7 rV93 D+8 rV103 D+8 rV102]

$$ALL
  [D0 rV3 D0 rV3 D0 rV3 D0 rV3 F+16 F+8 rV93 D+8 rV103 B7 rV96 E7 rV93 D+8 rV101 D+8 rV103 B7 rV100 rV101 B7 rV100 G+7 rV96 E8V255 rV4 D0V2 r E14V93 r C+0V3 G+0 D8V255 rV5 F6 F+2V2 D+11V236 G19V3 G+7V136 B1V1 r rV65 E0 E7V149 E11V96 E5V78 rV3 C+16 D0V6 F0V3 D0V6 F0V3 D0V6 F0V3 D0V6 F0V3 D0V6 F0V3 D0V6 F0V3 D0V6 F0V3 D0V6 F0V3 D0V6 F0V3 D0V6 B6V168 rV84 D0V20 G1V3 rV96 D+8 rV91 F+6 rV84 F+6 G+10V79 B5 G9V3 D0V6 F0V3 D0V20 G1V3 D0V20 r F+10V3 D0V20 G1V7 rV93 B7 F+0V20]
  [B7 rV100 G+7 rV93 D+8 rV94 A7 rV65 D+0 rV3 D0 rV3 D0 rV3 D0 rV3 D0 rV3 D0 rV3 D0 rV3 D0 D0 rV3 D0 rV3 D0 B6V13 rV85 E5V78 rV3 G6V84 G+1 rV65 D+0 B6V6 rV80 rV1 D+9V3 F+8V116 D+11V236 C0V91 E5V78 rV3 F2 B6V116 C+0V3 D0V2 r rV65 E0 A+8 rV107 D+8 rV100 G+7 rV93 B7 rV89 F+7 rV108 F+8 rV103 B7 rV96 D+8 rV91 G+7 rV93 E7V255 rV5 rV84 F+6V129 B10V100 D0V6 F0V3 B5V127 G1V3 D0V20 G1V3 D0V20 G1V7 rV93 B7 F+0V20 F+6 rV79 E5V78 rV7 G+10V79 B5 G9V3 D0V6 F0V3 D0V20]

$$ALL
  [F+6 rV79 B6 rV79 B5V132 F0V3 D0V6 F0V72 D0V20 G1V3 G6V84 G0 G1V3 D0V20 G1 rV82 E6 F+10V3 D0V20 G1V3 D0V20 G1V3 G6V84 G+0 G1V3 D0V20 C+2V128 G19V140 F+0V26 C9V236 C+0V114 C+2V128 G19V7 D0V26 G10V236 F+0V26 C+2V236 r C+0V7 rV78 A+6 rV65 E0 B6V129 G+10V72 D+8V116 F0V3 D0V6 F+10V3 D0V20 G1V3 D0V20 G1V3 F+0V6 G+7 rV93 G1 rV83 F6 F6 F+0V20 G+6 rV74 D0V20 G1V3 D0V20 G1V3 D0V20 B6V83 rV86 D0V20 G1V3 rV86 F+6V129 C12V73 G6 rV80 E5V78 rV7 G+10V81 C+6 G9V3 D0V6 F0V3 rV81 D+7 rV81 D0V20 G1V3 F+0V6 C+9 rV98 C6V127 G1V3 D0V20 B6V171]
  [G1V3 D0V20 G1V3 D0V20 F0 rV100 G+7 rV79 B6 rV81 r G1 rV77 A5V145 G1V3 D0V20 G1V7 G+10V77 A5 rV77 A6 rV77 r G1 rV79 B5V131 C0V112 C+2V24 G19V7 E9V115 B1V2 C0V112 F9V24 C+0V115 D+9V24 B1V1 G6V84 A0 F+10V3 D0V20 G1V3 B13 B6V127 G1V3 D0V20 B7 rV96 F7V7 rV78 B6 rV84 F6 rV72 D0V6 F0V3 D0V6 G1V3 D0V20 G1V80 rV12 D0V20 G1V3 F+0V20 G+6 rV74 G6 rV78 C7V255 rV5 rV86 G+6V129 D13V86 D0V20 G1V3 D0V20 G1V3 D0V20 r F+10V3 D0V20 G1V7 rV105 C+8 rV74 D0V20 G1V3 F+0V20 G+6 rV74 D0V6 F0V3 D0V6 G6 rV87 G6V255 rV5]

$$ALL
  [rV88 D0V20 G1V3 rV108 E8 rV101 D0V20 G1V3 D0V20 E7V129 G+10V75 E8V116 F0V3 D0V6 G1 rV87 G6 F6 F+0V20 G+6 rV76 D0 rV3 D0 rV3 D0 rV3 D0 rV3 D0 rV3 rV3 D0 rV3 D0 rV3 G6V84 E1 rV96 F8 rV100 D+8 rV100 G+7 rV96 B7 rV93 F8 rV93 D+8 rV102 B7 rV94 F7 rV93 D+8 rV102 r rV21 B7 rV100 D+8 rV96 D+8 rV89 B7 rV100 G+7 rV100 G+7 rV96 F+8 D0 rV96 E7 rV93 D+8 rV101 r C+0V173 F6 F+0V2 E5V78 rV7 rV65 E0 E5V78 rV130 rV3 D0 rV3 G+7V132 C11V93 E5V78 rV3 F7V148]
  [rV88 G+6V129 A+10V101 D0V6 F0V3 F+0V20 G+6 rV81 E7V127 G1V3 D0V20 A8 rV99 G8 G1V3 D0V20 G1V80 rV16 D0V20 G1V3 F+0 D+8 rV89 B7 rV100 G+7 rV100 G+7 rV96 F+8 D0 rV96 E7 rV93 D+8 rV101 r rV3 D0 rV3 D0 rV3 D0 rV3 D0 rV3 D0 rV3 D0 rV3 D0 rV3 D0 rV3 D0 rV3 G6V84 F1 D0 rV3 D0 rV3 D0 rV3 D0 rV3 D0 rV3 D0 rV3 D0 rV3 rV3 D0 rV3 D0 rV3 G6V84 F+1 C+0V80 rV20 D0V2 r B9V3 A0 D8V122 r rV133 C11V93 G+7V133 C11V96 rV3 B1V1 r D+12V236 C0V93]

$$ALL
  [B1V1 rV65 F0 D2V4 D2V4 A2 G+7V148 B1V1 D0V4 B6V198 rV108 D0V6 F0V3 D0V6 F0V3 D0V6 F0V3 D0V6 F0V3 D0V6 F0V3 D0V6 F0V3 D0V6 F0V3 D0V6 F0V3 D0V6 F0V3 D0V6 r D+10V3 D0V6 F0V3 D0V6 F0V3 D0V6 F0V3 D0V6 F0V3 D0V6 F0V3 D0V6 F0V3 D0V6 F0V3 D0V6 F0V3 D0V6 F0V3 G6V84 F0 rV101 G+8 rV94 D8 rV99 G+7 rV93 D7 rV87 A8 rV99 E8 rV101 A7 rV94 E7 rV89 A7 rV84 r F0V3 D0V6 F0V3 D0V6 F0V3 D0V6 F0V3 D0V6 F0V3 D0V6 F0V3 D0V6 F0V3 D0V6 F0V3 D0V6 F0V3 D0V6 F0V3 G6V84 G0 E12V84 E5V78 rV7]
  [D+0V24 D2 G+7V18 E12V96 rV65 F0 C+0V90 D+0V24 G19V255 rV6 rV107 D+8 rV100 F+8 rV93 B7 rV96 F+7 rV91 B6 rV103 A+8 rV96 D+8 rV100 G+7 rV93 E7 rV89 E5V78 rV7 rV101 G+8 rV96 C+8 rV98 A7 rV94 C+7 rV86 A8 rV98 E8 rV101 B7 rV96 E7 rV89 A7 rV84 r F0V3 D0V6 F0V3 D0V6 F0V3 D0V6 F0V3 D0V6 F0V3 D0V6 F0V3 D0V6 F0V3 D0V6 F0V3 D0V6 F0V3 D0V6 F0V3 G6V84 F+0 rV101 G8 rV94 D8 rV99 G7 rV92 D7 rV87 A8 rV99 E8 rV101 A7 rV94 E7 rV89 G+7 rV84 r D+0V3 D0V4 r F+10V3]

$$ALL
  [E12V98 E5V78 rV7 E12V99 E5V78 rV27 D+0V32 D+0V44 r D+12V236 C0V93 D+0V24 G+1 G+7V149 E12V90 r D+0V3 D0V4 r F1V149 B7V149 E5V78 rV27 G+10V96 D0 rV3 A+3 F+0 G+7V133 C11V93 E8V133 rV65 F+0 r E0V3 D0V5 E0V3 D0V5 E0V3 E4 G+5 C12V66 F5V145 rV69 A+5 F6 D0V5 C1V3 D0V5 E0V3 D0V13 C1V3 D0V13 E0V3 D0V5 E0V3 D0V13 E0V3 D0V5 C1V3 G+11 A5 rV70 A5 rV70 F+6 rV67 F+6 G+10V82 A5V131 rV82 F+6 G+10V67 F+5 rV67 r E0V3 D0V5 E0V3 D0V5 C1V3 D0V5 C1V3 D0V13 E0V3 D0V13 C1V3 D0V5 E0V3 D0V5 r rV68 G5V129 rV68 G5V129 rV65]
  [D0V4 r F+10V3 D0V4 r F1V149 B7V149 E5V78 rV3 F7V148 B1V1 rV65 F0 D+0V3 G6V84 C+1 E12V91 E5V78 rV27 D+0V32 D+0V40 r F1V173 C11V96 G+7V133 rV65 F+0 D0 rV3 D0 rV3 F0 G6V84 C+0 rV69 E5 rV69 E5 rV65 F+0 E0V3 D0V5 E0V3 D0V5 E0V80 rV4 G+5 G+10V81 G+5 G+10V65 E5V131 rV65 E5V129 rV69 G+6V129 G+10V65 E5 rV77 E5 rV65 F+0 E0V3 D0V13 E0V3 D0V5 E0V3 D0V5 E0V3 D0V5 C1V3 D0V5 E0V3 D0V13 E0V3 G6V84 F0 rV87 D7V129 rV75 A5V129 A+10V82 A5 G+10V75 D6 G+10V75 E6 rV77 E7 rV89 E5V78 rV3 D0V13 C1V3 D0V5 E0V3 D0V13]

$$ALL
  [E5 rV65 G6 A+10V80 G6V129 rV77 E6 rV77 E6V255 rV7 D0V5 E0V3 D0V5 E0V3 D0V5 C1V3 G+11 G+5 rV69 G+5 rV69 F6 rV66 F6 G+10V81 G+5V131 rV81 A+6 G+10V71 A+5 rV71 r C1V3 D0V13 C1V3 D0V13 C1V3 G+11 C+6 rV74 C+6 rV74 F+6 rV67 F+6 G+10V86 C+6V131 rV86 C7 G+10V73 C6 rV73 r E0V3 D0V5 E0V3 D0V5 C1V3 D0V5 C1V3 D0V13 E0V3 D0V13 C1V3 D0V5 E0V3 D0V5 r rV69 F5 C12V69 G+5V145 rV70 r E0V3 D0V5 E0V3 D0V5 E0V3 E4 C+5 C12 D+5V145 rV67 A+5 F6 D0V5 E0V1 D0 rV3 G6V84 r D+10V1 rV16 rV1 rV16]
  [E0V3 D0V5 E0V3 D0V5 E0V3 D0V5 C1V3 D0V13 B6V65 rV69 G+5V145 rV66 G+5 A+10V71 A+5 rV65 F+0 E0V3 D0V13 E0V3 D0V5 E0V3 D0V5 E0V3 D0V5 C1V3 D0V5 E0V3 D0V13 E0V3 G6V84 A0 rV86 C7 rV84 C7 rV65 F+0 E0V3 D0V13 E0V3 D0V5 E0V3 D0V5 E0V3 D0V5 C1V3 D0V5 E0V3 D0V13 E0V3 G6V84 B0 rV86 C+7V129 rV74 F+5V129 A+10V79 F+5 G+10V75 D6 G+10V75 C6 rV73 C7 rV85 E5V78 rV3 D0V5 E0V3 D0V5 E0V3 G6V84 C+1 rV69 F5 rV69 F5 rV65 F+0 E0V3 D0V5 E0V3 D0V5 E0V80 rV16 G+5 F+0 G+7V133 C11V103 r G11V31 D+8 G+7 D+8 D+8]

$$ALL
  [rV1 rV16 rV1 rV16 rV1 rV16 rV1 rV16 rV1 rV16 rV1 rV16 rV1 rV16 D2 D2 D2 D2 D2 G6V84 C0 E8 D+8 G+7 D+8 D+8 D+8 G+7 B7 F7 B7 B7 B7 F+8 D+8 G+7 D+8 D+8 D+8 G+7 B7 F7 B7 B7 B7V255 rV8 G0 F+0 F+0 F+0 F+0 F+0 F+0 F+0 F+0 F+0 F+0 F+0 F+0 F+0 F+0 F+0 F+0 F+0 F+0 F+0 F+0 F+0 F+0 F+0 B6V246 rV89 F+0 A0 G0 G+0 F+0 F+0 F+0 A0 G0 A0V3 D0V12 F+0 F+0 A0 G0 G+0 F+0 F+0 F+0 A0 G0 A0V3 D0V12 B0V80]
  [D+8 G+7 B7 E7 B7 B7 B7 E7 D+8 G+7 D+8 D+8 D+8 rV101 rV96 rV89 rV96 rV96 rV96 r rV16 rV1 rV16 rV1 rV16 rV1 rV16 rV1 rV16 rV1 rV16 rV1 rV16 rV1 rV16 rV1 rV16 rV1 rV16 rV1 rV16 rV1 rV16 rV1 B6V247 rV146 F+0 F+0 G0 G+0 F+0 F+0 F+0 F+0 G0 G+0 F+0 F+0 F+0 F+0 G0 G+0 F+0 F+0 F+0 F+0 G0 G+0 F+0 F+0V255 rV8 G0 F+0 F+0 F+0 F+0 F+0 A0 F+0 F+0 F+0 F+0V12 F8 A0 F+0 F+0 F+0 F+0 F+0 A0 F+0 F+0 F+0 F+0V12 F8 F6]

$$ALL
  [rV4 E1V7 F+9V7 B8V7 C10V7 E10V7 F+9V7 E10V7 F+9V7 B8V7 C10V7 G9V125 B0V7 E10V7 F+9V7 B8V7 C10V7 E10V7 F+9V7 E10V7 F+9V7 B8V7 C10V7 G9V125 B0V3 F20 E7V125 rV127 rV127 rV89 rV127 rV127 rV89 rV127 rV127 rV127 D0V10 B0V3 rV89 rV127 rV127 rV89 rV127 rV127 rV89 rV127 rV127 rV127 D0V10 B0V3 G6V84 F0 F+0V29 F+0V10 F+0V30 F+0V30 F+0V29 F+0V29 F+0V29 F+0V10 F+0V30 F+0V10 E10V3 F+0V29 F+0V29 F+0V10 F+0V30 F+0V30 F+0V29 F+0V29 F+0V29 F+0V10 F+0V30 B0V108 B0V102 B7V255 rV8 F+2V24 G+10V8 G+10V8 D10V8 G0V129 G0V129 G0V129 G+10V122 G+10V8 G+10V8 A10V8 rV80 rV8 E1V7 F+9V7 B8V7 C10V7 E10V7 F+9V7]
  [F+2V10 B8V7 E10V7 D+10V7 C+10V7 A+9V7 F+9V7 B8V7 E10V7 D+10V7 C+10V89 B8 F+9V7 B8V7 E10V7 D+10V7 C+10V7 A+9V7 F+9V7 B8V7 E10V7 D+10V7 C+10V89 B8 rV65 G0 rV127 rV89 rV127 rV127 rV127 rV127 rV127 rV89 rV127 rV89 B0 rV127 rV127 rV89 rV127 rV127 rV127 rV127 rV127 rV89 rV127 rV89 B0 rV95 r A0V8 F+0V29 F+0V29 F+0V10 F+0V29 F+0V29 F+0V10 F+0V29 F+0V29 F+0V29 E7V7 rV102 F+0V10 F+0V29 F+0V29 F+0V10 F+0V29 F+0V29 F+0V10 F+0V29 F+0V29 D0V12 D0V12 D0V12 B6V121 rV24 C0V24 D2V24 B1V16 B1V16 B1V16 D+1V27 D+1V24 D+1V24 D2V24 B1V1 B1V1 F6 F+2V10 B8V7 E10V7 D+10V7 C+10V7 A+9V7 F+9V7]

$$ALL
  [E10V7 F+9V7 B8V7 C10V7 G9V125 B0V3 rV146 rV89 rV146 rV146 rV146 rV146 rV146 rV89 rV146 rV89 B0 rV95 r G+8V120 B1V1 B1V1 A+2V1 C0V27 C0V24 C0V24 D2V35 B1V16 B1V16 A+2V16 B6V245 rV89 E2 A0 F2 F2 E2 E2 E2 A0 F2 A0V3 D0V12 E2 E2 A0 F2 F2 E2 E2 E2 A0 F2 F8 B8 rV65 G0 rV8 B7V8 F8V8 B7V8 F8V8 B7V8 D+8V8 G+7V8 D+8V8 G+7V8 D+8V8 G+7V8 F8V8 B7V8 F8V8 B7V8 F8V8 B7V8 D+8V8 G+7V8 D+8V8 G+7V8 D+8V8 E5V78 rV25 F6 F+0V3 E0V4 E11V100 F0V7 D0V4 A+10V93 E0V4 D+0 E0V80 rV2 C+0V4 D+0V255 rV9]
  [B8V7 E10V7 D+10V7 C+10V89 B8 rV89 rV146 rV146 rV89 rV146 rV146 rV89 rV146 rV146 rV146 D0V10 B0V3 G6V84 G+0 G+10V8 D+8V8 G0V129 G0V129 G0V129 G+10V98 G+10V8 G+10V8 B7V8 G0V129 G0V255 rV8 G0 E2 E2 A0 E2 E2 A0 E2 E2 E2 F+0V12 F8 A0 E2 E2 A0 E2 E2 A0 E2 E2 B0V95 B0V102 B0V3 B19 C19V129 D0 D0 D0 D0 D0 D0 D0 D0 D0 D0 D0 D0 D0 D0 D0 D0 D0 D0 D0 D0 D0 D0 D0 r G10V80 rV1 C+0V4 D+0V133 D+0V4 G0V7 D+0 rV4 F+0V3 rV6 F6 F+0V3 E0V4 B6V84 rV84]

$$ALL
  [D+0V4 D11V7 F0V4 C11V96 G0V7 D+0V131 G10V8 F+0V4 r D0V4 D+0V135 E7 D+7V8 D+0V143 rV6 G0V4 A+10V93 F0V4 D+0 F+7V8 D+0V255 rV9 C19 rV100 F+8 rV103 B7 rV96 F+7 rV91 G+7 rV84 A+8 rV107 D+8 rV100 G+7 rV93 B7 rV89 F+7 rV65 G+0 rV10 F+0V3 rV8 A0V4 D0 G0V80 rV8 D+0 C+7V11 D+0V143 rV9 A+0V4 rV65 G+0 A0V4 D0 G0V7 D+0 rV10 G6V84 A0 D+0V4 D0V4 D+0V131 D+0V4 D0V4 D+0V255 rV9 D+0V4 D11V7 D+0 F+0V7 rV7 F+0V3 F+0V4 B6V200 rV113 A+0V3 D0V11 A+0V3 D0V11 A+0V3 D0V11 A+0V3 D0V11 A+0V3 D0V11 A+0V3 D0V11 A+0V3 D0V11 A+0V3 D0V11]
  [D+0 E7V5 D+0V135 G10V7 F0V4 D0V128 F+8V6 G6V84 D+0 D+0V4 rV65 G+0 F+0V4 D0 E0V7 D+0 rV7 F+0V3 rV5 F+0V4 B6V200 rV108 A+0V3 D0V11 A+0V3 D0V11 A+0V3 D0V11 A+0V3 D0V11 A+0V3 D0V11 A+0V3 D0V11 A+0V3 D0V11 A+0V3 D0V11 A+0V3 D0V11 A+0V3 D5 C+7V11 G+0V4 D+0 C+7V11 D+0V143 rV9 F6 F+0V3 rV8 A0V4 D0 G0V7 D+0 C5 A6V11 D+0V143 rV9 A+0V4 A+11V96 G+0V4 r D0V4 D+0V179 D+0V4 D0V4 D+0V131 D+0V4 B6V77 rV93 D+0 G7V3 rV8 D0V4 G0V4 D+0V6 D+0V255 rV9 C19 rV105 B8 rV108 E8 rV101 B7 rV96 C+8 rV89 D+9 rV112 G+8 rV105 C+8 rV101 G8]

$$ALL
  [A+0V3 D0V11 A+0V3 F16 E9V7 A+0V3 D0V11 A+0V3 D0V11 A+0V3 D0V11 A+0V3 D0V11 A+0V3 D0V11 A+0V3 D0V11 A+0V3 D0V11 A+0V3 D0V11 A+0V3 D0V11 A+0V80 rV14 D+0 rV10 A+0V4 D0 G+7V11 F+0V3 C11V101 G+0V7 D+0V255 rV9 rV10 A+0V4 D0 B8V11 F+0V3 C11V105 G+0V7 D+0V133 rV9 r A+0V4 D0 E9V11 F+0V3 C11V110 G+0V7 D+0V133 rV9 A0V4 r D0V4 rV4 F+0V4 D0 F0V7 G6V84 F1 rV6 G+0V4 A+11V93 F+0V4 D+0V255 rV9 C19V28 D+2V237 G+19V7 F+0V3 D0V28 D+2V237 G+19V7 F+0V3 D0V28 D+2V237 G+19V7 F+0V3 D0V28 D+2V237 G+19V7 F+0V3 D0V28 D+2V237 G+19V7 F+0V3 D0V28 D+2V237 G+19V7 F+0V3 D0V28 D+2V237 G+19V7 F+0V3]
  [rV96 C8 rV65 G+0 D+9 rV112 G+8 rV105 C+8 rV98 E8 rV94 B7 rV113 A8 rV106 E8 rV101 B8 rV97 E8 rV101 B7 F6 F+0V3 C11V100 G+0V7 D+0V133 rV9 A0V4 D+0 rV10 A+0V4 B6V93 rV102 G+0V7 D+0V133 rV9 A0V4 D+0 rV10 A+0V4 D0 E5V78 rV7 D+0V133 rV9 A0V4 D+0 rV10 A+0V4 D0 F+8V11 G6V84 E1 D+0 G7V8 D+0V143 rV7 G0V4 r D0 E0V7 D+0 rV8 F+0V3 B6V135 rV103 C+0V100 B7V7 F+0V4 D+0V2 C+0V96 D+8V7 F+0V4 D+0V2 C+0V93 D+8V7 F+0V4 D+0V2 C+0V100 B7V7 F+0V4 D+0V2 C+0V96 G+7V7 F+0V4 D+0V2 C+0V96 G+7V7 F+0V4 D+0V2 C+0V100 F+8V7 F+0V4 G+7V7]

$$ALL
  [F+0V4 D+0V2 C+0V93 E7V7 F+0V4 D+0V2 C+0V96 D+8V7 F+0V4 D+0V2 C+0V80 rV20 B6V10 rV180 A+5 D+8V1 rV6 E0V4 A+10V98 E0V4 D0 F0V4 r D0V4 D+0V135 B6 F+7V3 rV8 E0V4 D11V7 F+0V4 D+0V128 G10V7 F0V4 B6V23 rV102 D+0 E5V78 rV7 D+0 rV7 F+0V3 rV5 F+0V4 D0 E0V7 D+0 E16 F+2V11 rV103 A+8 rV96 D+8 rV100 G+7 rV93 E7 rV89 B8 rV100 F+8 rV103 B7 rV96 F+7 rV91 G+7 rV65 A0 rV10 F+0V3 rV8 A0V4 D0 G0V80 rV8 D+0 E6V11 D+0V143 rV9 A+0V4 rV65 A0 A0V4 D0 G0V7 D+0 rV10 G6V84 A0 D+0V4 D0V4 D+0V131 E0V4 D0V4 D+0V131]
  [F+0V3 D0V28 D+2V237 G+19V7 F+0V3 D0V28 D+2V237 G+19V7 F+0V3 D0V28 F6 C0V255 rV10 rV65 A0 D+0 E0V7 D+0 rV4 D+0V145 rV5 G6V84 C+0 D+0V4 rV65 A0 D+0 F+0V7 D+0 F+7V6 F+0V3 A+10V96 G0V7 D+0V255 rV10 D+0V4 D11V5 r G0V4 A+11V105 F0V4 D+0 D+8V8 D+0V131 rV6 G0V4 rV65 A0 D+9V3 D0V11 A+0V3 D0V11 A+0V3 D0V11 A+0V3 D0V11 A+0V3 D0V11 A+0V3 D0V11 A+0V3 D0V11 A+0V3 D0V11 A+0V3 D0V11 A+0V3 D5 A6V11 G+0V4 D+0 A6V11 D+0V143 rV9 F6 F+0V3 rV8 A0V4 D0 G0V7 D+0 C5 G7V11 D+0V143 rV9 A+0V4 A+11V87 G+0V4 r D0V4 D+0V143 E0V4 D0V4 D+0V131 E0V4 D0V4]

$$ALL
  [E0V4 D0V4 D+0V131 D+0V4 B6V77 rV98 D+0 C8V3 rV8 D0V4 G0V4 D+0V6 D+0V255 rV10 E0V112 A+0V3 D0V11 A+0V3 D0V11 A+0V3 D0V11 A+0V3 D0V11 A+0V3 D0V11 A+0V3 D0V11 A+0V3 D0V11 A+0V3 D0V11 A+0V3 D0V11 B6V195 rV7 rV108 D+9 rV101 G+8 rV105 C+8 rV98 A7 rV94 E9 rV103 A8 rV106 E8 rV104 C8 rV97 E8 rV65 A0 D0V4 C11V100 E0V7 D+0V133 rV5 F0V4 D+0 rV6 F+0V4 B6V99 rV24 A+5V4 D0 A+8V7 F+0V3 C11V102 E0V7 D+0V133 rV5 F0V4 r C19V31 F0V4 D+0 rV6 F+0V4 D0 G+8V7 F+0V3 C11V103 E0V80 rV17 rV4 A+13V93 F+0V4 r D0 E0V7 D+0 D+10 F+2V3]
  [D+0V131 D+0V4 D0V4 D+0V255 rV10 D+0V4 D11V7 D+0 F+0V7 rV7 F+0V3 F+0V4 B6V197 rV31 D+9 rV112 G+8 rV105 C+8 rV98 E8 rV94 B7 rV113 B8 rV108 E8 rV101 B8 rV97 E8 rV101 B7V255 rV10 E0V3 D0V11 A+0V3 D0V11 A+0V3 D0V11 A+0V3 D0V11 A+0V3 D0V11 A+0V3 D0V11 A+0V3 D0V11 A+0V3 D0V11 A+0V3 D0V11 A+0V3 D8 B1V128 D+0 rV6 F+0V4 D0 G+7V7 F+0V3 C11V101 E0V7 D+0V255 rV10 F+2V3 D+0V133 rV5 F0V4 D+0 rV6 F+0V4 D0 D+9V7 G6V84 D+1 F+0V71 F+0V3 C11V113 E0V7 D+0V133 rV5 F0V4 D+0 rV6 F6 F+2V3 D+0 rV8 G6V84 F1 rV6 G+0V4 rV65 A0 D+9V2]

$$ALL
  [F+0V3 D0V28 D+2V237 G+19V7 F+0V3 D0V28 D+2V237 G+19V7 F+0V3 D0V28 D+2V237 G+19V7 F+0V3 D0V28 D+2V237 G+19V7 F+0V3 D0V28 D+2V237 G+19V7 F+0V3 D0V28 D+2V237 G+19V7 F+0V3 D0V28 D+2V237 D0V101 D+8V5 E0V2 C+0V2 C+0V100 B7V5 E0V2 C+0V2 C+0V96 G+7V5 r G6V84 r E6 F+8V1 D+0 F+8V3 D+0V131 F+0V3 rV6 D+0V4 rV65 A+0 D+0 E0V80 rV3 D+0V6 D+0V133 rV7 C0V255 rV11 D+0V4 D11V6 r D0 G0V4 B6V110 rV93 D+0 D+0V4 A+10V102 D+0 D+0V4 A+10V105 D+0 D+0V4 A+10V100 D+0 D+2 B14V7 D+0 B14V80 rV8 D+0V6 D+0V133 F0V4 C11V101 D+0 E8V3 rV8 F6 rV65 B0 F+0V11 F+0V11 r E1V133 F1 F1]
  [C+0V2 C+0V93 F+8V5 E0V2 C+0V2 C+0V103 D+8V5 E0V2 C+0V2 C+0V96 G+7V5 E0V2 C+0V2 C+0V93 B7V5 E0V2 C+0V2 C+0V89 F+8V5 E0V2 C+0V2 C+0V103 D+8V5 E0V2 C+0V2 C+0V100 B7V5 D+2V237 G+19V7 F+0V3 D0V28 D+2V237 G+19V7 F+0V3 D0V28 D+2V237 E5V78 rV1 r rV65 A+0 D+0V4 D11V5 D+0V4 D0V4 D+0 B7V3 D+0V135 A+1 G+7V1 rV6 F6 F+0V3 F+0V4 D0 G0V4 B6V23 rV93 D+0 E5V78 rV150 rV7 C0V255 rV11 D+0V4 A+11V96 D+0 D+0V4 A+10V105 D+0 D+0V4 A+10V102 D+0 D+0V4 rV65 A+0 E0V4 D11V7 F6 F+0V3 F+0V4 D0V4 D+0V135 D+0V4 D11V7 D+0 F+0V80 r C+2 F+0V11 F+0V11 G6V84 C+0 F1 F1 A+0V129]

$$ALL
  [F1 F1 F1 F1 F1 F1 F1 F1 F1 F1 F1 A+0V129 A+0 F1 F1 F1 F1 F1 F1V255 rV12 rV144 rV144 rV144 rV144 G+10V144 rV144 rV144 rV144 rV144 rV144 rV144 rV144 rV144 rV144 rV144 rV134 rV134 rV144 rV144 rV144 rV144 rV144 rV144 A0 B11V14 r C+1V7 B12V12 D+2V129 D+2V129 D+2V129 F+0V28 F+0V28 F+0V28 F+0V28 F+0V28 A+0V7 C1V7 C1V7 A+0V7 A0V156 B12V12 B12V11 E5V78 rV7 A+0V7 A0V156 B12V13 B12V13 B12V11 B12V10 rV156 G+10V156 rV156 rV156 D0V28 D+2 D+2 D+2V129 D+2V129 F+0V28 F+0V28 F+0V28 r A+0V131 A+0V255 rV12 C11V144 rV144 rV144 rV144 rV144 rV144 rV144 rV144 rV144]
  [F1 F1 F1 F1 F1 F1 F1 F1 F1 F1 F1 F1 F1 F1 F1 F1 F1 F1 B6V235 rV144 rV144 rV144 rV144 rV134 rV144 rV144 rV144 rV144 rV144 rV144 rV144 rV144 rV144 rV144 rV144 G+10V144 rV144 rV144 rV144 rV144 rV144 rV144 rV65 B0 E5V78 rV7 A+0V156 B12 D+2V129 D+2 D+2V3 F+0V28 F+0V28 F+0V28 F+0V28 B12V7 B0V7 A+0V7 C1V7 C1V7 B12V11 B12V13 B12V13 r C1V7 C1V7 C+8V13 B12V11 B12V13 B12V13 D+2V156 rV156 rV156 G+10V156 G+10V156 D+2 D+2V129 D+2 D+2 D+2V3 F+0V28 F+0V28 G6V84 F+0 A+0V131 B6V230 rV141 rV144 rV144 rV144 rV144 rV144 rV144 rV144 rV144 rV144]
