
$UNKNOWN_0x83, $FM1,

!ALL

$Inst1,
$Inst2,
$Inst3,
$Inst4,
$Inst5,
$Inst6,
$Inst7,
$Inst8,
$Inst9,
$Inst10,
$Inst11,
$Inst12,
$Inst13,
$Inst14,
$Inst15,
$Inst16,
$Inst17,
$Inst18,

$$ALL
  [D+5 D+5 D+5 r r r rV5 r r r r r r r r r r r r E8V97 F10V66 E9V101 G+8V41 E8V32 G2V97 G2V32 C+10V100 G9V105 r r C4 rV22 D11 rV158 G3 rV6 D+14 rV172 A+5 rV130 A17 rV216 G16 rV148 C0 rV66 F+10 rV203 F11 rV119 A8 rV51 A+18 rV168 C8 rV174 D+12 rV80 C+13 rV195 C+0 rV212 B0 rV52]
  [D+5 D+5 D+5 r r r G16 r r r r r r r r r r r r C8V32 F+9V40 C+10V100 D9V112 G2V97 F+8V99 E9V101 C10V84 r r r F0 rV7 F+0 rV8 G+0 rV10 A0 rV12 D1 rV17 F1 rV20 G+1 rV24 D2 rV30 G2 rV33 A+2 rV37 D3 rV41 E3 rV44 G3 rV46 A+3 rV47 B3 rV50 D4 rV53 F4 rV57]

$$ALL
  [A9 rV227 A+3 rV73 C6 rV255 D+7 rV150 F9 rV83 G+9 rV141 C5 rV149 C15 rV225 r rV41 G+9 rV148 D+16 r G0V10 F0V8 D+0V6 C+0V4 rV2 A0 G0V10 F0V8 D+0V6 C+0V4 rV2 A0V5 C0V1 C0 r r r rV1 D+0 C0V1 r A+5V110 F+8V32 r r r r rV16 D+1V3 E0V16 D+1V8 A0V16 D+1V13 D1V16 D+17V2 D+0V208 D+17V7 G+0V208 D+17V12 C+1V208 G18V1 D0V224]
  [A+4 rV63 D+5 rV65 F5 rV68 G+5 rV70 A+5 rV73 D6 rV77 E6 rV77 E6 rV77 F6 rV78 F+6 rV81 A6 D0V5 C0V3 A+0V1 G+0V11 F+0V9 E0V7 D0V5 C0V3 A+0V1 G+0V11 F+0V9 E0V7 E0V2 C0V1 r r r G10 r rV1 F12V150 A+6V103 G+8V47 G+8V101 rV63 r r r r r r r r r rV255 r rV255 r rV255 r rV255 r rV255]

$$ALL
  [G18V6 G0V224 G18V11 C1V224 G18V1 rV4 F0V6 E0 rV76 B8V99 rV76 G8V112 D8V111 A0V111 F+9V61 G5V82 rV18 F0V8 D+1V65 r r D+3 C1V73 C+9V32 rV2 rV69 rV165 C6V115 G2 rV15 E1V4 B0V108 E7 C+0V255 D+6V7 C0V78 r C+9V116 C+4V70 C8V31 F+2 D+5 rV76 E0V1 r rV110 G9V51 rV80 G6V31 F+2 D+5 E0V5 C+4 E5 E8V116 A+6V74 F6V13 C9V110 rV37 A+15 rV15 rV14 rV32 C6V83]
  [r rV255 r rV255 r F0V6 F0V6 rV37 B0 E8V61 D+3 D+9V61 A+6V108 F+9V78 G+9V10 rV1 C0V3 A+0V13 A6 G5V82 rV78 r G9V117 E6V13 r F6V50 rV65 G+9V101 B2V244 D+5 rV3 C+0V31 C1V8 rV244 G2V80 A+6V74 F6V13 C9V110 rV38 D1 rV26 C+0V9 rV32 C6V83 C0V78 F9V109 E6 C2V243 G+14 r G5 G+5V73 G+13 F+9V114 rV78 r C+9V116 E4V70 C7V31 F+2 D+5V11 rV76 E0V1 r]

$$ALL
  [C0V78 E3V79 A+6V97 G2V50 rV71 A+11 rV5 r rV32 C6V83 rV78 F9V109 E5 C0V1 A0V9 E0V4 C+0V2 F+0V255 F+0V5 C+4 E5 D9V98 B8V68 rV32 D1 rV25 D0V11 rV32 C6V83 rV78 F9V109 E5 C0V1 F6V50 rV65 G+9V101 E6 G0 D+15 rV11 G5 G+5V73 G+13 F+9V114 C4V77 r A0V8 rV69 rV165 C6V115 G2V50 rV255 D1V13 F0 C0V244 C+4 E5 E8V116 r D20 r rV9 rV32 C6V83]
  [rV71 G+8V117 G2V68 E3V70 G0V31 F+2V65 D+5 rV76 E0V1 r rV110 G9V55 rV255 C1V12 F+0V6 D0V2 C0V1 rV248 G+5V73 G+13V1 B5V41 G2V116 C9V70 E4V15 F+2 F5 rV76 E0V1 r rV110 G9V57 rV255 C1V69 rV165 C6V115 G2V48 rV54 C+4V31 F+2 D+5 E0V5 C+4 E5 E8V116 r C0V2 D+0V3 F6V50 rV65 G+9V101 E5 C0V1 B0V10 r G+5V73 G+13V1 F+9V114 D4V70 B6V31 F+2 D+5 rV76 E0V1 r]

$$ALL
  [C0V78 F9V109 A5V36 G+0 D+5 rV1 D+6V7 C0V78 r C+9V116 C4 F0V255 C0V9 B7 C+1V73 C+9V32 D+20 rV83 D+0V31 F+2 G0 F+10V125 rV32 C6V83 C0V78 F9V109 E6 D+0V83 G+6 rV12 E5 E5V1 rV5 E5V78 rV128 B3V72 D8V3 D+3V55 C+0V18 B1V1 G1V22 C+8V18 rV252 A2V36 C+0V24 F+8V3 A1V22 B6V8 rV252 G4V41 D0V2 G4V236 D+2V52 D8V3 C+3V54 C+0V26 G19V99 B3V36 D0V2 D4V236 G1V44 F+8V3 A1V22 F+7V111]
  [rV110 G9V49 A5 rV127 F+0V10 G+0V9 G2V80 A+6V45 F6V14 C9V110 E1V8 rV15 F6V78 r G9V117 rV77 A+3V8 D+0V177 A+20 rV65 rV1 B7V76 E0V1 r rV110 G9V49 rV100 A+6V15 F+2V67 F+5 C0V255 rV68 B15V69 r D0V2 A1V24 F1V20 C0V252 G+4V39 D0V2 E4V99 F3V37 C+0V18 rV252 A1V22 D9V20 G19V255 r C+0V18 B1V1 G1V22 B20V91 A1V24 F1V20 C0V252 A1V22 F+7V18 B1V1 G1V22 B20V103 A1V24 A+7V16 G19V103 G1V22]

$$ALL
  [C+4V236 G+1V45 D8V3 B2V52 C+0V23 G19V99 G3V38 D0V2 F+4V236 C+3V62 F+8V3 A1V22 F1V20 C0V252 A1V22 C8V18 rV252 A1V22 F+7V18 G4V236 F1V20 C0V252 A1V22 F+8V95 B3V236 F1V20 C0V252 A1V22 F+7V18 B1V1 G1V22 B20V91 A1V24 F1V20 B20V91 A1V24 D+0 B20V103 E3V56 F+2V55 D8V3 D3V54 C+0V25 D8V3 C3V52 C+0V20 F+8V3 A1V22 F+8V113 C4V236 F1V20 C0V107 F+0V8 G19V7 D+9V180 A+8V114 rV236 G0 G10V236 E1V180 rV4 G+9V108 D+9 r]
  [B20V89 A1V24 F1V20 C0V252 A1V22 F+7V18 B1V1 G1V22 B20V91 A1V24 D9V16 D8V3 D+3V55 C+0V32 G19V99 G3V38 C+0V25 G19V99 G3V36 D8V3 A+2V50 C+0V15 G19V103 G1V22 B20V91 A2V49 C+0V21 G19V99 F3V36 D0V2 D+4V236 G1V44 D8V3 D3V54 F1V42 rV65 r F1V20 B20V103 A1V24 F1V20 C0V252 A1V22 F1V20 C0V252 A1V22 D+9V16 G19V103 G1V22 B20V103 G+2V48 G+18V24 F+0V8 D9V7 G0V1 C+0V108 D3V108 B8V115 B0V8 B8V115 C0V137 G0V31 E5V78 rV31]

$$ALL
  [G9 G0V4 G0V1 D1V116 G9 rV108 G9V7 G0V24 A0V20 rV65 r E2V32 G4V4 G2V22 A1V32 G2V22 G+2V180 rV22 A0V3 D0V10 A0V7 A9V24 D+0V129 G0 F8V8 rV111 D+1V8 C0V63 C2V17 F6 D3V109 B0V26 D+2V12 G2V22 G2V22 A1V32 G2V22 D+0V22 D1V10 A0V3 D0V10 A0V3 G+10V113 F+2V10 F+2V16 G0 E9V8 C0V31 E9V81 G9 B6V121 rV117 B3V99 rV112 F+0V10 D0V10 A0V236 A0V236 E5V236 D8V24 G+9V4 A10V4 D+0 F6]
  [D+0 B1V1 B9V116 rV15 rV108 C0V7 F+9V180 D5V102 D0V1 G15 B0V10 D+2V12 C+2V12 B0V23 G+1V12 D1V116 A+4V102 G8 rV108 D+9 G+7V7 rV111 rV111 D+1V16 D2V16 G0 F+2V16 A0V10 C0V80 rV5 G1V225 G1V32 rV12 D1V99 B0V24 A1V12 B0V19 B0V22 A1 rV109 D+9 rV114 rV4 rV1 C0V27 D+1V1 F+2V16 C8V16 rV63 G0V255 r rV118 B3V10 F+0V10 F+0V10 B8 B8 D+9 F+9V131 G10V180 rV12 C0V27 A0V80 rV7]

$$ALL
  [D0V10 G9V1 rV1 D+9V114 D2V17 F+0V17 B14V101 F9V1 F+0V17 G9V29 r A0V20 B0V27 B0V25 A+1V12 B0V20 G9V18 A8V4 rV109 D+9 rV115 F+0V10 F+9V93 F+9V113 D+1V27 D+1V16 rV115 D+1V8 A0V20 G6V84 G+0 G+18V32 G2V20 B0V28 D8V26 B1V12 B0V21 F+1V15 A1V59 rV109 E9 rV118 A9V93 D+0 C0 D2V16 C0V27 D+1V8 D+1V31 D5V10 rV65 r A9V32 A0 A0 A0 rV110 rV113 rV225 A+10V4 B14V15 B0V33 D2V10 G6V84]
  [D+0V133 F+2V17 E8V96 G+10V2 C0V3 E8V114 C0V7 E8V98 B14V12 E5V78 rV39 G2V22 D+0V22 A1V32 G2V22 A1V56 B14V17 A1V3 D0V10 A0V3 F+0V10 B1V116 G+10V180 rV112 G0 F+9V113 G0 D5V106 E1V236 r E9V118 C+2V12 B0V29 A1V56 A1V32 G2V22 A1V32 A1V33 A0 D0V10 A0V3 D0V10 G+9V118 A0V4 D+1V8 rV110 G0 F+2V16 G+6V1 rV29 C10 G+9V66 D8V35 G9 A0 A0V3 G19V3 G19V3 G19V3 B1V31 D+0V2 D+0V130 rV122 r]

$$ALL
  [A+0 C11V4 E1V4 C+8V180 F+0V17 C0V7 F9V1 F+0V17 C+8V180 B0V10 rV65 C0 B9V236 D0V1 C0 D+0 F6V2 G+10V255 G2V56 G19V99 F+4V40 D8V15 D3V55 D1V2 F4V16 C+0V26 C0V236 B1V48 G19V99 D+3V35 D8V15 A2V50 D1V2 A1V8 F+7V102 C+4V16 C+0V21 C0V236 F1V42 G19V99 A+3V37 D8V15 C+3V54 D1V2 F+4V1 C+0V38 D+1V236 F1V20 rV252 A1V22 B20V91 A1V8 C8V18 G0 G1V22 C0V252 A1V22 rV252 A1V22 B20V103 A1V8 F+8V86 B3V1 C+0V18]
  [A0V24 C0 C0V7 E1V128 B14V105 G9V7 C+9V98 C0V7 E1V1 E2V3 B3 F+2V1 A7V24 C0V94 C0V27 D+12V80 rV1 C+0V229 A1V8 F+8V18 G0V24 F1V20 B1V1 G1V22 C0V252 A1V22 B20V91 A1V8 F+8V18 G0V24 F1V20 B1V1 D+1V40 G19V103 G1V22 C0V252 A1V22 B20V91 A1V8 C8V18 G0V24 F1V20 B1V1 G1V22 C0V252 A1V22 B20V103 E3V56 C+0V40 D+1V236 G2V56 G19V99 G3V38 D1V2 D+4V1 C+0V20 D+1V7 C+0V16 C0V236 D1V39 G19V103 G1V22 C0V252 D+3V34]

$$ALL
  [G0V24 F1V20 B1V1 G1V22 C0V252 A1V22 B20V91 A1V8 C+8V18 G0V255 rV1 F+7V18 G0 E1V41 D8V15 D+3V55 D1V2 F4V16 C+0V25 C0V99 A+3V37 D8V15 B2V51 C+0V18 G0V24 G8V31 C0V60 B1V2 G0V24 F+0V8 C0V7 D+8V114 D+8V106 F9V17 G0V8 F9V17 rV96 B1V33 B7V81 B0V1 C+0V96 B7V91 G0V4 D+0V255 rV1 G9V17 G0V4 G0V1 B4V116 G9 rV106 G9V7 G0V24 G0 rV90 B1V33 D0V2 G19V3 B0V2 B0V2 B0V2 F7V112 D0V2 G19V3]
  [D8V15 A+2V50 D1V2 D4V16 C+0V23 C0V236 G1V44 G19V99 F+3V39 B6V76 rV99 F3V40 D1V2 A1V8 F1V20 B1V1 G1V22 C0V252 A1V22 C+8V18 G0V24 F1V20 rV252 C+3V35 F+8V15 A1V22 E9V17 G0 F+0V8 B14V102 E9V236 G19 rV12 G19V39 B14V12 B0V116 G0V18 D+0V1 F+0V2 C+0V32 G2V236 G19V63 E1V109 B6V85 rV12 D+0 B1V1 F9V116 rV60 rV106 C0V7 F+9V180 rV65 C0 A0V18 G10V12 D0V2 D+5V236 D+5V236 D+5V236 D+5V236 G10V12 D0V2 D+5V236]

$$ALL
  [B0V2 B0V2 B0V2 rV90 B1V33 D0V2 G19V3 B0V2 B0V2 B0V2 B0V1 B20V180 D0V2 C+0V114 C+0V245 C+0V252 B6V37 rV255 F2V24 G19V3 D+5V236 C+0V12 C+0V12 C0V12 C0V255 F2V24 G19V3 D+5V236 C+0V12 C+0V12 C0V12 C0V255 F2V24 G19V3 D+5V236 C+0V12 C+0V12 C0V12 C0V12 A+7V89 E7V112 E7V1 C0V94 A+7V225 B7V225 E8V226 E5V78 rV127 F1V20 B0V1 C+0V12 G19V67 G19V67 G19V67 G19V71 B0V2 D+5V236 C8 B0V2 B0V2 B0V1 B0V1 rV30 D+5V236]
  [D+5V236 D+5V236 D+5V236 A0V18 G10V12 D0V2 D+5V236 D+5V236 D+5V236 rV247 C+0 C+0V12 G19V67 G19V67 G19V67 G19V255 rV1 C+0V10 A1V128 C0V3 A+7 G+18 G+18 A18 C+0V10 A1V128 C0V3 A+7 G+18 G+18 A18 C+0V10 A1V128 C0V3 A7 G+18 G+18 A18 D+9 A0V236 D+5V236 C8 B0V2 B0V2 B0V1 B0V1 r D+7V112 G+2V48 C+0V180 D0V2 C+0V114 C+0V245 C+0V252 C+0V236 C0V88 D+7V1 C0V91 G7V225 A+7V225 D+8V226 D0V2 A1V22 B7V1]

$$ALL
  [B0V2 D+8 G+18 G+18 A18 C+0V10 A1 G2V4 B0V2 C0V100 E8V225 F+8V225 B8V226 E5V78 rV127 F1V20 B0V1 C+0V12 G19V67 G19V67 G19V67 G19V127 F1V20 B0V1 C+0V12 G19V67 G19V67 G19V67 G19V7 rV87 B6 C+0V3 rV84 E7V112 C+0 rV65 C0 A0V18 G10V12 D0V2 D+5V236 D+5V236 D+5V236 D+5V236 G10V12 D0V2 D+5V236 D+5V236 D+5V236 D+5V236 A0V18 G10V12 D0V2 D+5V236 D+5V236 D+5V236 rV247 C+0 C+0V12 G19V67 G19V67 G19V67 G19V255 rV1]
  [D+5V236 C+0V12 C+0V12 C0V12 C0V255 F2V24 G19V3 D0V1 G+18 B0V2 B0V2 B0V1 B0V1 r E7V112 G+2V48 C+0V180 D0V2 C+0V114 C+0V245 C+0V252 E7V112 G+2V48 C+0V180 D0V2 C+0V114 C+0V245 C+0V252 C9V3 D0V2 C+0 rV89 D0V2 B6 C+0V3 G0 rV94 B1V33 D0V2 G19V3 B0V2 B0V2 B0V2 A7V112 D0V2 G19V3 B0V2 B0V2 B0V2 rV94 B1V33 D0V2 G19V3 B0V2 B0V2 B0V2 B0V1 B20V180 D0V2 C+0V114 C+0V245 C+0V252 B6V37 rV255]

$$ALL
  [C+0V10 A1V128 C0V3 C+8 G+18 G+18 A18 C+0V10 A1V128 C0V3 C+8 G+18 G+18 A18 C+0V10 A1V128 C0V3 C+8 G+18 G+18 A18 D+9 A0V236 D+5V236 E8 B0V2 B0V2 B0V1 B0V1 r G7V112 G+2V48 C+0V180 D0V2 C+0V114 C+0V245 C+0V252 C+0V236 C0V92 G7V1 C0V95 B7V225 D8V225 G8V226 D0V2 A1V22 D+8V1 D+5V236 C+0V12 C+0V12 C0V12 C0V255 F2V24 G19V3 D0V1 G+18 B0V2 B0V2 B0V1 B0V1 r G+7V112 G+2V48 C+0V180]
  [F2V24 G19V3 D+5V236 C+0V12 C+0V12 C0V12 C0V255 F2V24 G19V3 D+5V236 C+0V12 C+0V12 C0V12 C0V255 F2V24 G19V3 D+5V236 C+0V12 C+0V12 C0V12 C0V12 A+7V93 G+7V112 G+7V1 C0V98 D8V225 D+8V225 G+8V226 E5V78 rV127 F1V20 B0V1 C+0V12 G19V67 G19V67 G19V67 G19V71 B0V2 D+5V236 E8 B0V2 B0V2 B0V1 B0V1 rV30 D+5V236 B0V2 G8 G+18 G+18 A18 C+0V10 A1 G2V4 B0V2 C0V104 G+8V225 A+8V225 D+9V226 E5V78 rV127 F1V20 B0V1 C+0V12]

$$ALL
  [D0V2 C+0V114 C+0V245 C+0V252 G+7V112 G+2V48 C+0V180 D0V2 C+0V114 C+0V245 C+0V252 C9V3 D0V2 C+0 rV93 D0V2 D+7 C+0V3 B3 F+2V1 B6V24 C0V84 C0V27 D+12V80 rV1 C14 B14V63 rV124 F0V2 G+12V31 D+10V121 G+12V124 F0V2 D+5V31 F0V2 F+2V6 C+0V129 B0V1 G2V236 D+1V12 G0V32 G8V17 G19V255 rV2 C9V252 B0V1 B6V101 A+8V12 G0V32 E8V1 C+0V8 B0V1 F1V20 F+0V2 G2V236 G19V39 B0V2 G2V236 E1V32 rV65 C+0 E1 C1V8 F+2V13]
  [G19V67 G19V67 G19V67 G19V127 F1V20 B0V1 C+0V12 G19V67 G19V67 G19V67 G19V7 rV91 D+7 C+0V3 rV88 G+7V112 C+0 rV65 C+0 D+11V236 D0V1 C0 D+0 F6 rV65 C+0 F0V2 C+0 F+2V6 C10V153 F+2V6 C+0 F+2V6 E8V153 D+10V104 G+12V124 C+0V2 B5V106 B3V2 D3V84 C0V48 B0V116 B6V160 rV255 G1V22 C+0V1 G19V7 D3V84 C+0V48 G19V39 G2V4 B6V109 G+2V12 B14V66 B5V110 C+0V8 F5V101 B3V2 G9V12 B1 D1V13 D0V13 G+8V107 D+1V102]

$$ALL
  [G0V31 C1V8 F+2V13 G0V31 C1V8 F+2V13 G0V31 C1V8 F+2V13 G0V31 C1V8 F+2V13 G0V31 C1V8 F+2V13 G0V31 B14V7 G9V24 D+0V129 G0 D8V8 rV108 D+1V8 C0V31 E5V78 rV63 rV204 C1V8 F+2V13 G0V31 C1V8 F+2V13 G0V31 C1V8 F+2V13 G0V31 C1V8 F+2V13 G0V31 C1V8 F+2V13 G0V31 C1V8 F+2V13 G0V63 rV1 F+0V10 C9V91 C9V112 D+1V27 D+1V16 rV109 D+1V8 D+1V80 rV6 E1V3 C9V109 C9V109 A8V77 E6V106 F+8V109 F+8V7 A8V128 F+9V137]
  [D6V1 F8V75 E1V105 A+8V17 C9V107 C0V102 D6V16 F8V75 E1V105 A+8V17 F8V107 D+1V105 D6V1 G+8V75 E1V102 G9V17 E8V7 rV108 rV108 D+1V16 D2V16 G0 F+2V16 D+5V16 r C1V8 D0V13 G+8V107 D+1V102 D6V1 F8V75 E1V105 A+8V17 C9V107 C0V102 D6V16 F8V75 E1V105 A+8V17 F8V107 D+1V105 D6V1 G+8V75 E1V102 A0V8 F+0V10 B1V116 G+10V180 rV106 G0 C9V112 G0 F+2V16 F6 F+2V16 F+0V16 D+1V7 F+0V16 D+1V7 F+0V16 D+1V1 B8V1 D0V8 G0V3]

$$ALL
  [B1V17 G+8V24 E5V78 rV3 B14V112 D0V8 E7V107 E1 B1V31 B14V89 E1V128 B14V99 E1V1 F+0V17 C0 G9V107 E9V31 C1V8 F+2V13 G0V31 C1V8 F+2V13 G0V31 C1V8 F+2V13 G0V31 C1V8 F+2V13 G0V31 C1V8 F+2V13 G0V31 C1V8 F+2V13 G0 rV112 F+2V10 F+2V16 G0 D+9V8 C0V31 D+9V80 G0V255 rV2 A+8V17 E9V31 C1V8 F+2V13 G0V31 C1V8 F+2V13 G0V31 C1V8 F+2V13 G0V31 C1V8 F+2V13 G0V31 C1V8 F+2V13 G0V31 C1V8 F+2V13 G9V17]
  [A18V1 A+10V180 r B1V17 G+18V135 E1V1 G10V180 E1V225 B7V2 B7V91 F+0V17 G10V180 D8V117 G6V84 G0 D+0V1 D6V1 E9V75 E1V109 A+8V17 A8V107 C0V109 D6V16 C9V75 E1V113 A+8V17 A8V107 D+1V113 D6V1 E9V75 E1V106 A+8V17 E9V107 C0V112 rV112 rV4 rV1 C0V27 D+1V1 F+2V16 B7V16 rV112 B6V29 rV63 rV1 D6V1 E9V75 E1V109 A+8V17 A8V107 C0V109 D6V16 C9V75 E1V113 A+8V17 A8V107 D+1V113 D6V1 E9V75 E1V106 A+8V17 E9V107 C0V15 rV180]

$$ALL
  [E9V101 D+0 C0 D2V16 C0V27 D+1V8 D+1V31 E9 D+10 D1V16 A+9V7 F+0V16 D+1V7 F+0V16 D+1V7 F+0V16 G8V108 G0V1 G0V3 G+18V130 G0V225 B6V108 rV111 D0V8 B9V24 E1V4 G+7V180 F+0V17 C0V7 E9V1 F+0V17 C8V180 B8V115 r C0V229 C0V106 B1V1 D0V1 B1V148 r B6V1 rV180 D+0V18 rV252 A1V22 F1V20 B20V91 A1 G1V22 A7V18 rV252 A1V22 D9V30 B14V96 F+0V2 B7V95 B3V2 D3V96 D+0V32 C+0V18 C0V7 C+0V32 G2V236 D+1V12]
  [E9V116 A0V4 D+1V8 rV105 G0 F+2V16 G6V1 rV65 C+0 E1V204 E6V113 C+9V109 C9V110 E9V77 E6V107 B14V107 G10V180 G9V131 G+10V112 F+1V180 C0V255 rV2 G+18V135 E1V1 A+10V180 C0V7 E1V128 B14V93 D9V7 B8V97 C0V7 E1V1 E5V78 r A8V112 G19V3 C0V1 A8V4 E5V78 rV255 rV3 rV96 F+4V40 C+0V28 D8V3 C+3V53 A+1V47 D0V2 D4V99 C+3V35 C+0V31 F+8V3 A1V22 G10V12 B0V2 G2V236 C0V12 G0 C0V252 B1V33 G+7V180 C0V96 B3V2 D3V96]

$$ALL
  [G0V32 G+8V17 G19V255 rV3 C+0V225 A1V32 C0V7 F+0V2 B8V89 B3V2 D3V108 D+0V32 C+0V226 A1V32 C0V7 F+0V2 B6V91 B3V2 D3V96 D+0V32 F6 D5V105 B1V2 C+0V102 C8V133 F+2V14 F+0V14 C+1V128 B1V150 B6V86 rV15 A10V236 G19V7 D0V14 B10V236 A10V236 G19V7 D0V14 C0V80 rV6 E1V3 A8V109 C9V106 F+8V77 E6V103 C8V109 F+0V14 G10V180 F+10V136 B14V120 F+1V180 C0V255 rV3 G+18V135 E1V1 A+10V180 rV16 rV112 F+2V27 C+9V1 F+0V17 A7V180 E7V112 r]
  [C0V48 B0V116 B6V166 rV255 F2V24 C0V108 D8V12 B0V2 G2V236 C0V12 G0 C0V255 F2V24 C0V84 E8V12 B0V2 G2V236 C0V12 G0 C0V80 rV4 D+0V8 C+1V130 G10V236 F12V24 rV24 B1V2 C+0V96 G19V255 rV3 C9 G8V109 C9V24 E1V24 B8V109 B8V109 C9V24 D+0V132 F6 F+2V16 F+0V16 D+1V7 F+0V16 D+1V7 F+0V16 D+1V1 C0V3 C+1V1 D0V14 G+18V130 C+1V225 B6V103 rV119 D0V14 G10V24 D1V17 B14V101 G+18V129 C+0V7 E7V94 C0V7 E1V1 E5V78 rV63]

$$ALL
  [C+1V4 F+0V14 C+1V128 B1V150 C9 C9V24 B1V2 B10V236 r C9V109 C+0V108 A8V109 B1V17 C0V112 C+0V112 D+9V109 C11V4 E5V78 rV63 B16V3 C+9V109 C9V110 A+8V77 E6V107 E8V109 F+2V14 C+10V128 B14V131 G10V180 B1V19 E1V1 r C+1V225 B1V17 G+18V131 G+8 E1V1 G10V180 C+0V7 G+7V94 C0V7 E1V1 E5V78 r B8V112 G19V3 C0V1 B8V4 E5V78 rV255 rV4 E5V78 rV140 D+0V7 rV102 C0V7 C+9V180 rV65 D+0 D5V10 rV63 G0V131 D2V15 C2V12]
  [C0V24 B1V2 C+0V101 G19V31 G19V7 F+0V14 C+1V24 G6V84 G+0 G0V130 A10V236 G19V3 D+0V132 D+0V130 A10V236 G19V3 B1V1 r D+1V8 F+0V16 D+1V7 F+0V16 D+1V7 F+0V16 D+1V1 rV1 D0V14 C0V3 C+1V225 D0V14 G6V84 A+0 C0V3 B14V132 G+10V15 G10V180 G+8V105 F+2V27 C+9V1 F+0V17 A7V180 G+7V112 r C0V229 C0V108 B1V1 D0V1 B1V148 r B6V8 rV180 r D8V103 B8V102 rV102 D9V7 G0V24 C16 B3V10 B9V29 F8V120 A1V32 A1V32 G2V22]

$$ALL
  [B0V22 G1V12 F1V12 F8V4 rV105 B8 rV111 F+0V10 D9V77 G0 F9V8 rV123 D+1V8 C0V80 rV5 A0V8 A0V8 G1V32 G2V20 B0V27 B0V25 A+1V12 B0V20 G9V18 G8V4 rV107 D9 rV113 E9V77 D+0 F+2V16 G0 E10V8 C0V31 E10V83 F10 D5V113 B1V66 B3V10 F+0V10 D0V10 A0V3 A0V3 D+9V8 C0V115 C+0V128 r G9V1 G6V84 F+0 G+9V20 B0V27 B0V25 A+1V12 B0V20 F11V180 rV16 G+8V1 F+0V17 E7V180 B6V193 rV48 F8V120 E9V102]
  [A1V32 G4V4 rV180 A1V3 D0V10 A0V3 F+0V10 B1V116 G10V123 D+1V16 D2V16 G0 F+2V16 F6 C0V63 C2V63 C2V67 D2V12 G2V22 D+0V22 A1V32 G2V22 A1V56 B14V17 A1V3 D0V10 A0V3 D0V10 E9V102 A0V4 C0V27 D+1V1 F+2V16 D8V16 rV65 D+0 A0V8 B3V99 rV112 F+0V10 A8 B1V2 B1V1 B1V65 B1V99 A+4V117 G+18V130 D+9V4 r A9 G2V22 D+0V22 A1V32 G2V22 A1V24 D1V17 E1V7 E8V89 C0V7 E1V255 rV4 rV63 G0 G1V8]

$$ALL
  [G2V22 D+0V22 A1V32 G2V22 A1V56 A1 rV22 A0V3 D0V10 A0V7 F8V24 D+0V128 D2V16 C0V27 D+1V8 D+1V31 E5V78 rV1 D+1V25 D+1V25 B0V27 E2V32 G4V4 G2V22 A1V32 G2V22 G+2V180 rV22 A0V3 D0V10 A0V3 rV117 F+2V10 F+9V1 D2V16 D+1V31 G+10V99 G0V255 rV4 A0V10 A+10V48 D+0 C+7V7 rV110 C+9V24 E9V24 D+1V24 A0V24 C0V59 G2V225 B14V116 F6 rV122 E2V32 G4V4 G2V22 A1V32 G2V22 A11V15 F+0V17 B14V105 G+8V1 F+0V17 r]
  [B0V27 B0V25 A+1V12 B0V20 G9V18 A+4V106 B8 rV112 G9 E6V7 rV115 D+1V8 rV118 G0 F+2V16 F+5V1 r D1V10 D5V10 G2V20 G1V32 D+2V12 C+2V12 B0V23 G+1V12 D1V116 A+4V108 C9 rV115 A9 rV117 rV4 rV31 E10V8 rV129 F+9V1 rV129 B6V126 rV63 C0V24 A+10V48 A0V7 F8V3 D0V10 D0V10 A+2V116 B1V1 rV2 A0 B1V116 rV80 rV11 A+2V121 D+2V12 C+2V12 B0V23 G+1V12 D+0V138 G+8 G+8V105 C0V7 G+8V89 G6V84 r]

$$ALL
  [F0V2 F+2V6 C10V153 rV124 F0V2 C+0 D+10V125 F+18 B7V124 B8V2 D0V5 rV15 rV139 C+0 F+2V5 C+0 B7V124 C+0 D1V5 D0V2 G19 F+9 D5V127 D2V5 C+7V31 D1V5 F+11V2 rV96 E0V2 rV139 F6 F+2V3 E0V236 rV115 C+7V31 F+11V1 C+7V31 F0V2 F+2V6 A8V153 C+0V236 G+12V1 G19V255 rV5 C+0V129 F+2V6 B8V153 rV15 F+2V6 C+0 G0 G0 G0 G0 G0 G0 G6V84 D+0 F+2V5 C+0V31 F+2V6 F0V2 rV124 C10V86]
  [D+10V116 G+12V31 D+10V122 C+0V129 D0V124 F0V2 rV65 E0 rV12 F+8V1 B7V124 B8V86 C+7V27 D0V2 C+7V27 E0V86 rV127 E0V86 G19 D3V115 E0V86 D0V2 C0V236 rV127 D+10V86 C+7V2 D2V5 C+0 D2V5 C+7V80 rV2 C+7V39 D2V5 F+2V3 B8V86 F+2V3 B7V153 D+10V99 G+12V15 D5V124 D1V6 D+10V110 B6V129 rV124 F0V2 G+12V31 D+10V124 A8 D+5V124 D+10V119 D+10V103 D+10V117 D+10V121 D+10V105 D+10V122 F0V2 C0 D0V2 rV96 C9 G+12V180 F+2V5 C+0V31 F+2V3]

$$ALL
  [C+7V31 F+13V109 C+7V163 D+10V119 D10V153 F+2V6 C+0V1 rV96 E0V2 F+2V5 F0V2 C+0 D+10V107 C+7V180 F+2V5 C10V86 F+13V109 A+9V153 G+12V31 F0V2 C0V31 E5V78 rV31 F+13V109 C+7V163 D+10V119 D10V153 F+2V6 C+0V1 rV96 E0V2 F+2V5 F0V2 C+0 D+10V107 C+7V180 F+2V3 C9 F+13V109 A+9V153 G+12V31 F0V2 C0V31 F+13V109 C+0V31 E0V2 C+0V1 rV163 A+8V153 B14V96 B6V25 rV96 E0V2 F+2V5 F0V2 C+0 D+10V107 C+7V180 F+2V3 C9 F+13V109 A+9V153 G+12V31 F0V2]
  [D10V86 F+2V3 C+0V1 C0V31 F+13V109 G+12V96 B7V113 C+0 B7V107 rV180 B14V124 E0V2 F+2V3 D0V2 rV31 D0V2 C0V31 F+2V6 C9 B7V121 E9V86 r D10V86 F+2V3 C+0V1 C0V31 F+13V109 G+12V96 B7V113 C+0 B7V107 rV180 B14V124 E0V2 F+2V3 D0V2 C+7V31 D0V2 C0V31 F+2V6 C9 B7V121 E9V86 rV96 A+8V86 B14V124 D+10V123 C+0V31 D0V2 C+0V255 rV5 C+0 B7V107 rV180 B14V124 E0V2 F+2V3 D0V2 C+7V31 D0V2 C0V31 F+2V6 C9 B7V121]

$$ALL
  [C0V31 B7V123 C+0V31 E0V2 C+0V1 rV163 A+8V153 B14V96 E0V2 C+7V96 C9 G+12V180 F+2V5 C+0V31 F+2V3 F6V1 F+2V3 C9 F+13V109 A+9V153 G+12V31 F0V2 C+7V1 G19V31 B7V123 C+0V31 E0V2 C+0V1 rV163 A+8V153 B14V124 F0V2 G+12V31 D+10V107 C+0 G0V63 C0V15 D5V124 D1V6 D1V6 D1V6 D1V6 D1V6 D1V6 D+10V124 C2 B7V123 C+0V31 E0V2 C+0V1 rV163 A+8V153 B14V96 D0V2 rV96 C9 G+12V180 F+2V5 C+0V31 F+2V3 D10V86 F+2V3 C+0V1 C0V31]
  [E9V86 rV163 A+8V86 B14V124 D+10V123 C+0V31 D0V2 C+0 F+2V3 C+0V31 F+2V6 F0V2 rV124 C10V86 C+7V80 rV7 C+7V31 D0V2 C0V31 F+2V6 C9 D1V3 B7V121 E9V86 rV163 A+8V86 B14V124 D+10V123 C+0V31 F0V2 C+0 F+2V6 D10V153 rV124 D+10V107 F0V2 B9 C+0V236 D+5V17 D+5V16 D+5V1 D+5V17 D+5V16 D+5V17 rV65 E0 rV163 A+8V86 B14V124 D+10V123 C+0V31 D0V2 C+0 F+2V5 C+0V31 F+2V6 F0V2 rV124 C10V86 C+7V31 F+13V109 C+7V163 D+10V119 D10V153]

$$ALL
  [F+13V109 G+12V96 B7V113 C+0 B7V107 rV180 B14V124 E0V2 F+2V3 D0V2 C0 D0V2 rV96 C9 G+12V180 F+2V5 C+0V31 F+2V3 D10V86 F+2V3 C+0V1 C0V31 F+13V109 G+12V96 B7V113 C+0 B7V107 rV180 B14V124 E0V2 F+2V3 D0V2 rV31 D0V2 C0V31 F+2V6 C9 B7V121 E9V86 r D10V86 F+2V3 C+0V1 C0V31 F+13V109 G+12V96 B7V113 C+0 B7V107 rV180 B14V124 E0V2 F+2V3 D0V2 C+7V31 D0V2 C0V31 F+2V6 C9 B7V121 E9V86 rV96 A+8V86 B14V124]
  [F+2V6 C+0V1 rV163 D0V2 F+2V5 F0V2 C+0 D+10V107 C+7V180 G6V84 G+0 F+2V5 C+0V31 F+2V6 F0V2 rV124 C10V86 C+7V31 F+13V109 C+7V163 D+10V119 D10V153 F+2V6 C+0V1 rV96 E0V2 F+2V5 F0V2 C+0 D+10V107 C+7V180 F+2V5 C10V86 F+13V109 A+9V153 G+12V31 F0V2 C0V31 E5V78 rV31 F+13V109 C+7V163 D+10V119 D10V153 F+2V6 C+0V1 rV96 E0V2 F+2V5 F0V2 C+0 D+10V107 C+7V180 F+2V3 C9 F+13V109 A+9V153 G+12V31 F0V2 C0V31 F+13V109 C+0V31 E0V2 C+0V1]

$$ALL
  [D+10V123 C+0V31 D0V2 C+0V255 rV5 C+0 B7V107 rV180 B14V124 E0V2 D5V96 D1V3 D0V2 C+7V31 D0V2 C0V31 F+2V6 C9 D+10V119 D+10V153 G+10V124 F0V2 G+12V31 D1V6 D+10V111 F0V2 B9 C+0V8 C+0V8 C+0V8 C+0V8 C+0V8 C+0V8 D+5V80 r D+2V237 G+19V7 F+0 A0 D+12V80 rV1 D5V4 A+10V86 F+7V129 D+0V5 D+0V3 D0V4 r D+0V10 D5V4 A+10V86 D5V95 B16V96 D+0 D+0 A+7V9 D+0V4 A+0V94 B16V96 F+0V7 B7V12 B1V116 r B0V204]
  [rV163 A+8V153 B14V96 B6V35 rV96 E0V2 F+2V5 F0V2 C+0 D+10V107 C+0V236 C+7V1 F+2V3 C9 F+13V109 A+9V153 G+12V31 F0V2 C0V31 D+10V123 C+0 F+2V6 D10V153 D+5V1 G19V63 C0V15 D5V124 D5V124 D5V124 D5V124 D5V124 D5V124 F+2V6 F6 G10V115 F+9V9 G+0V115 D+0V7 r F6 B1V1 r D0V4 D+0V35 E8V131 A+10V91 E5V78 rV63 rV5 r G+10V10 C0V10 D7 D+0 D+0V4 F+0V4 B14V7 F+2V9 D+0V7 C1V4 F+0V9 E5V78 rV31 G+0V4]

$$ALL
  [B8V6 C0V108 B0V24 rV3 G+0 F+0V9 rV4 r C8V11 G+0V8 D+8V10 B0V11 F+2V4 rV93 D+0V7 D+0V4 D8 G+10V104 B0V11 D9V13 D0V15 rV92 B0V11 G6V84 E0 D+0V36 G0V7 A0V11 A+0V4 D+0V4 A+7V4 F+0V4 D+0V7 r A7V11 A+0V10 D1V4 D1V1 rV12 rV94 B0V11 G6V84 F0 B1V100 D0V4 D+0V3 D0V4 D+0V3 D0V4 B1V116 D+0 A+10V108 A8V11 r E0V6 A0V11 G0V7 rV6 A0V11 G0V7 F0V7 A+0V10 F0V5 C+0V4]
  [B8V12 D+0V7 rV95 rV1 G+0V128 E0V96 G6V84 D+0 D+0V4 D+0V28 D+0V4 A0V4 rV3 rV95 A+0 D+8V11 G+10V99 D+0V7 D+0V4 rV108 D9 D+0V7 D+0V4 r C8V11 G+18V4 D+2V4 D+0V4 D+0 D0V4 C8V11 rV100 A+0V3 E8V11 F+0V4 D+0V63 C0V35 B0V15 G+19 D+0V7 D+0V4 r D+0V4 E8V4 E8 rV94 A7 rV100 C0V103 C+0V129 G+2V24 D+0V4 E5V78 rV7 D+0V4 D+0V4 F+2V4 D+0V4 D+2V4 F+0V4 D+0V4 D+0V4 rV3 D+0V128]

$$ALL
  [r D0V4 G0V9 B6V157 rV15 D+0V4 D+2V4 D+0V4 D+0 D0V4 D8V11 rV101 A+0V3 F+8V11 F+0V4 D+0V31 D+9 rV180 F+0V4 D+0V255 rV6 A+0 D+0V4 D+0V4 D+0V4 rV96 D+0V3 A+0 G8V11 D0V4 A+0V7 D+0V4 D5V117 A+2V113 D1V1 rV180 F+0V4 D+0V255 rV6 D+0V133 D+0 rV95 C+8 rV100 G8 A+8V131 G+10V109 B1V116 D+0V7 F6 F+0V4 D+0V4 D+0V4 D+0V4 D+0V4 D+0V4 D+0V4 D+0V4 D+0V4 D0V4 G10 D+0V4 D+0V4 rV65]
  [C0V4 D+0V4 D+0V255 rV6 A+0 G0V7 A0V11 A+0V4 D+0V4 C8V4 F+0V4 D+0V7 r B8V12 A+0V10 C1 D1V3 B7V11 A+0V10 B6V172 rV15 B2V10 F+0V8 A+0V12 D+0 D+0 D+0V7 D+0V4 F+0V4 rV7 A+0 A0V114 D+0V237 C0V35 B0V15 C+8V11 A+0V10 B6V106 rV107 D+8V27 D+0V3 D0V4 D+0V3 D0V4 D+0V236 G9V24 rV225 D+9V11 A+0V80 rV11 F0V7 A+0V100 F+0V6 F0V7 A+0V10 F+0V6 F+0V8 A0V9 E0V4 D+0 rV4 D+0V5 G+0V10 D+4]

$$ALL
  [F+0 rV2 C0V113 E9V9 D+0V7 rV65 F+0 A+6V3 D0V4 D+0V3 C+0V131 A+10V95 E7V255 rV7 D0 A+6V4 F+0V4 D5V4 rV84 F+0V4 F+0V4 D+0V7 F+0V180 G+0V31 G+0V4 D+7V13 D+0V7 rV65 F+0 D0V9 rV102 G+0V4 D+0 D+7 F+0V9 A+0V5 G9V80 rV4 rV229 D+0V4 F+0V4 D+0V7 D+0V4 F+0V4 D+0V7 D+0V4 F+0V4 D+0V7 rV90 B7 B0 A0V114 rV3 D0V15 A+0 A0V114 G15 D5V4 D+0V7 D+0V4 F+0V4 D+0V7 D+0V4 F+0V4]
  [F+0 rV28 F+0 C0V113 A+0V24 D+5 A0V131 C0V10 E7V131 G+10V12 D+0V3 D0V4 B6V140 rV63 A0V131 C0V10 B1V2 r D0V4 D0V4 D0V91 G+0V4 B6V11 C1V204 D+7V7 C+0V88 C1V24 A+6 E8V12 C0V102 G10V1 F8V12 G+0 F+0V9 D+0V7 G+0 F6 D5V100 rV5 G+7V8 E0V93 G0V5 C8V8 E0V93 G0V5 F7V8 E0V90 G0V3 D0V4 D+0V7 D+0V4 F+2V15 rV99 B14V7 D+0V4 rV65 F+0 rV120 G0V5 F7V8 E0V90 G0V5 F7V8 E0V90]

$$ALL
  [D+0V7 D+0V4 F+0V4 rV97 A7 rV106 B0V11 B8V13 D0V15 rV94 A9V12 G+0V80 rV6 rV3 D0 rV3 F+0 C7V9 rV3 D0 rV3 D0 rV3 D0 rV3 D0 B6V136 rV101 G0V9 A0V9 G+8V5 G0V9 G+0V100 B8V5 G+0V10 G0V7 D+0 rV4 rV2 F0V7 A+0V80 rV8 rV229 D+0V4 F+0V4 D+0V7 D+0V4 F+0V4 D+0V7 D+0V4 F+0V4 D+0V7 rV94 D+8 B0 A0V114 rV3 D0V15 A+0 A0V114 G15 D5V4 D+0V7 D+0V4]
  [G0V5 G+7V8 E0V97 D0V4 D+0V3 D+0V7 D+0V4 rV102 B8 C19V4 D+2V4 F6 F+2 rV97 C8 rV91 D0 A6 rV82 D+7 rV79 A6 rV94 F+7 rV85 A6V255 rV7 D+0V4 D+2V4 D+0V4 D+0V4 D+0V4 D+0V4 D+0V4 D+0V4 D+0V4 rV1 D+0 D+0V4 D+0V4 F6 D5V104 rV5 C8V8 E0V97 G0V5 E8V8 E0V97 G0V5 A7V8 E0V94 G0V3 D0V4 D+0V7 D+0V4 F+2V15 rV103 B14V7 D+0V4 rV65 F+0 rV120 G0V5 A7V8]

$$ALL
  [F+0V4 D+0V7 D+0V4 F+0V4 D+0V7 D+0V4 F+0V4 rV101 C+8 rV110 B0V11 D+9V13 D0V15 rV98 C+10V12 G+0V80 rV10 rV3 D0 rV3 F+0 E7V9 rV3 D0 rV3 D0 rV3 D0 rV3 D0 B6V136 rV105 G0V9 A0V9 C9V5 G0V9 G+0V100 D+9V5 G+0V10 G0V7 D+0 rV4 rV2 F0V7 A+0V80 r C19V137 E0 r E0V4 D+0V129 F0 G6V84 D0 D+0V3 D0V4 D+0V80 rV4 B6V8 rV180 r B6V6 rV80 rV8]
  [E0V94 G0V5 A7V8 E0V94 G0V5 C8V8 E0V101 D0V4 D+0V3 D+0V7 D+0V4 rV106 D+9 C19V4 D+2V4 F6 F+2 rV101 E8 rV95 D0 C+7 rV86 G7 rV83 C+7 rV98 A+7 rV89 C+7V255 rV7 D+0V4 D+2V4 D+0V4 D+0V4 D+0V4 D+0V4 D+0V4 D+0V4 D+0V4 rV1 D+0 D+0V4 D+0V4 F6 G10V135 D+0V4 E5V78 rV4 D0V4 rV65 G0 r B8 rV108 B9 F6 C0V255 rV8 E5V78 rV255 rV8 F6 C0V255]

$$ALL
  [B6V8 rV180 r B6V6 rV80 r F0 G6V84 C+0 rV96 B7 D+0V255 rV9 D+0 C+1V3 E14 A+12V14 rV155 rV150 rV155 rV155 A+0 A+0 A+0 A+0 F+0V11 F+0V11 F+0V11 F+0V11 E1V7 C1V7 C+1V7 C+1V7 F6 F+2V11 G+0V7 G0V7 C1V7 C1V31 A+12V9 A+12V8 A+12V13 A+12V13 rV155 rV155 rV155 rV155 G2 A+0 B0 A+0 B6V173 rV155 A+0 A+0 A+0 A+0 F+0V11 F+0V11 F+0V11 F+0V11 E1V7 C1V7 C+1V7]
  [rV8 E5V78 rV255 rV8 F6 rV65 G+0 r B8V10 D0V4 D+0 B6V25 rV96 rV13 rV65 G+0 rV155 rV155 rV155 rV155 G2 A+0 B0 A+0 A+0V32 F+0V11 F+0V12 F+0V11 F+2V11 G+0V7 G0V7 C1V7 C1V80 rV5 E1V7 C1V7 C+1V7 C+1V7 C+1V17 A+12V13 F12V14 A+12V14 A+12V14 rV155 rV150 rV155 rV155 A+0 A+0 A+0 A+0V255 rV9 G2 A+0 B0 A+0 A+0V32 F+0V11 F+0V12 F+0V11 F+2V11 G+0V7 G0V7 C1V7]

$$ALL
  [C+1V7 C+1V17 A+12V13 F12V14 A+12V14 E5V78 rV31 A+12V9 A+12V8 A+12V13 A+12V13 rV155 rV155 rV155 rV155 A0V141 G2V131 C+1V80 rV8 E1V7 C1V7 C+1V7 C+1V7 C+1V17 A+12V13 F12V14 A+12V14 A+12V14 rV155 rV150 rV155 rV155 A+0 A+0 A+0 A+0V255 rV9 G2 A+0 B0 A+0 A+0V32 F+0V11 F+0V12 F+0V11 F+2V11 G+0V7 G0V7 C1V7 C1V31 A+12V9 A+12V8 A+12V13 A+12V13 r C+1V17 A+12V13 F12V14 A+12V14 A+12V14 rV155 rV150 rV155 rV155]
  [C1V31 A+12V9 A+12V8 A+12V13 A+12V13 r C+1V17 A+12V13 F12V14 A+12V14 A+12V14 rV155 rV150 rV155 rV132 E9V11 G+10V13 F6 F+2V11 G+0V7 G0V7 C1V7 C1V31 A+12V9 A+12V8 A+12V13 A+12V13 rV155 rV155 rV155 rV155 G2 A+0 B0 A+0 B6V173 rV155 A+0 A+0 A+0 A+0 F+0V11 F+0V11 F+0V11 F+0V11 E1V7 C1V7 C+1V7 C+1V7 C+1V17 A+12V13 F12V14 A+12V14 E5V78 rV31 A+12V9 A+12V8 A+12V13 A+12V13 rV155 rV155 rV155 rV155 G2]
