
$FM1,

!ALL

$Inst1,
$Inst2,
$Inst3,
$Inst4,
$Inst5,
$Inst6,
$Inst7,
$Inst8,
$Inst9,
$Inst10,
$Inst11,
$Inst12,
$Inst13,
$Inst14,
$Inst15,

$$ALL
  [r D+5 D+5 D+5 D+5 D+5 D+5 D+5 r r r r r r r r r r r r r r r r r r r r r r r r r r r r r r r rV108 G2V102 F6 C8V110 G2V78 E3 F+5V2 r C0 r C0V4 G+8 D+0 rV33 rV5 A+16 F0 rV178 rV6 F4 F+0 rV216 rV8 G+17 G+0]

$$ALL
  [rV176 rV10 A+5 A+0 rV175 rV11 D+2 B0 rV218 rV13 D9 C1 rV69 rV14 D13 C+1 rV120 rV15 A0 D+1 rV112 rV16 F3 E1 rV191 rV18 C+4 F1 rV32 rV19 C18 F+1 r C0V1 r D+0V6 r C0V1 F+0 C0V3 F0V8 F+0V5 A0V6 B0V14 C1V17 rV2 D0V3 D+0V4 C0V1 F0V2 D0V3 G0 C+0V3 D0V3 D0V5 C0V1 C+0V3 D0V3 C0V1 C0V1 r r rV204 r]

$$ALL
  [C0 rV1 rV1 rV2 r F12 r F+8V32 F+9V101 A+6V115 C9 r D5 r r rV1 r D0 r rV6 r G0 r rV11 r C1 r r r C+0V208 rV255 D+17V5 r F+0V208 rV255 D+17V10 r B0V208 rV255 D+17V15 r C0V224 rV255 G18V4 r F0V224 rV255 G18V9 r A+0V224 rV255 G18V14 r C0 r D+0V6 F0V6 F0V6 F0V12 rV4 F4 G5V82 rV1 rV15]

$$ALL
  [C0V3 F0V8 A+0V13 G5V82 r rV68 D+0 r A+6V31 r F6V5 D8V111 E5 rV255 C0V1 G+5V73 C+4 F13 E5 G8V95 E5 rV255 C0V1 G+5V73 C+4 F13 E5 F+9 G+1V8 C0V255 rV13 r C0V255 C6V83 r rV78 rV83 E3V68 C8V32 G+8V101 E5 rV255 C0V1 D1V15 C+1V13 B0V11 G+0V8 F+0V6 D+0V3 C+0V1 C0V255 rV1 F6V78 A+4 r G1V40 A+6V32 G+3V97 F+5V111 D+8V77 r r C0V15 rV1]

$$ALL
  [r rV78 A+6V95 r F6V18 A+6V83 B5V45 G9V79 C+9V77 r r C0V15 C+1V13 B0V11 A0V10 G+0V8 E0V3 C+0V2 C+0V1 C0V1 C0V255 rV1 F6V78 F5 r E1V40 A+6V32 D8V32 G+8V101 E5 rV255 C0V1 rV1 rV1 B0V24 r C0V255 C6V83 r rV78 rV113 G+8V107 F9V109 E6V29 rV8 r D1V15 D1V4 rV129 F0V255 C6V83 r rV78 rV113 C+9V114 G5V117 rV65 G0 rV1 D1V15 D+0V255 rV24 D+5 B1]

$$ALL
  [r r C0 G17 G+5V73 C+4 F13 E5 D+9V48 rV65 G0 rV1 D1V14 C1V12 A0V9 D0V255 r rV78 A+6V58 r F6V8 F9V32 G4V77 r r C0V14 C1V12 A+0V10 C0 C0V1 G0V69 F6V50 rV162 rV65 E5V112 D4 B2V8 C+1V255 rV15 C1V13 A+0V10 G+0V3 r D0V255 C6V83 r rV78 rV114 B3 B1V8 C0V255 rV14 r C0V12 rV78 A+6V35 r F6V5 D9V116 E5 rV255 C0V1 C1V15 F6V78]

$$ALL
  [D3 r G+0V83 G9V108 rV65 G0 rV1 F+0V9 rV78 B6V198 r rV81 G+6V3 D0V1 rV85 G+7V3 D0 C0V88 C7V3 D0V1 rV93 D+8V3 D0 C0V93 C8V3 D0V1 rV88 G+7V3 D0 C0V85 D+7V3 D0V1 rV80 D+7V3 D0 C0V83 G7V3 D0V1 rV88 A+7V3 D0 C0V95 D+8V3 D0V1 rV92 A+7V3 D0 C0V88 G7V3 D0V1 E5V78 r rV3 D0V1 rV78 C7V3 D0 C0V81 F7V3 D0V1 rV85 G+7V3 D0 C0V93]

$$ALL
  [C8V3 D0V1 rV90 G+7V3 D0 C0V85 F7V3 D0V1 rV81 G+6V3 D0 C0V90 C+7V3 D0V1 rV81 F7V3 D0 C0V98 G+7V3 D0V1 rV93 C+7V3 D0 C0V90 G+7V3 D0V1 rV86 G6V84 r C+0 rV83 G+6V3 D0 C0V90 C7V3 D0V1 rV81 F7V3 D0 C0V97 G+7V3 D0V1 rV93 C7V3 D0 C0V90 G+7V3 D0V1 rV85 C+8V3 D0 C0V90 G+7V3 D0V1 rV86 F6V3 D0 C0V93 C8V3 D0V1 rV85 D+6V3 D0 C0V95]

$$ALL
  [C6V3 D0V1 rV92 A+6V3 rV65 F+4 r B14V1 D0V14 D+8 rV105 C0 C+1V3 G+10V180 D+8V129 G+10V102 D0V14 E5V78 r rV3 rV105 C0V129 C+1V1 D0V14 B14V3 G+10V105 D0V14 B14V3 G+10V180 C+8V129 G+10V97 D0V14 E5V78 r rV128 C+1V1 D0V14 B14V3 G+10V105 D0V14 B14V3 rV180 G8V133 C+1V1 D0V14 B14V3 G+10V104 G6V84 r F0 C+1V3 C11V102 C0V129 C+1V1 D0V14 C9V129 C+1V1 D0V14 B14V3 G+10V180 G+8V255 B6V12 r rV81]

$$ALL
  [C0V255 B6V8 rV1 rV180 E5V78 r rV3 D+12V180 B0V1 D+8V128 D0V12 B14V97 C0V3 D+11V180 B0V1 A+7V128 rV65 D3 C0 C8V136 D0V12 B14V93 C0V3 D+11V180 B0V1 A+7V255 B6V58 rV1 rV97 C0V3 G10V180 B0V1 D+8V128 D0V12 B14V100 C0V3 D+11V180 G+7V128 D0V12 E5V78 r rV137 D0V12 B14V93 C0V3 G10V180 B0V1 C+8V136 D0V12 B14V93 G6V84 r E0 B14V3 G+10V100 C0 C1V1 D0V13 D+8V129 G+10V100 C0V129 C1V3 rV180 G+8V255]

$$ALL
  [B6V63 rV1 rV180 F8V129 G+10V102 C0V129 C1V3 G+10V105 C0V129 C1V1 D0V13 B14V3 G+10V95 D0V13 E5V78 r rV1 D0V13 B14V3 G+10V105 D0V13 B14V3 rV180 G8V133 C1V1 D0V13 B14V3 G+10V104 C0 C1V80 F6 rV8 A10V102 C0V129 C1V1 D0V13 C9V129 C1V1 D0V13 B14V3 G+10V180 A+8V129 G+10V109 G6V84 r G+0 G+10V105 C0V129 C1V3 G+10V100 C0 C1V1 D0V13 D+8V129 G+10V100 C0V129 C1V3 rV180 G+8V255 B6V60 rV1 rV3 G+10V180 G+8V129]

$$ALL
  [G+10V107 D0V13 C+9V129 G+10V109 C0V129 C1V1 D0V13 B14V3 rV65 B0 C0 C7V141 rV65 C+5 C0 B14V1 D0V12 D+7 rV93 C0 B0V3 G+10V180 D+7V129 G+10V90 D0V12 B14V3 rV65 D5 C0 B14V3 G+10V180 F7V129 G+10V92 D0V12 G+7V129 G+10V86 C0V129 B0V1 D0V12 A+6V129 B0V80 F6 rV14 C0V129 B0V1 D0V12 G+7V129 B0V1 D0V12 B14V3 C11V88 C0V129 B0V1 D0V12 G7 rV93 G6V84 r D1 F7V129 G+10V93 C0V129 B0V3 G+10V98]

$$ALL
  [C0V129 B0V1 D0V12 B14V3 G+10V180 C8V255 B6V70 rV1 rV180 G+7V129 G+10V88 D0V12 D+7 rV93 C0 B0V3 G+10V180 D+7V129 G+10V90 D0V12 B14V3 rV65 B4 C0 D0V12 B14V3 G+10V180 A+7V129 B0V3 G+10V180 C8V129 G+10V97 C0V129 B0V1 D0V12 E5V78 r rV1 G6V84 r C0 C+0V1 D0V2 B14V71 C0V133 C+0V1 G6V84 r C+0 C+0V1 D0V2 B14V74 C0V3 G+10V180 A+5V132 rV65 C7 C+0 A+6 C+0V3 G+10V73 D0V9 A+6 C+0V3]

$$ALL
  [G+10V73 D0V9 A+6 C+0V3 G+10V71 D0V10 A+6 C+0V3 G+10V71 D0V10 E5V78 r rV3 rV73 D0V11 C6V129 A+0V3 rV73 D0V11 C6V129 A+0V3 rV74 D0V10 C+6V129 A0V3 rV74 D0V10 C+6V129 A0V80 F6 rV5 D0V7 C6 A+0V3 G+10V90 D0V7 C6 A+0V3 G+10V90 D0V7 C+6V131 G0V3 rV73 D0V8 A+6 C+0V3 rV65 G2 C+0 C6V141 C11V73 C0V3 G+11V180 C+6V132 rV65 B0 C+0 G+7V141 rV65 F+7 C+0 A+6 C+0V3 G+10V73]

$$ALL
  [D0V11 A+6 C+0V3 G+10V73 D0V11 A+6 C+0V27 G+0V129 G0V27 G+0V129 F+0V3 rV90 F+0V3 G+10V90 G6V84 r r rV65 A+2 D0 C8V141 E0V3 B10V180 C8V141 E0V3 B10V180 E5V78 r rV3 G+11V98 D0V2 B14V3 D+11V180 C+0V3 C11V97 D0V4 C+8V255 B6V133 rV3 rV98 B7V128 C+0V180 C+0V3 D0V2 C8V1 C8 F0V96 D0V2 D0V2 C+8V3 G10V97 B14V97 D0V6 C+0V3 C0V3 rV98 B7V128 C+0V180 C+0V3 D0V2 C8V1 C8 E0V96 D0V2]

$$ALL
  [D0V2 E5V78 r rV3 G+11V98 D0V2 B14V3 G+11V98 D0V2 B14V255 B6V133 rV3 rV98 B7V128 C+0V180 C+0V3 D0V2 C8V1 C8 F0V96 D0V2 D0V2 C+8V3 G10V97 B14V97 D0V6 C+0V3 C0V3 rV74 B5V128 F0V73 C6 C+0V3 D0V2 C+0V3 D0V2 C+6V3 D0V2 E5V78 r rV3 G+11V180 rV65 G+11 D0 C+8V3 G10V97 B14V97 D0V5 C+0V3 C0V3 rV98 B7V128 C+0V180 C+0V3 D0V2 C8V1 C8 F0V4 C+0V3 C0V3 rV98 E0V96 D0V2]
