
$FM1,

!ALL

$Inst1,
$Inst2,
$Inst3,
$Inst4,
$Inst5,
$Inst6,
$Inst7,
$Inst8,
$Inst9,
$Inst10,
$Inst11,
$Inst12,

$$ALL
  [r D+5 D+5 D+5 D+5 D+5 D+5 D+5 r r r r r r r r r r r r r r r r r r r r r r r r r r r r r r r rV111 G+8V105 G2V104 F+9V91 E8V101 G+7V87 D+9V105 r rV2 r r r C+16 D+0 rV126 rV5 B19 F0 rV140 rV6 D+0 F+0 rV203 rV8 A+10]

$$ALL
  [G0 rV158 rV10 A+7 A0 rV54 rV11 F18 B0 rV206 rV12 D3 C1 rV181 rV13 C+0 C+1 rV110 rV14 D20 D1 rV180 rV16 C7 D+1 rV42 rV17 D+1 F1 rV67 rV19 D17 G1 rV44 rV21 G3 A1 rV66 rV23 G6 r C0V3 D0V3 D0V3 D0V3 F0V4 G0V10 G+0V9 D0V3 A+0 rV2 D+0V6 E0V7 F0V4 F+0V10 G+0V12 D1V15 C+1V16 F1V17 r C+0V3 D+0V4 E0V4 D+0V4]

$$ALL
  [F0V7 F+0V5 E0V5 D+0V4 D+0V5 rV2 D0V5 D+0V5 E0V5 E0V7 F+0V7 G+0V9 G+0V10 E0V4 A+0V1 C0V1 r r r D5 rV1 C0 rV1 r r r r E8V97 C8V101 E8V114 D9V105 F+5 rV171 D5 r r rV1 r C0V208 rV255 D+17V4 r F0V208 rV255 D+17V9 r A+0V208 rV255 D+17V14 r rV224 rV255 G18V3 r E0V224 rV255 G18V8 r A0V224 rV255 G18V13 r D1V224 r]

$$ALL
  [r C+0V6 F0V6 F0V6 rV4 C+14 D+0 E5V74 rV104 B6V112 D4V99 D8V83 C5V10 F+9V111 B8V99 B3V110 C8V121 G+8V101 C8V115 C+9V80 F+9V82 E8V61 B8V101 E5V73 r r rV2 G0V6 E0V65 A6 r G5V82 r rV78 C+4 r E0V107 A+8V77 r r C0V15 A+0V3 D+0V255 r D+20V69 F6V50 rV158 rV65 F+9V97 rV65 G0 rV1 C+1V14 C1V11 G+0V7 D+0 r C0V254 C+0V255 C0V1 G+5V73 C+4 C+13 E5]

$$ALL
  [G8V116 E5 rV255 C0V1 A0V2 rV1 C0V69 F6V50 rV158 rV65 D8V97 rV65 G0 rV1 D1V15 C+1V13 A+0V9 F0 r C0V255 C6V83 r rV78 rV97 rV65 G0 rV1 D1V1 r rV78 A+6V37 r F6V11 B8V105 C+8V115 E6V12 rV1 r rV78 A+6V47 r F6V8 C+9V114 C8V77 r r C0V14 D0V255 rV12 rV78 A+6V48 r F6V8 C+9V114 C+8V77 r r C0V14 D+0V255 r rV69 F6V50 rV158 rV65]

$$ALL
  [D+9V116 G2V99 G9V104 E5 rV255 C0V1 C0V255 E5V1 rV78 A+6V53 r F6V13 C+9V116 C9V110 G4V77 r r C0V13 C+0 C0 B0V69 F6V50 rV158 rV65 C8V112 rV65 G0 rV1 C+1V13 r C0V251 rV78 A+6V44 r F6V14 C+9V116 C9V110 C4 D+1V8 E0V255 rV10 C1V255 G6V84 r r B5V15 D+11V28 C0V15 D1V129 G0V129 F0V8 G0V1 B5V15 D+2V8 D1V6 A+10V72 D0V6 B7V128 G0V130 F0V8 A7V255 B6V82 r rV72]

$$ALL
  [G0V28 C0V15 D1V129 G0V129 F+0V8 G0V1 B5V15 D+2V8 D1V7 A+10V72 D0V7 B7V128 G0V130 F+0V8 A7V255 B6V86 r rV72 G+10V8 A7V15 G0V7 D1V4 F+0V7 D+0V129 F+0 F+0V3 G10V90 D0V7 D7V128 F+0V3 G10V79 D0V7 E6V128 F+0V80 F6 rV3 D1V7 G+10V7 G+10V94 G0V28 D+1V15 C+1V129 G0V129 F+0V8 F+0V16 A7V14 D0V7 A7V131 A0V28 C0V15 C+1 A0V80 F6 rV4 D1V9 rV7 A+10V98 G0V28 C0V15 C+1V129 G0 G+0V8 A7V129 G+0V3]

$$ALL
  [rV98 D+2V8 D1V9 rV7 G+10V96 G0V3 A+10V96 G6V84 r E0 G+0V8 F+0V16 C+8V14 D+2V8 D1V9 G+10V7 rV91 G0V3 G+10V98 D0V9 C+8 G0V131 G+0V8 F+0V16 A7V14 D+2V8 G6V84 r F0 G+0V8 F+0V16 A+7V14 D+2V8 D1V9 G+10V7 rV86 G0V3 G+10V95 D0V9 A+7 G0V131 G+0V8 F+0V16 B7V15 D0V8 B7V255 B6V87 r rV95 G0V28 D+1V15 C+1 G0V131 G+0V8 F+0V16 C+7V14 D0V9 A+7V135 G+0V3 rV7 A+10V93 G0V28 D+1V15 C+1]

$$ALL
  [G0V255 B6V37 r rV103 C11V8 F8V15 G0V7 D1V4 F+0V8 D+0V255 B6V79 r rV5 D0V15 C+1V129 G0V129 A0V8 F+0V1 E0V4 D1V10 A+10V7 rV94 G0V3 G10V7 A10V96 G0V3 A+10V96 G6V84 r A0 G+10V3 A7V14 D+2V8 D1V10 G+10V7 G+10V5 D0V15 C+1V131 G0 A0V8 B7V128 G0V130 A0V8 A7V255 B6V86 r rV72 G0V28 C0V15 C+1V129 G0V129 A0V8 F+0V1 B5V14 D+2V8 D1V10 A+10V72 D0V10 B7V128 G0V130 G0V8 D9V131 G0V80 F6]

$$ALL
  [r D+2V229 D+0V4 F+0V6 D+0V129 F0V129 G+10V6 D+0V7 D1V4 F+0V6 D0V6 G0V7 D1V3 rV65 F5 C0 G0V4 F+0V7 D+0V129 F+0V129 G+10V6 D+0V7 D1V4 F+0V7 D0V7 G0V7 D1V3 A+10V96 G6V84 r C+0 G0V1 rV4 F+0V7 D+0V129 F+0V129 G+10V6 D+0V7 D1V4 F+0V7 D0V7 G0V7 D1V3 rV65 A6 C0 G0V4 F+0V7 D+0V129 F+0V129 G+10V6 D+0V7 C+1V3 G10V103 D0V7 E8V128 F+0V3 rV94 D0V7 F7 F+0V3 rV65 D3 C0]

$$ALL
  [G0V31 D1V50 E8V133 G+0V4 F+0V9 D+0V133 G+0V255 B6V34 rV1 rV8 B7V15 G0V31 D1V50 G0V91 A+10V93 G6V84 r F0 G+0V4 A7V15 G+7V129 G+10V94 C11V93 D+0V129 G+0V225 D0V9 G0V31 D1V18 E5V78 r rV255 B6V56 rV1 rV94 D+0V7 D1V3 G+10V8 A7V15 G+7V129 G+10V92 G+18V139 G+0V4 F+2V9 A2V80 F6 rV9 A+0V11 B1V100 C+8V4 D+0V255 B6V38 rV1 rV11 D+0V24 C11V98 C11V4 A+0V11 B1V100 E8V4 E5V78 r rV11 D+0V24 G+11V95]

$$ALL
  [C11V4 G6V84 r B0 A+0V133 D+8V11 D+0V24 rV65 C+3 C0 C+8V15 D+0V133 G0V133 C11V96 C11V8 A+7V15 G0V80 F6 rV14 D+0V129 G+10V103 A10V8 F8V15 G0V7 D1V4 F+0V9 D0V9 G0V4 D+0V129 rV65 C5 C0 B14V7 D1V4 F+0V9 D+0V129 G+0V129 G+10V99 A10V96 D0V9 E8V128 A+10V101 rV99 G6V84 r D+1 C11V91 A10V8 A7V15 G0V7 D1V4 F+0V7 D0V7 A7V131 F+0V4 D+0V129 A10V91 rV65 A4 C0 A7V133 F+0V4 F+0V7 D0V7]

$$ALL
  [G0V7 D1V4 F+0V7 D+0V129 F+0V129 A10V6 D+0V80 F6 rV18 D0V7 F+7V128 A10V94 A+10V98 D+0 F+0V132 G+10V6 D+0V4 C0V255 B6V69 rV2 rV79 B14V1 F+6V25 C0V3 C2V237 D0 G+19V132 rV180 B10V79 B14V1 F+7V25 C0V3 C2V237 G6V84 r C0 rV180 B10V79 B14V1 F+7V25 C0V3 C2V237 D0 G+19V130 rV180 D0 G+19V132 rV180 B10V79 B14V1 E5V78 r rV3 C2V237 D0 G+19V132 rV180 B10V79 B14V1 F+6V25 C0V3 C2V237 D0 G+19V132]

$$ALL
  [rV180 rV65 C3 C+0 F+6V25 C0V3 C2V237 D0 G+19V132 rV180 rV65 A+6 C+0 F+6V25 C0V3 C2V237 D0 G+19V132 rV180 A10V91 B14V1 rV180 A10V91 B14V1 rV180 B10V91 B14V1 F+6V25 C0V80 F6 rV5 D0 G+19V132 rV180 B10V91 B14V1 F+6V25 C0V3 C2V237 F+6V25 C0V3 C2V237 F+6V25 C0V3 C2V237 D0 G+19V130 rV180 rV65 D10 C+0 F+6V27 G+19V132 rV75 C0V1 D0 E0V1 B14V3 D2V5 rV180 F+7V25 C0V79 D6V237 C0V128]

$$ALL
  [rV180 D0 E0V1 B14V3 D2V5 rV180 F+7V27 G+19 rV75 F+7V25 C0V80 F6 rV7 D0 E0V1 F+6V27 G+19 A10V91 B5V237 C0V130 rV72 C0V1 D0 G+19V3 D2V5 rV180 F+7V25 C0V79 B5V237 C0V130 rV72 C0V1 D0 E0V1 B14V3 D0 G+19V255 B6V69 rV2 rV79 B14V1 F+6V25 C0V3 C2V237 D0 G+19V128 rV180 rV91 B14V1 F+7V25 C0V3 C2V237 G6V84 r G+0 rV180 B10V79 B14V1 F+7V25 C0V3 C2V237 D0 G+19V3 C2V237]

$$ALL
  [D0 G+19V3 C2V237 D0 G+19V132 rV180 A10V91 B14V1 E5V78 r rV27 G+19V133 C+0V1 C6V237 D2V2 C11V74 C0V27 G+19V133 C0V1 C+6V237 D2V2 rV65 E5 D0 C+6V237 D2V2 C11V73 C0V27 G+19V133 C0V1 C6V237 D2V2 C11V73 C0V27 G+19V131 C+0V1 E5V78 r rV27 G+19V27 G+19V132 C+0V1 D+0V1 B14V27 G+19V133 C+0V1 D+0V1 C+6V237 D9V237 D2V4 G10V74 C0V180 E9V237 D2V1 A+10V108 C0V27 G+19V27 G+19V130 C+0V1 D+0V80 F6 rV3 D2V2 D2V4]

$$ALL
  [B10V74 C0V120 C0V1 D2V1 C11V74 C0V108 C0V3 rV130 D0V4 F10 D+0V3 G10V120 D0V4 F+9V128 D+0V3 G10V111 G6V84 r D+0 D0V27 G+19 C+0V1 D+0V1 B14V27 G+19V133 C+0V1 D+0V1 C6V237 D2V2 D2V4 G+10V113 C0V73 C0V27 G+19V1 D2V4 G10V73 C0V27 G+19 C+0V1 D+0V1 C+6V237 D9V255 B6V121 rV3 rV98 C0V108 C0V27 G+19V27 G+19 A10V73 C0V27 G+19V27 G+19V130 C0V1 C+6V237 D9V237 D2V4 D2V1 rV74 C0V180 E9V237 D2V1 A+10V108 C0V27]

$$ALL
  [G+19V27 G+19V130 C+0V1 D+0V80 F6 rV6 D2V3 D2V4 B10V74 C0V120 C0V1 D2V1 C11V74 C0V108 C0V27 G+19 C+0V1 D+0V1 E9V237 C6V237 D2V2 C0V129 D+0V1 C6V237 D2V4 rV73 C0V27 G+19V129 C0V1 E5V78 r rV3 C11V74 C0V27 G+19V133 C+0V1 C6V237 D2V2 A+10V73 C0V27 G+19V133 C0V1 C+6V237 D2V2 rV65 E4 D0 C+6V237 D2V2 G+11V74 C0V27 G+19V129 C0V1 C6V237 D2V1 G10V73 C0V80 F6 rV9 D2V2 D2V4 G+10V180 C+6V237 A8V237]

$$ALL
  [C0V128 C0V1 B8V1 D2V2 D2V4 G+10V180 C0V1 C+6V237 A8V237 C0V27 G+19V27 G+19V27 G+19V27 G+19V129 G10V73 C0V3 C0V128 C+0V1 D+0V1 B14V74 C0V80 F6 rV10 D2V2 D2V4 G+10V180 C+6V237 A8V237 C0V128 C0V1 B8V1 D2V2 D2V4 G+10V180 C0V1 C+6V237 A8V237 C0V27 G+19V27 G+19V27 G+19V27 G+19V129 G10V73 C0V3 C0V128 C+0V1 D+0V1 B14V74 C0V80 F6 rV11 D2V3 D2V4 B10V74 C0V120 C0V1 D2V1 C11V74 C0V108 C0V27 G+19 C+0V1 D+0V1 E9V237]
