
$FM1,

!ALL

$Inst1,
$Inst2,
$Inst3,
$Inst4,
$Inst5,
$Inst6,
$Inst7,
$Inst8,
$Inst9,
$Inst10,

$$ALL
  [r D+5 D+5 D+5 D+5 D+5 D+5 D+5 r r r r r r r r r r r r r r r r r r r r r r r r r r r r r r r rV112 C8V116 B8V103 rV83 D7V83 B8V101 rV67 C+0 rV1 r rV1 rV113 rV4 F+15 D+0 rV143 rV5 C1 F0 rV183 rV8 F8 G+0 rV133 rV12 F+20 D1 rV167 rV18 A+9 G1 rV164 rV23 C+19 B1 rV24 rV28 A11 F2 rV191 rV33 D+1 B2 rV150 rV38 E1 D+3 rV101 rV44 C+18 B3 rV39 rV52 C+14 F4 rV103 rV57 C3 B4 rV156 r G+17 F5 rV16 C+0V4 F+0V9 E0V13 C+1 C+0V4 F+0V9 A+0V13 C0V1 E0V7 D0V4 A0 C0V4 F+0V1 D+0V6 C0V1 D0 r r rV128 r C0 rV4 C0 r rV150]

$$ALL
  [r rV83 C8V77 G9V114 C10V116 rV117 E8V32 G+8V32 C+7 r r r r r C+0 r rV5 r F+0 r rV10 r B0 r rV15 r C0V208 rV255 D+17V4 r F0V208 rV255 D+17V9 r A+0V208 rV255 D+17V14 r rV224 rV255 G18V3 r E0V224 rV255 G18V8 r A0V224 rV255 G18V13 r D1V224 r r F0V6 F0V6 F0V6 rV4 C+2 D+0 C6V17 r r C+0V4 F+0V9 C6V4 r E5V73 r rV73 C+4 G+16 E5 D8V121 G2V117 C8V110 rV65 G0 rV1 D1V13 A0V8 F+0V255 C6V83 r rV78 rV112 rV78 A+6V43 r F6V11 C8V116 E8V97 E6V18 rV7 r C1V7 rV69 F6V50 rV201 rV65 A+6V111 G5V99 rV65 G0 rV1 D1V13 A0V8 E0V3 rV69 F6V50 rV201 rV65 A+6V111 G5V99 G2V105 E6V39 rV16 r C+1V12 G+0V7 D+0V2 C0 C0V1 D0V255 C6V83 r rV78 rV108 G2V101]

$$ALL
  [C10V109 rV65 G0 rV1 D1V13 A0V8 E0V3 rV4 r rV4 F6V78 A+5 r F1V83 A+9V68 C8V32 G+9V116 E6V39 rV16 r C+1V12 G+0V7 D+0V2 C0 C0V1 E0V255 C6V83 r rV78 rV119 B8V77 r r C0V2 G0V12 G+5V73 C+4 G+16 E5 F+9V32 D8V121 G+8V104 D8V111 E5 rV255 C0V1 A0V4 C+0V4 D+0V2 rV69 F6V50 rV201 rV65 A5V115 G5V99 G2V105 G2V117 C8V110 E5 rV7 C0V1 A0V6 F6V65 D+2 r D5V83 C+20V229 F+2V2 D+1V32 G10V80 F6V2 r F+0V2 F7V5 C+0V7 E0V92 F+0V2 A+7V12 C+0V7 B0V95 F+0V2 C7V5 C+0V7 E0V95 F+0V2 D7V12 C+0V7 B0V87 F+0V2 F7V5 C+0V7 E0V87 F+0V2 F7V12 C+0V7 B0V90 F+0V2 A7V5 C+0V7 E0V85 F+0V2 D+7V12 C+0V7 B0V88 F+0V2 G7V5 C+0V7 E0V88 F+0V2 G7V12 C+0V7 B0V92 F+0V2 G+6V5 C+0V7 E0V90 F+0V2 G+6V12 C+0V7 B0V81 F+0V2 C7V5 C+0V7 E0V85 F+0V2 D+7V12 C+0V7 B0V88]

$$ALL
  [F+0V2 G7V5 C+0V7 E0V88 F+0V2 G7V12 C+0V7 B0V92 F+0V2 A+7V5 C+0V7 E0V94 F+0V2 C8V12 C+0V7 B0V97 F+0V2 D7V5 C+0V7 E0V97 F+0V2 G+6V12 C+0V7 B0V81 F+0V2 C7V5 C+0V7 E0V81 F+0V2 C7V12 C+0V7 B0V85 F+0V2 D+7V5 C+0V7 E0V85 F+0V2 D+7V12 C+0V7 B0V88 F+0V2 F7V5 C+0V7 E0V88 F+0V2 F7V12 C+0V255 B6V153 r rV12 C7V1 C7 C0V3 rV85 F+0V1 F+0V1 C0 C0V1 D0V1 D+0 C0V4 C7 C0 C0V1 F+0V1 B14V85 D0V1 D+7 C0V7 F0V31 B0V50 B14V3 rV180 D7V129 G5V15 B0 C0V7 F0V3 rV180 E5V78 r rV7 B0V27 D0V133 C0V3 A+10V85 C0 C0 A+10V76 rV81 D0V4 D+6 D+0V3 rV88 C11V95 G2V3 A+10V86 D0V1 C+7V129 C0V16 B14V7 E0V1 G6V84 C0 D0 rV85 B14V85 D0V1 D+7 C0V7 F0V7 B0V1 D0V1 B14V3 G+10V4 D1V1 rV85 F+0V1 D0V1 B14V7 G+0V3 rV107 D0V6 C9 F0V109 D0V111 D0V111 D0V109]

$$ALL
  [D0V6 F9V3 C0 C0V1 C7 C0V3 rV85 F+0V1 F+2V1 C+4V1 D0V1 B14V3 G+10V4 D1V1 rV85 F+0V1 D0V1 B14V7 B0V3 rV83 D+7V3 rV90 D0V8 C7 G0V3 D0V8 G0V3 rV87 F7V3 D0V8 E5V78 r rV7 B0V27 D0V133 C0V3 A+10V85 C0 C0 A+10V76 rV81 D0V4 D+6 D+0V3 rV88 C11V95 G2V3 rV90 D0V1 D+7 G5V3 rV85 A+4V82 B1 B14V7 E0V1 F+0V1 F7V10 C0V7 B0V80 F6V1 rV5 D2V1 rV180 C8 C+0V2 D1V1 D0 C0V3 rV97 C+8V95 G+19V31 B0V98 F7V5 A+7V12 D8V5 rV95 G+10V88 B14V87 B14V88 B14V90 C0 C0V31 A0V48 C0V2 C7V3 B14V83 B14V90 D0V1 F7V5 A+6V12 B14V3 rV4 D0V1 F6V4 D2V1 rV78 rV87 rV77 C+0V24 F+0V1 B14V85 B14V88 D0V1 D+7V5 F7V12 B14V3 G+10V85 D+1V3 rV90 B1V68 A+6V4 D0V1 A+6V4 B1V2 D1V5 r D7V3 D0V5 F7V12 C0V94 A+7V27 D+0V255 B6V46 r rV15 G+18V4 C0]

$$ALL
  [C0V31 A0V48 C8V12 C+0V3 rV90 D2V1 F+2V1 D0V99 A18 C0 C0 C0V226 F+0V1 D0V1 D0V1 D0V1 D0V1 B14V3 rV77 C+0V31 B0 C0V16 D0V1 D0V1 C7 C0 C0 rV82 B1V68 A+6V129 C0 D+7V3 F+0V1 F+0V1 F+2V2 B3V2 D7V12 C0V3 C0V3 rV92 G2V7 E0V7 B0V1 D0V1 A+6V3 D0V1 A+6 G5V31 E0 D+0 C0V4 B1V68 B14 D7V12 F7V1 A+7V1 F7V255 B6V177 r rV85 F+0V2 D+7V12 C+0V7 B0V88 F+0V2 G7V5 C+0V7 E0V88 F+0V2 G7V12 C+0V7 B0V92 F+0V2 A+7V5 C+0V7 E0V94 F+0V2 C8V12 C+0V7 B0V97 F+0V2 D7V5 C+0V7 E0V97 F+0V2 G+6V12 C+0V7 B0V81 F+0V2 C7V5 C+0V7 E0V81 F+0V2 C7V12 C+0V7 B0V85 F+0V2 D+7V5 C+0V7 E0V85 F+0V2 D+7V12 C+0V7 B0V88 F+0V2 F7V5 C+0V7 E0V88 F+0V2 F8V11 C7V12 C+0V7 B0V85 F+0V2 D+7V5 C+0V7 E0V85 F+0V2 D+7V12 C+0V7 B0V88 F+0V2 G7V5 C+0V7 E0V90 F+0V2 A7V12 C+0V7]

$$ALL
  [B0V94 F+0V2 C8V5 C+0V7 E0V94 F+0V2 C8V12 C+0V7 A0V3 rV100 D0V1 D8 C0V3 G+10V92 D0V1 F7 C0V180 E5V78 r rV130 C0V129 C0V225 D0V1 A7V129 C0V3 G+10V97 D0V1 G7 C0V1 D2V1 rV180 D7V132 D0V88 G19V3 B1V3 C0V236 D7V24 D0V1 G+6 C0V27 G+18V24 D0V1 C+7V129 C0V3 C0V3 C0V225 D2V1 D2V1 D0V1 C7 C0V16 A+6V143 rV180 E6V15 rV83 D+1V27 C+0V255 B6V40 r rV99 C+0 C0V236 D8V24 D2V1 rV99 rV97 A18 G5V3 G+10V95 rV180 C0V180 C0V50 G7V129 C0V3 rV87 D0V1 F7V128 D0V90 C+4V24 rV94 F+0V1 F7V11 C0V85 A+6V3 D0V1 C0V82 A+6V3 D0V1 C0V90 D7V3 D0V1 C0V3 B1V3 C0V24 rV104 rV180 C0V49 A+8 C0 C0V225 D2V1 rV100 B1V68 D8V4 D0V1 D+8V225 D+0V129 G+10V90 rV90 B14V85 B14V83 rV24 D2V3 B1V56 D0V89 E7V85 E7 B14V80 F6 rV10 A10V90 rV180 A+7 C0V3 rV88 D0V1 B14V3 rV4]

$$ALL
  [D2V1 rV87 D0V1 B14V7 E0V7 B0V1 D0V1 D+7 C0V27 G+18V129 C0V81 C7V129 C0 F7V5 F7V12 B14V3 rV97 D0V1 C8V129 C0V1 D0V1 D+0 C0 D8 C0V27 D0 G5V27 D+0V129 C0V16 A+7 C0V32 D+0V133 G+10V1 E5V78 r rV130 C0V4 C0 C0V3 rV95 D0V1 C+8 rV98 B1V81 C8V4 D0V1 G+7 rV93 rV97 rV180 C8 C0V3 rV226 D2V1 G+10V93 D2V1 rV97 D0V1 B14V7 E0V7 B0V1 D0V1 C+8 C0V3 G+10V102 C0 C0V24 rV104 rV3 rV109 D+1V35 C0V68 E0V4 G+2V180 F+0V5 G7V3 rV95 A+7V3 D0V4 A+6V9 C0V7 A+0V97 rV65 G+4 r D1V1 D+0 rV97 F+2V2 B3V15 B0V3 D0V1 F7 C0V98 C0V237 D8V12 rV90 rV95 rV99 A18 C0V129 C0V180 C0V180 C0V180 C0V1 D0V1 E6V10 F+2V1 rV85 D+1V180 C0V180 C0V3 rV90 rV83 rV180 A6 G5V3 G+10V78 rV27 D0 C0 C0 C+0V2 C+0V31 B0V97 D0V1 D0V1 G7V3]

$$ALL
  [F+0V1 F+0V1 C0 C0V27 D0 C0V3 rV4 F+2V1 rV24 rV83 D+0 G5V25 rV7 A+0V3 G10V88 D0V4 F6V12 A+6 C0V80 F6V1 rV13 D0V1 F6V5 D+7V12 E6V10 B1 C0V225 B14V87 B14V88 D2V1 rV88 rV90 rV180 F7V129 C0V16 A6 C0V24 rV83 D+0 G5V31 C0 D+0 D+0V129 C0 rV94 C0 C0V3 D0V1 C0V68 D+7V4 F+0V1 F+0V1 C0 C0 C0 C0V3 rV88 rV90 rV180 D8V225 B1V68 C8V4 D2V1 rV95 C0 C0 rV95 rV180 D8V11 F8V3 D0V5 F0V95 D0V6 A+7V1 D8V1 F8 rV65 D16 r C7V12 C+0V7 B0V85 F+0V2 D+7V5 C+0V7 E0V85 F+0V2 D+7V12 C+0V7 B0V88 F+0V2 G7V5 C+0V7 E0V90 F+0V2 A7V12 C+0V7 B0V94 F+0V2 C8V5 C+0V7 E0V94 F+0V2 C8V12 C+0V7 B0V97 F+0V2 G+6V5 C+0V7 E0V92 F+0V2 G+6V12 C+0V7 B0V81 F+0V2 C7V5 C+0V7 E0V81 F+0V2 C7V12 C+0V7 B0V85 F+0V2 D+7V5 C+0V7 E0V85 F+0V2 D+7V12]

$$ALL
  [C+0V7 A+0V7 B0V90 F+0V2 C7V5 C+0V7 E0V95 F+0V2 C7V12 C+0V7 B0V85 F+0V2 D+7V5 C+0V7 E0V87 F+0V2 F7V12 C+0V7 B0V90 F+0V2 A7V5 C+0V7 E0V90 F+0V2 A7V12 C+0V7 B0V94 F+0V1 D0V1 D+8 C0V3 rV100 D0V1 B0V1 rV106 D0V1 F8 C21 C0V3 rV109 G6V84 r D1 A+8V253 F+2V3 G4V31 E0 D8V4 rV107 r rV65 F+0 C0 rV65 D1 C0 C6V11 B14V3 rV73 C0V3 C0V3 D0 C6 rV1 D0 D6 D0 D0 rV3 rV69 C0 rV3 rV180 rV180 rV69 D0 G+5 rV69 D0 B14V71 B14V71 D6 rV7 A+0V1 D0 C6 D0 D0 rV3 rV75 C0 rV3 rV180 rV180 rV75 D0 G+5 rV69 D0 B14V71 B14V71 G+5 rV3 rV180 G+5 rV1 A+5V1 A+5V3 rV71 G6V84 r C0 rV3 rV79 D0 B14V3 D0V5 rV79 D0 C+6 D+0V3 rV74 C0V3 C0V3 D0 D+6 rV1 D0]

$$ALL
  [G+5 D0 D0 rV3 rV77 C0 rV3 rV180 rV180 rV77 D0 B5V11 B14V3 rV72 C0V3 C0V3 D0 B5 rV1 D0 C+6 D0 D0 rV3 rV69 C0 rV3 rV180 rV180 rV69 D0 G+5 rV65 F+1 C0 F+6 E0V3 rV79 D0V5 rV91 F6V3 rV79 D0 F7 rV3 rV90 C6V3 D0 rV3 rV69 D0V6 G+5 rV3 D0 F0V71 G+5 rV3 rV89 D0 E6 E0V76 E7V3 D0 E6 r D+0V3 rV72 D0V4 rV88 A+5V3 rV72 D0 C6 rV3 G+10V78 D0 D+6 rV3 rV78 D0 D+7V3 D0V5 rV78 D0 F6 rV180 rV180 rV3 rV180 E5V78 r rV3 rV87 A+6V3 rV71 D0V5 rV180 rV71 F+2V9 G2V2 A+5V11 C7V3 D0 A+5 E0V83 B14V70 A+5 G+0V2 C+0V7 A+0V3 D0V6 rV3 D0 rV85 F6 D+0V3 rV76 D0V5 rV78 D0V5 rV80 G6V3 rV76 D0 G6 D+0V92 G6 rV3]

$$ALL
  [D0 D0 rV3 rV73 D0V4 rV73 D0 F7V3 C0V3 D0 D6 rV3 D0 rV3 rV83 D6V1 D6V3 rV76 D0 B14V3 rV78 C0 D+0V3 D0 rV73 G6V84 C0 D+0 rV3 D0 rV3 rV83 A+6V1 A5V3 rV77 C+0V24 F+0 D0V4 rV71 D0 G+6V3 C0V3 D0 E6V15 B1 D0 E0V85 F6 rV85 F7V3 D0 A6 rV3 rV88 D+6V3 rV90 F6V3 D0 rV3 rV75 D0 A+6V3 D0 C6 F0V85 B14V73 D6 rV3 rV88 D6V3 rV76 D0V5 rV70 D0 C6 rV3 D0 rV3 rV90 A+5V1 A+5V3 rV70 D0 B14V3 C0V3 C0V3 rV180 E5V78 r rV7 A+0V1 D0 C6 D0 D0 rV3 rV75 C0 rV3 rV180 rV180 rV75 D0 G+5 rV69 D0 B14V71 B14V71 G+5 rV3 rV112 D0 G+5 F0V71 C9V3 D0V6 A+5 r rV73 D0 B14V71 B14V71 C6 rV3 rV180 D6 rV1 C6V1]

$$ALL
  [C6V3 rV75 D0 C8V5 G+5V11 G+5 C0V7 A+0V180 rV69 D0 G+5 C0 r rV1 F+0V1 B14V80 F6V1 rV6 F+0 C0 rV3 rV180 D6 rV3 rV78 C0 rV3 rV180 D+6 rV3 rV69 C0 rV3 rV180 G6 rV3 rV71 C0 rV3 G10V73 D6 rV75 C6V3 D0 B14V3 rV74 C0 rV3 rV74 D0 B14V3 rV76 D0 rV73 D+6V3 D0 rV75 A+5 rV71 D0 B14V3 rV71 D0 A+5 rV71 D0 B14V71 C6V3 D0V2 rV78 A+6V255 B6V250 rV1 rV76 rV180 D+6 rV1 D0 D+6 rV3 rV180 F6 rV1 D0 F6 rV3 rV180 G+5 rV1 D0 G+5 rV3 rV180 A+5 rV3 D0 D+6V3 D0 rV74 C0 rV3 rV180 C6 rV3 rV76 C0 rV3 rV180 A+5V3 D0 rV78 D+6V3 D0 B14V3 rV78 C0V128 rV78 D0 F6V3 C0V3 D0 F6 rV65 C3 C0 A+5V11 F6 rV3]

$$ALL
  [rV78 A+5V3 D0 rV3 rV75 D0V5 D6 rV3 D0 E0V73 D6 rV3 rV81 D0 G+5 E0V71 G6V3 D0 D6 rV3 rV83 D0 B14V78 C7V3 D0 F6 r E0V3 rV71 D0V5 rV83 A5V3 rV71 D0 A6 rV3 rV85 C6V3 D0 F0V3 D0V5 rV3 rV76 D0 A+7V3 D0V5 rV76 D0 D+6 rV76 D0 B14V75 B14V75 D+6 rV80 F6V1 rV9 F+0 D0V6 F+6 rV3 D0 F0V79 F+6 rV3 rV86 D0 A+5 E0V69 C+7V3 D0 A+5 rV3 rV78 D0 F7V3 D0V4 rV78 D0 G+5 F0V3 rV73 D0V5 rV71 D0 C+6 r F0V3 rV79 D0V6 rV86 F+6V3 rV79 D0 A6 rV3 rV85 C6V3 D0 F0V3 D0V5 rV3 rV76 D0 A+7V3 D0V5 rV76 D0 F6 rV180 rV180 rV3 rV180 E5V78 r rV3 rV87 A+6V3 rV71 D0V5 rV180 rV71 F+2V9 G2V2 A+5V11 C7V3 D0 A+5]

$$ALL
  [E0V83 B14V70 A+5 G+0V2 C+0V7 A+0V3 D0V6 rV3 D0 rV85 F6 D+0V3 rV76 D0V5 rV78 D0V5 rV80 G6V3 rV76 D0 C6 F0V71 C6 rV3 D0 D0 rV3 rV76 D0V5 rV76 D0 F7V3 D0 A+5 rV3 rV90 A+6V3 rV71 D0V6 rV180 rV71 D0 D+6 rV76 B14V76 B14V3 C0V3 D0 rV75 A+5V255 B6V18 rV1 rV73 D0V6 rV73 D0 D7V3 C0V3 D0 D6 rV3 D0 rV3 rV90 F6V3 rV71 D0 A+5 F0V83 A+5 rV3 D0 D0 rV3 rV76 C0 rV180 rV180 D6V1 D6V3 D0 rV71 C6 F0V88 C6 rV92 D+7V1 D+7V3 D0V6 rV3 rV180 F6 rV78 D0 A+5 F0V83 A+5 rV3 D0 D0 rV3 rV71 C0 rV180 rV180 rV1 G6V84 C0 B0 r rV73 D0 B14V71 B14V71 C6 rV3 rV180 D6 rV1 C6V1 C6V3 rV75 D0 B14V3 rV69 C0V3 C0V3 D0]

$$ALL
  [D+6 rV3 rV69 D0 C9V3 D0V6 rV107 D0 C6V11 B14V3 rV73 C0V3 C0V3 D0 C6 rV1 D0 D6 D0 D0 rV3 rV69 F+0V1 F+0 D0 A+7V5 rV1 A+5V3 rV75 D0 G8V5 A8 C0V7 E0V78 F+0V1 F6V11 rV3 rV65 B0 C0 A+5 rV65 A+7 C+0 D1V2 B3V136 B14 E6V2 C2V2 D2V2 D2V2 G10V77 B3V2 D2V2 B1 E6V2 C+0 C+0V48 C+0V26 C+0V86 C+7V3 D0V2 E5V78 r rV31 D1V48 B14 A+6V242 F+0V2 F+2V2 B3V77 A+6V242 D2V2 rV77 B3V25 rV27 C+20 C+0V129 C+0V2 E6V27 C+20V128 C+0V16 C+0V48 B14 A+6V242 F+0V2 F+2V2 B3V77 A+6V242 D2V2 rV77 B3V25 rV27 C+20 C+0V129 C+0V2 E6V27 C+20V15 B0V31 D1V48 C+0V31 D1V48 B14 A+6V242 F+0V2 F+2V2 B3V77 A+6V242 D2V2 rV77 B3V25 rV27 C+20 C+0V129 C+0V2 E6V27 C+20V128 C+0V16 C+0V48 B14 A+6V242 F+0V2 F+2V2 B3V77 A+6V242 D2V2 rV77 B3V25]

$$ALL
  [rV27 C+20 C+0V129 C+0V2 E6V27 C+0V3 D0V2 C+0V80 F6V1 rV1 F+2V2 B3V25 rV27 C+20 C+0V129 C+0V2 E6V27 C+20 C+0V48 E6V2 C2V2 D2V2 rV149 G+10V89 C+0V3 D2V2 G10V83 D+1V77 B3V25 rV27 C+20 C+0V129 C+0V2 E6V27 C+20 C+0V48 E6V2 C2V2 D2V2 rV149 G+10V89 C+0V3 D2V2 rV77 C+0V7 B0V77 C+0 C+0 C+0V16 E12V12 E7V15 D0V2 C+0V16 E6V2 D2V2 rV180 rV83 D+1V7 B0V31 D1V48 C+0V83 D+1V27 C+20V27 C+0 C+0 C+0V16 E12V12 E7V15 D0V2 C+0V16 E6V2 D2V2 rV180 rV83 D+1V7 B0V31 D1V48 C+0V83 D+1V80 F6V1 rV2 F+2V2 B3V25 rV27 C+20 C+0V129 C+0V2 E6V27 C+20 C+0V48 E6V2 C2V2 D2V2 rV149 G+10V89 C+0V3 D2V2 G10V83 D+1V77 B3V25 rV27 C+20 C+0V129 C+0V2 E6V27 C+20 C+0V48 E6V2 C2V2 D2V2 rV149 G+10V89 C+0V3 D2V2 rV77 C+0V7 B0V77 C+0 C+0 C+0V16 E12V12 E7V15 D0V2 C+0V16 E6V2 D2V2 rV180 rV83]

$$ALL
  [D+1V7 B0V31 D1V48 C+0V83 D+1V27 C+20V27 C+0 C+0 C+0V16 E12V12 E7V15 D0V2 C+0V16 E6V2 D2V2 rV180 rV83 D+1V7 B0V15 D1V48 D2V2 D2V2 D2V2 D0V2 C+0V81 F+0V2 C+0V83 D+1V80 F6V1 rV3 F+2V2 B3V25 rV27 C+20 C+0V129 C+0V2 E6V27 C+20 C+0V48 E6V2 C2V2 D2V2 rV149 G+10V89 C+0V3 D2V2 G10V83 D+1V77 B3V25 rV27 C+20 C+0V129 C+0V2 E6V27 C+20 C+0V48 E6V2 C2V2 D2V2 rV149 G+10V89 C+0V3 D2V2 rV77 C+0V7 B0V77 C+0 C+0 C+0V16 E12V12 E7V15 D0V2 C+0V16 E6V2 D2V2 rV180 rV83 D+1V7 B0V31 D1V48 C+0V83 D+1V27 C+20V27 C+0 C+0 C+0V16 E12V12 E7V15 D0V2 C+0V16 E6V2 D2V2 rV180 rV83 D+1V7 B0V15 D1V48 D2V2 D2V2 D2V2 D2V2 D2V2 D2V2 D2V2 D0V2 E5V78 r rV31 D1V48 C+0V27 C+0V27 C+20V31 G0V16 rV77 C+0V24 rV149 D0V2 C+0V242 A+6V8 G10V77 C+0 rV77 B3V83 D+1V83 C+20V24 F+2V2 B3V2 F+0V2]

$$ALL
  [D10V31 D1V16 C+0V242 F+2V2 B3V24 D2V2 D2V2 F+2V2 D+1V2 E6V15 B1 E12V12 C+0V83 C+20V31 G0V16 E6V15 rV2 E6V2 A+6V242 A+6V8 B1 C+0V2 C+0 C+0V3 F+2V2 D+1V83 C+20 G0V77 C+0 rV77 B3V83 D+1V83 C+20V24 F+2V2 B3V2 F+0V2 D10V31 D1V16 C+0V242 F+2V2 B3V24 D2V2 D2V2 F+2V2 D+1V2 E6V15 B1 E12V12 C+0V83 C+20V31 G0V16 E6V15 rV2 E6V2 A+6V242 A+6V8 B1 C+0V2 C+0 C+0V3 F+2V2 D+1V83 C+20V128 C+0V2 D2V2 D2V2 D2V2 D2V2 D2V2 D2V2 D2V2 D2V2 D0V2 C+0V48 C+0V26 C+0V83 D+1V80 F6V1 rV5 F+2V2 B3V24 D2V2 D2V2 F+2V2 D+1V2 E6V15 B1 E12V12 C+0V83 C+20V31 G0V16 E6V15 rV2 E6V2 A+6V242 A+6V8 B1 C+0V2 C+0 C+0V3 F+2V2 D+1V83 C+20V128 C+0V2 B1 C+0V48 C+0V16 C+0V242 C+0V31 D1V48 rV7 B0V123 A+6V15 F+2V2 D+1V31 D1V48 C+0V27 C+0V27 C+20V31 G0V16 rV77 C+0V24 rV149 D0V2 C+0V242 A+6V8 rV105 E6V15]

$$ALL
  [rV2 E6V2 A+6V242 A+6V8 B1 C+0V2 C+0 C+0V3 F+2V2 D+1V83 C+20V128 C+0V2 B1 C+0V48 C+0V16 C+0V242 C+0V31 D1V48 rV7 B0V123 A+6V15 F+2V2 D+1V31 D1V48 C+0V27 C+0V27 C+20V31 G0V16 rV77 C+0V24 rV149 D0V2 C+0V242 A+6V8 G10V77 C+0 C+0V27 C+20 C+0V48 E6V128 C+0V3 C+0V16 G+6V2 G6V84 C0 F0 C+0V2 C2V2 D2V2 rV149 G+10V89 C+0V3 D2V2 rV77 B3V27 C+0 C+0 C+0V16 E12V12 E7V15 D0V2 C+0V16 A+6V242 E6V2 C2V2 D2V2 rV149 G+10V89 C+0V3 D2V2 rV77 B3V27 C+0 C+0 C+0V16 E12V12 E7V15 D0V2 C+0V16 C+0V2 C+0V2 F11V12 C+0V2 C2V2 D2V2 rV149 G+10V89 C+0V3 D2V2 rV77 B3V27 C+0 C+0 C+0V16 E12V12 E7V15 D0V2 C+0V16 A+6V242 E6V2 C2V2 D2V2 rV149 G+10V89 C+0V3 D2V2 rV77 B3V27 C+0 C+0 C+0V16 E12V12 C+0V2 A+6V242 D2V2 D0V2 C+0V26 C+0V86 C+7V255 B6V242 rV2 rV77 B3V2 F+0V1 D0V1 A2V3 G+10V94 D0V1]

$$ALL
  [F7V129 C0V3 G+10V92 D0V1 B14V27 G+18 rV87 B1V3 C0V236 F7V24 D0V1 D0V87 G19V3 rV81 D0V1 D+7V225 G19V3 G+10V86 D2V1 D2V1 D0V1 A6V27 G19V27 G19V3 rV85 D2V1 rV83 F+0V4 F6V3 D0V4 F0V75 F6V3 D0V6 E0V82 C7V3 D0V4 F0V90 A7V3 D0V6 D+0V90 C7V255 B6V192 rV2 rV77 C+0V24 F+0V3 A+6V3 D0V3 D0V76 D0V3 D0V83 D+7V3 D0V3 D0V3 D0V3 D0V85 A6V3 rV73 A6V3 D0V3 D0V82 F6 D0V81 C7V3 D0V3 D0V81 D0V3 D0V88 G+7V3 D0V3 D0V3 D0V3 D0V90 A+6V3 D0V3 D0V90 E6V15 F+2V3 rV83 C+20V31 D1V48 D0V2 D6V31 D1V48 D0V2 F7V3 D0V3 D0V77 C+0V31 A0 G+6V31 D1V48 D0V2 C8V3 D0V3 D0V77 C+0V31 A0 D0V95 D8V3 F+2V2 B3V88 C+0 D0V77 C+0V31 A0 D0V99 A+7V3 F+2V2 B3V2 F7V10 F0V90 F7V31 D1V48 F0V2 F7V3 F+2V2 B3V90 C+0V27 C+20 C+0V2 E6V15 D2V2 rV77 C+0 C+0V16 A+6V242 F+2V2]

$$ALL
  [B3V77 F7V2 F7V3 D0V2 E5V78 r rV31 D1V48 C+0V27 C+0V27 C+20V31 G0V16 rV77 C+0V24 rV149 D0V2 C+0V242 A+6V8 G10V77 C+0 rV77 B3V83 D+1V83 C+20V24 F+2V2 B3V2 F+0V2 D10V31 D1V16 C+0V242 F+2V2 B3V24 D2V2 D2V2 F+2V2 D+1V2 E6V15 B1 E12V12 C+0V83 C+20V31 G0V16 E6V15 rV77 D2V2 rV77 B3V3 G10V77 D0V83 D+1V27 C+0 C+0V2 C+0V128 C+0V2 C+0 E6V15 B0V27 C+20V27 C+20V27 C+0V3 D0V2 C+0V81 G+6V31 D1V48 rV31 D1V48 rV63 C+0V2 D0V83 D+1V83 D+1V86 C+2V81 E6V15 rV2 E6V2 A+6V242 A+6V8 B1 C+0V2 C+0 C+0V3 F+2V2 D+1V83 C+20V128 C+0V2 D0V2 A+6V242 D2V2 rV77 D2V2 D2V2 rV81 C+2V80 F6 rV10 F+2V2 B3V31 r B14V80 F6 rV11 G10V149 rV120 G2V132 C+0V32 B9V15 G10V145 G2V3 rV180 G12 D0V32 F+0V3 G0V255 B6V80 rV3 rV122 G2 C+0V32 D2V2 rV149 E1V7 B0V138 D+0 C+0V1 G2V129 C+0V27 G2 C+0V17]

$$ALL
  [E12V12 C+0V4 D2V2 rV149 E1V146 C0V32 D0V2 C+12V32 D2V2 rV149 F+0V2 B0V27 G2 E1V24 rV149 D2V2 rV149 E1V7 B0V138 D+0 C+0V1 C+0V17 F11V4 D0V2 C+12V32 D2V2 rV149 F+0V2 B0V27 G2 E1V3 rV146 C0V27 G2 C+0V7 D1V12 C+12V32 D2V2 D2V2 B1V17 E12 C+0V1 E12V32 F+0V2 F11V15 rV146 C0V24 rV32 D0V2 C+12V32 D2V2 rV149 F+0V2 B0V80 F6V1 rV1 F+2V3 C0V31 B0V17 C+12V32 D2V2 rV149 F+0V2 B0V27 G2 E1V3 rV146 C0V27 G2 C+0V7 D1V12 C+12V32 D2V2 D2V2 B1V17 E12 C+0V1 E12V32 F+0V2 F11V15 rV146 C0V24 rV32 D0V2 C+12V32 D2V2 rV149 F+0V2 B0V27 G2V128 C+0V12 E12 C+0V1 E12V32 F+0V2 F11V15 rV146 C0V24 G+10V149 D2V2 rV149 E1V7 B0V138 D+0 C+0V1 E12V32 C+12V32 G2 C+0V27 G2 C+0V17 E12V12 C+0V4 D2V2 rV32 B1V17 E12 C+0V1 E12V32 F+0V2 F11V15 rV146 C0V27 G2V255 B6V87 rV3 rV122 G2]

$$ALL
  [C+0V32 D2V2 rV149 E1V7 B0V138 D+0 C+0V1 G2V129 C+0V27 G2 C+0V17 E12V12 C+0V4 D2V2 rV149 E1V146 C0V32 D0V2 C+12V32 D2V2 rV149 F+0V2 B0V27 G2 E1V24 rV149 D2V2 rV149 E1V7 B0V138 D+0 C+0V1 F11V4 D0V2 C+12V32 D2V2 rV149 F+0V2 B0V27 G2 E1V3 rV146 C0V27 G2 C+0V7 D1V12 C+12V32 D2V2 D2V2 B1V17 E12 C+0V1 E12V32 F+0V2 F11V15 rV146 C0V24 rV32 D0V2 C+12V32 D2V2 C0V27 G2V27 G2V130 C+0V1 C+0V1 E5V78 r rV31 D1V1 E12V12 rV146 C0V27 G2 C+0V7 D1V12 C+12V32 B1V17 E12 C+0V1 E12V32 F+0V2 F11V15 rV146 C0V27 G2V27 G2V24 rV149 D2V2 rV149 E1V7 B0V138 D+0 C+0V1 G2 E1V3 rV146 C0V27 G2 C+0V7 D1V12 C+12V32 D0V2 rV149 D2V2 rV149 E1V7 B0V138 D+0 C+0V1 G2V129 C+0V27 G2 C+0V17 E12V12 C+0V4 D2V2 rV149 E1V146 C0V32 D0V2 C+12V32 D2V2 rV149 F+0V2 B0V27 G2 E1V24]

$$ALL
  [rV149 D2V2 rV149 E1V180 C+0V1 C+0V1 C+12V32 C+12V32 G6V84 C0 D+0 D0V32 F+2V2 E1V180 D2V2 rV149 E1V3 D0V2 C+0V123 C+12V32 D2V2 C2V32 D2V2 C2V32 C+12V32 D2V2 rV146 D11V3 D0V2 C+0V1 F12V32 F13V25 C0V27 G2V25 C0V146 C0V27 G2 C+0V135 E12V3 D2V2 rV149 E1V180 G10V149 E1V180 D2V2 rV149 E1V3 D0V2 C+0V123 C+12V32 C12V27 G2V27 G2V128 C+0V17 G2V27 G2 C+0V17 C+12V3 D0V2 C+0V146 C0V27 G2V25 C0V27 G2V25 C0V146 C0V27 G2 C+0V135 E12V3 D2V2 rV150 E1V162 B14V1 E12V32 B14V1 C+0V1 E12V32 D0V2 C+0V149 D10V27 G2 C+0V17 G2V128 G0V180 D2V2 D0V2 C+12V32 D0V3 E5V78 r rV31 D1V1 E12V12 C2V32 C+12V32 D2V2 rV146 D11V3 D0V2 C+0V1 E12V32 B14V1 E12V32 B14V1 C+0V1 E12V32 D0V2 C+0V149 D10V27 G2 C+0V17 D0V180 rV149 E1V180 D2V2 rV149 E1V3 D0V2 C+0V123 C+12V32 D2V2 C2V32 D2V2 C2V32 C+12V32 D2V2 rV146 D11V3]

$$ALL
  [D0V2 C+0V1 G0V153 D+1V144 C0V27 G2V25 C0V146 C0V27 G2 C+0V135 E12V3 D2V2 rV149 E1V180 G10V149 E1V180 D2V2 rV149 E1V3 D0V2 C+0V123 C+12V32 D2V2 D0V3 G2 C+0V17 G2V27 G2 C+0V17 C+12V3 D0V2 C+0V146 C0V27 G2V25 C0V3 rV97 D0V2 C+8V129 C+0V80 F6V1 rV6 F+0V3 F+0V2 D2V2 rV149 E1V7 B0V138 D+0 C+0V1 G2V129 C+0V27 G2 C+0V17 E12V12 C+0V4 D2V2 rV149 E1V146 C0V32 D0V2 C+12V32 D2V2 rV149 F+0V2 B0V27 G2 E1V24 rV149 D2V2 rV149 E1V7 B0V138 D+0 C+0V1 C+0V17 F11V4 D0V2 C+12V32 D2V2 rV149 F+0V2 B0V27 G2 E1V3 rV146 C0V27 G2 C+0V7 D1V12 C+12V32 D2V2 D2V2 B1V17 E12 C+0V1 E12V32 F+0V2 F11V15 rV146 C0V24 rV32 D0V2 C+12V32 D2V2 C0V27 G2V255 B6V225 rV3 rV122 G+10V121 rV120 D0V2 C10V129 C+0V3 rV120 D0V2 C10V3 D0V2 C+0V120 D0V2 B9V129 C+0V3 G10V120 F+0V2 D0V2 C+0V3 rV122 F+0V2]

$$ALL
  [B9V12 C+0V123 D0V2 B9V129 C+0V3 G+10V120 D0V2 B9V129 C+0V3 G+10V120 D0V2 C+0V122 C10V3 G+10V121 D0V2 B9 C+0V7 A0V120 G10V120 C10 C+0V7 A0V122 F+0V2 B9V3 rV65 G16 D0 C+10V15 C10V12 B9V129 C+0V3 G+10V120 D0V2 B9V129 C+0V3 D0V2 C+0V121 B9V129 C+0V3 G+10V120 D0V2 B9V10 C+0V128 C+0V121 D0V2 C+10V10 C+0V7 B0V120 C+10 C+0V7 D1V7 B0V3 G+10V120 D0V2 B9V129 C+0V3 G+10V120 D0V2 C+0V122 C10V3 G+10V121 D0V2 B9 C+0V3 G+10V146 D0V3 E5V78 r rV31 D1V1 E12V12 C2V32 C+12V32 D2V2 rV146 D11V3 D0V2 C+0V1 E12V32 B14V1 E12V32 B14V1 C+0V1 E12V32 D0V2 C+0V149 D10V27 G2 C+0V17 D0V180 rV149 E1V180 D2V2 rV149 E1V3 D0V2 C+0V123 C+12V32 D2V2 C2V32 D0V2 C8 C+0V3 G+10V146 F+2V3 C0V31 B0V17 G2V31 D1V1 E12V12 C2V32 C8V3 B10V122 G2V133 D0V32 D0V2 C+0V31 D1V1 E12V12 C2V32 C+12V32 D2V2 rV146 D11V3 D0V2 C+0V1 E12V32 B14V1]
