
$FM1, $FM1, $FM1, $FM1, $FM1, $FM1, $FM1, $FM1, $FM1, $FM1, $FM1, $FM1, $FM1,

!ALL

$$ALL
  [D3 r E6V110 rV249 rV36 A+1 D3 rV45 rV43 F+8 A+3 rV48 rV54 D+15 B4 rV255 rV66 A9 G+5 rV65 rV72 F13 D6 rV109 rV78 C9 A6 rV97 rV88 C+0 F7 rV186 rV93 D2 D8 rV106 rV102 A2 G+8 rV46 rV108 D+10 D9 rV90 rV113 D+10 G9 rV209 rV120 E15 F10 D0V5 G0V10 C1 D0V5 G0V10 C1 D0V5 G0V10 C1 D0V5 G0V10 C1 C0V1]
  [D+2 r E8V115 rV32 B5 C+3 rV166 rV41 F+20 A3 rV204 rV52 E0 A+4 rV11 rV65 A0 G5 rV114 rV71 D+17 C6 rV155 rV76 G+12 F+6 rV141 rV83 B3 E7 rV41 rV92 B13 C8 rV169 rV101 F7 G8 rV57 rV107 D+2 C9 rV136 rV112 B5 F+9 rV255 rV117 C19 C10 rV141 G0V10 C1 D0V5 G0V10 C1 D0V5 G0V10 C1 D0V5 G0V10 C1 D0V5 C0V1]
  [rV45 r B8V99 G+15 B2 rV118 rV39 G9 G3 rV250 rV48 F6 F+4 rV226 rV61 G+5 F+5 rV160 rV69 G+16 B5 rV204 rV75 F+11 F6 rV251 rV82 G+8 D+7 rV44 rV91 A17 G+7 rV233 rV99 C+11 F8 rV76 rV105 C+6 B8 rV21 rV111 A9 E9 rV45 rV117 A+19 B9 rV227 rV126 C1 D0V5 G0V10 C1 D0V5 G0V10 C1 D0V5 G0V10 C1 D0V5 G0V10 C0V1]
  [rV29 r G+8V32 G+2 rV176 rV38 C+16 E3 rV164 rV47 D11 D+4 rV47 rV59 E17 E5 rV108 rV68 A11 A+5 rV250 rV73 D15 D+6 rV195 rV80 C14 B6 rV90 rV89 F+10 G7 rV210 rV97 F+16 E8 rV174 rV104 C+13 A+8 rV70 rV110 G13 D+9 rV114 rV116 D2 G+9 rV15 rV122 C14 D0V5 G0V10 C1 D0V5 G0V10 C1 D0V5 G0V10 C1 D0V5 G0V10 C1 C0V1]
  [D18 r E8 rV2 rV36 G15 D3 rV215 rV44 A1 B3 rV120 rV55 r C+5 rV176 rV67 G15 G+5 rV40 rV73 F19 D6 rV206 rV78 G+9 A6 rV216 rV88 B5 F+7 r rV93 F+0 D8 rV176 rV102 G8 G+8 rV116 rV108 C13 D9 rV160 rV113 C6 G+9 rV125 rV121 A18 F10 G0V10 C1 D0V5 G0V10 C1 D0V5 G0V10 C1 D0V5 G0V10 C1 D0V5 C0V1]
  [F2 r D+18 rV34 F+20 C+3 rV236 rV41 C+16 A+3 rV72 rV52 G+4 B4 rV247 rV65 B14 G5 rV184 rV72 A1 C6 rV225 rV77 F+18 G6 rV211 rV86 A9 E7 rV46 rV93 B19 C+8 rV29 rV101 D+20 G8 rV31 rV107 C+8 C+9 rV206 rV112 B11 G9 rV69 rV118 F+3 D10 rV211 C1 D0V5 G0V10 C1 D0V5 G0V10 C1 D0V5 G0V10 C1 D0V5 G0V10 C0V1]
  [rV225 r C0 F16 C3 rV26 rV39 E20 G3 r rV49 F1 G4 rV40 rV63 G+20 F+5 rV230 rV69 G5 C6 rV62 rV75 D4 F6 rV74 rV82 G18 D+7 rV114 rV92 D+2 G+7 rV91 rV100 B16 F+8 rV146 rV106 B11 B8 rV252 rV111 G15 E9 rV115 rV117 D+20 C10 rV85 rV126 D0V5 G0V10 C1 D0V5 G0V10 C1 D0V5 G0V10 C1 D0V5 G0V10 C1 C0V1]
  [r r C0 A+2 rV74 rV39 F2 F3 rV5 rV47 C16 E4 rV166 rV60 G+15 F5 rV20 rV68 A17 B5 r rV74 C21 E6 rV9 rV81 A+19 D7 rV160 rV89 C+6 G+7 rV108 rV98 E8 E8 rV93 rV104 C+12 A+8 rV140 rV111 F19 D+9 rV186 rV116 C8 A+9 rV85 rV124 A+19 G0V10 C1 D0V5 G0V10 C1 D0V5 G0V10 C1 D0V5 G0V10 C1 D0V5 D0]

$$ALL
  [rV3 C0V1 G2 C9V39 G2V32 D4V108 G2 G+3V72 B5V49 rV45 C+9V97 A+8V111 D+9V114 D+8V111 A8V115 B8V32 D9V110 D8V115 G+8V116 A3V45 r rV128 rV62 rV236 r G+0V16 r B3V10 r A0V80 r D+9V11 r A+0V144 r G14V12 r B0V208 rV255 D+9V121 F+9V116 C10V111 G9V109 G+8V84 E8V101 F+9V78 F+9V111 G+8V84 E8V101 D9V97 A0V117 D8V105 F+9V82 D9V97 A0V117 rV99 G6V97 rV180 C0V1 C0V128 B4V1 B14V60 G+5V180 C0]
  [D0V3 C0 D3V49 G2 G8V39 D+8V32 A2V78 B5 B5V50 A2V114 G+8V101 G8V112 C8V100 G8V114 F+9V97 C8V88 F+9V44 G+3V51 A0V32 D9V101 r r rV154 C5 A0 r G2V11 r A+0 r B7V12 r B0V128 r D+13V13 r C1V192 rV255 G18V14 C5V10 F9V101 E8V102 D9V107 E8V49 G9V117 F+9V61 B8V99 E8V49 G9V116 F6V105 D9V67 C10V101 E8V61 F6V105 D9V67 D+9V121 A6V115 E5V78 C0V1 C0V128 C0V128 G10V60 G+5V180 rV67]
  [D0 G2 D9V32 D3V51 G2 B8V109 rV105 rV45 B5V51 A2V114 F8V77 C8V32 D+9V100 C+9V99 D9V116 A2V114 E8V105 G8V112 F8V101 F6V32 F12V150 r C+5 r r D+1V12 r B0V48 r G6V13 r C1V112 r B11V14 r C+1V176 r D+17V15 r D9V107 A5V65 F+9V10 D+4V49 B8V99 rV76 B8V101 D4V52 B8V99 E8 C5V97 D8V61 A0V108 G+9V10 C5V97 D8V61 C5V10 C5V114 r C0 rV180 C0V1 G10V60 G+5V1 B14V67]
  [rV3 G2 B8V39 rV100 D3V78 G2V32 C4V114 D3 G+3 A2V114 F+9V101 G2V116 D3V32 E8V44 G2V111 A+8V34 G+8V32 F8V114 C+9V32 C8V32 r D5 r G+6V61 rV13 r C1V32 r D+5V14 r C+1V96 r G10V15 r D1V160 r B15 r C0 B8V54 r G6V97 G4V10 E8V61 F+6 D9V104 E4V10 E8V61 E5V80 E8V110 F+4V54 A+8V101 D+6V71 E8V110 B3V52 D9V107 A0V65 rV255 rV60 E5V78 C0V1 B14V1 G6V84 G10]
  [rV1 G2 rV111 F6V104 rV111 C9V34 G+8V32 C+4V76 C4 G+3V72 A2V98 F+9V116 C+8V46 G8V32 G8V97 G+3V78 G2V116 E8V111 G+8V32 G+9V32 C4V195 r G+12V62 D+5 r C+1V16 r B3V15 r D1V80 r D+9 r rV160 r B15V1 r C0V224 r G+9V116 G+8V84 A6V115 G+5V115 D8V115 G8V112 E8V101 G+5V115 D8V115 rV104 G8V115 C+9V69 B3V99 rV99 G8V115 D4V110 B8V48 A6 B6V6 G10V60 r C0 B14V1 r G10V62]
  [C0V1 G2 F6V109 G2V32 C4V108 G2 F9V104 rV45 C+4 B8V72 G+5V101 F+9V100 G9V115 G+8V32 F+9V101 G+8V115 F9V105 G3V49 D9V107 D+8V32 C6V83 rV63 B15 r D1 r G2 r rV80 r D+9V1 r C0V144 r G14V2 r C+0V208 rV255 C0V6 F+5V111 E8V49 C5V114 D9V115 C9V108 D+9V61 G9V116 D9V115 C9V108 B6V112 E8V101 C10V111 G9V109 D+9V121 E8V101 C8V121 G+9V116 r r G10V60 rV5 rV62 B14V1 F+0 B14V1]
  [C0 G2 G2V32 G8V39 G2 A2V51 G2V32 D3V108 D4 B8V72 F9V99 G+8V97 D9V46 G2V104 G+8V101 G+9V101 A3V45 D8V105 D+9V101 F+9V114 F4V56 r rV81 r r G2V1 r C0 r B7V2 r C+0V128 r D+13V3 r D0V192 rV255 G18V4 F0V6 C5V57 B8V99 A0V70 F8V108 A+8V56 D8V111 E8 F8V108 A+8V49 C4V99 G9V117 E8V102 D9V107 C5V10 G9V117 G+8V101 F+5V111 G5V82 rV80 G10V60 G10V180 G10V69 B14V1 C+1V1 B14V1]
  [C0V1 G2 C9V39 G2 A2V51 rV100 G8V34 D3V108 rV34 B8V45 E8V116 G3V101 D9V101 D8V98 F8V114 F+9V117 D+9V101 G2V111 G2V111 C9V102 G8V116 rV153 r r D+1V2 r C+0V48 r G6V3 r D0V112 r B11V4 r D+0V176 r D+17V5 r F0V6 G4V10 E8V61 A+5 A0V111 G+4V55 A+6V108 E5V79 A0V111 F+4V48 D8V83 rV76 F+9V10 E4V56 D9V107 rV76 C8V115 C5V52 r F6 B14V1 C0V128 G10V69 C0 B4V180 B14V1]

$$ALL
  [C0V1 C0V1 F5V1 G10V7 C0 C0V1 C0V1 G10 C0V5 C0V5 rV2 C0V131 C0V131 D+11V180 B3V136 rV12 F0 A+10V79 C0V137 G0V1 G0 G0V1 B0 A+6V1 F0 rV65 rV12 G+0V1 E0V9 E0 rV4 B6V24 E5V78 A+11V84 D+0 B6V43 C0 C0 C0 C0 E0V12 G+10V7 C0V1 B0V4 D+0V129 D+0V4 G6V84 G0V4 D0V4 rV6 C12V98 C+0V4 D+0V255 D+8V1 D+0V129 F6 rV80 rV7 B14V1 E5V78 C0 B7V1 G+10V96 G+10V7]
  [B14V1 C0V1 F5V1 F0V4 rV67 B14V1 C0V1 B14V1 C0V5 C0V5 rV65 A+10V57 A+10V50 B10V180 C0V145 E0V13 C0 F6V1 A+10V79 C0V137 G0V1 C0V137 G0V1 G6V84 D0 F0 rV65 B6V1 B14V84 A0V1 rV84 rV4 r E5V78 G6V84 rV5 G+10V13 G+10V13 G+10V13 C11V93 A+0V4 F0V4 A+7V96 D+0V129 G+10V10 B14V80 r D+0V131 D+0V255 rV96 C0V133 G6V84 B6V33 C0V5 G+10V7 rV3 F6 rV80 C0 r rV180 C0 D+8V1 F0V4]
  [B14V1 C0 F5V1 D+0V1 B14V67 B14V1 C0 C0V1 C0V5 C0V255 C+2 E5V78 G+4V80 E11V50 A+10V52 B14V50 G6V84 G6V84 F6V1 A+10V79 C0V137 A+10V79 C0V137 r G6V84 D0 F0 C0V131 F+7V1 B6V1 C0V1 rV88 rV5 r r rV5 B0V4 B0V4 B0V4 A+7V1 D+0V128 D+0V129 C11V13 rV65 E5V78 F6 D+0 A+10V4 B6V42 C0 G10V6 r rV6 G+10V180 G0V4 rV65 rV8 F6 rV102 rV1 F8V1 G+10V107 C0V129 D+0V129]
  [C0 rV65 D+5V1 G6V84 G10 C0 rV65 B14V1 C0V5 B6V6 C0 r F6 B3V80 C+4V1 B14V52 r r G6V84 F6V1 E11V78 F6V1 E11V78 C+1 r G6V84 D0 A+10V93 C0V131 C0V131 C0V131 C0V5 D+11V180 rV5 r G+10V90 D+0V129 D+0V129 D+0V129 D+0V128 G10V7 G+10V2 B0V4 F+4 r r A+7V129 D0V4 rV6 C11V100 E0V4 A+0 rV96 C+8V1 D+0V1 F0 rV65 rV13 D+8V1 C0 C0 F+8V1 rV103 G+10V2]
  [C0V128 C10 D+5V1 r G10V62 C0V128 F7 B14V1 C0V5 r B3V136 rV5 rV7 F6 G6V84 C+4V1 r D0 r G6V84 F+6V80 G6V84 F+6V80 E5V78 D+0 r G6V84 E5V78 rV65 A+10V93 A+10V86 B10V180 C12V91 D+11V180 rV65 D+7V1 G+10V8 G+10V8 G+10V8 G10V11 F0V4 C0V1 D+0V129 E0 rV128 C0V255 C11V91 D+0V255 rV96 F8V1 G6V84 A0V1 C0 C0V129 G6V84 F+0 F0 rV65 C0V129 rV107 rV100 C0V129 F8V1 C0V1]
  [C0V128 r D+5V1 A0 B14V1 C0V128 r C0 C0V5 rV80 C0V145 D+11V180 E0V13 rV9 r G6V84 rV65 F+0V1 E0 r F6 r F6 r E5V78 G+0 r r C+2 E5V78 G+7V1 B0V1 D+7V1 A+0V1 F0 C0V129 F+0V4 F+0V4 F+0V4 A0V4 G6V84 G6V84 G+10V8 D+7 G+10V8 B6V6 A+7V1 B6V42 C0 D+0V129 r C0V133 C11V100 rV96 r G6V84 F+0 F0 G10V180 F+8V1 B14V80 rV100 C0 G6V84]
  [C0V128 D+5V1 D+5V1 C+1V1 B14V1 C0V128 D+5V128 C0V128 C0V5 F6 A+10V52 C12V55 B14V48 E0V13 A+0 r F0 C0V137 G0V1 F+0 rV9 A+0 rV13 rV255 r E5V78 C+1 rV1 D+0 r G6V84 G6V84 C0V135 D+7V1 E0 rV90 D+0V129 D+0V129 D+0V129 D+0V128 r r E5V78 rV91 F+0V4 rV6 C0V137 rV6 A+10V9 G+10V7 A0 rV98 F8V1 D+0V131 r r G6V84 F+0 rV103 C0 F6 E5V78 rV65 r]
  [rV180 D+5V1 D+5V1 B4V180 B14V1 rV180 C0V1 C0V128 C0V5 r C+4V1 D+4V1 F+4V1 B14V50 C1V1 C1 C+0 A+10V79 C0V137 G0V1 E0V8 G0V1 E0V8 B6V6 rV255 r E5V78 C0V1 B6V136 rV5 r r rV65 D+7V180 G6V84 D+7V1 G+10V3 G+10V3 G+10V3 rV65 A0 A+0 r G+7V1 D+0V129 rV80 D11V98 rV96 G0V4 F0V4 A0V1 D+8V1 D+0V131 rV65 E5V78 E0 r G6V84 B14V1 rV180 rV2 r D4 E0]

$$ALL
  [E0V12 rV98 C0V128 C0V1 F+8V1 D+0V4 G+10V5 rV180 rV65 C0 D+0V128 rV1 D+4 G+0 B14V1 D+0V129 C0V128 A+9V1 rV103 G+0 B14V1 F9V180 E5V78 E0V6 C0V1 F+10V180 C0V1 F+10V180 C0V1 r C0V1 B14V127 G+9V180 C0V1 D+10V180 C0V1 F10V180 C0V1 F10V180 C0V1 C+1 r G6V84 A+0 B6V6 rV180 B14V60 G+5V180 G10V60 C+1V1 B14V1 D+5V180 r B14 B4V180 rV60 C0V1 B14V1 C1 D+5V1 E5V78 D+11V180 rV5 C+2]
  [F+8V1 B14V1 G10V112 C0 C0 F+0V6 D+0V5 F8V1 F8 rV180 G10V5 G6V84 G+0 A+9 C0 G+10V1 C0 C0 D+0V128 A+9 C0 rV180 r E0V7 B14V129 C0V1 B14V126 C0V1 B14V131 rV1 B14V131 rV65 A0V180 F+10V180 C0V1 D+10V180 C0V1 C+10V180 C0V1 F+10V180 E5V78 D+0 r G6V84 rV12 F+5V1 G10V60 G+5V180 B14V1 B4V180 B14V1 D+5V1 B14 B14 B4V1 C0V1 C0V1 B14V1 D+5V1 D+5V1 r C12V55 D+11V180 C1]
  [C0 C0V135 E5V78 rV107 rV180 D+0V4 G+10V180 C0 G0 A+8V1 D+0V4 r C0 rV180 rV114 B14V80 rV180 rV110 G10V10 rV180 rV114 A+8V129 rV255 E0V8 C0V1 B14V122 C0V1 B14V127 C0V1 B14V127 C0V1 C6 C0V5 C0V1 B14V129 C0V1 B14V129 C0V1 B14V126 C0V1 r E5V78 G+0 r rV80 F+5V180 G10V60 G+5V1 C0V1 B4V180 B14V1 C0V128 B14 B14 C0V128 B14V1 C0V1 C0 D+5V1 D+5V1 rV255 D+4V1 C12V55 E0V13]
  [rV180 rV65 r F+8V1 F8V1 C+0V80 D+9V1 rV100 A+8V1 C0 D+0 C0 C1V4 A+9V1 D+9V1 F6 A+9V1 B14V1 G+0V4 A+9V1 D+9V1 A+0V1 B6V6 C0V1 G+10V180 C0V1 B9V180 C0V1 D+10V180 C0V1 C+10V180 A0 C0V1 B14V131 rV65 B14V115 C0V1 B14V124 C0V1 B14V122 rV255 r E5V78 C+1 F6 D+5V180 B14V1 G6V84 B14V1 B4V1 C0V255 C0V1 B14 C0V255 C0V1 B14V1 C0 G10V180 D+5V1 D+5V1 B6V27 C0V255 D+4V1 B14V50]
  [F8V1 C+4 rV5 C0 C0 F6 C0V128 B14V1 F+8V1 rV98 rV4 E5V78 D+0V129 C0 G6V84 rV8 C0 C0 D+0V128 C0 G6V84 G6V84 rV10 B10V180 C0V1 F10V180 C0V1 F10V180 C0V1 A+10V180 C0V1 A+10V180 B14V80 C0V1 C+11 C0V1 B10V180 C0V1 B9V180 C0V1 B6V6 rV255 r E5V78 rV4 C+5V1 B14V1 r B14V1 C0V1 B6V91 C0V1 B14 B6V91 C0V1 C0 rV65 C0V128 D+5V1 G6V84 rV13 B6V27 C0V255 B14V52]
  [C0 G0 rV103 rV180 G+10V100 rV10 G10V108 C0V128 C0V1 B14V1 E0V4 r G+10V9 rV110 r E0V9 rV110 rV107 G10V5 rV110 r r rV80 C0V1 B14V136 C0V1 B14V120 C0V1 B14V120 C0V1 B14V124 C0V1 F6 A+10V180 A0 B9V180 C0V255 A+9V180 C0V1 F10V180 rV11 B6V6 rV255 r rV60 C0V1 B14V1 F0 C0 C0V1 rV12 C0 B14 rV12 C0 C0V128 F+7 C0V128 D+5V1 r rV5 rV13 B6V30 C+4V1]
  [rV100 E0V10 B14V1 F8V1 B14V107 D+0 B14V105 C0 F+8V1 E0V14 D+0 rV255 G0V4 B14V1 F+0 F+9V1 B14V1 D+9V1 D+0V119 B14V1 C1 C+1 F6 B14V126 C0V1 B14V120 C0V1 B14V126 C0V1 B14V126 C0V1 B14V131 rV10 C0V1 A+10V180 C0V1 B6V134 C0V1 B14V132 C0V1 rV80 rV11 B6V6 rV1 C0V1 C0V1 B14V1 B4V128 C0V128 C0V1 rV5 rV62 B14V66 rV5 rV62 C0V128 B0 rV180 D+5V1 C+1 D+11V180 rV5 rV13 G6V84]
  [B14V1 G+0V4 C0 C0V255 C0 rV65 B14V80 rV180 C0V1 C1V4 rV9 B6V6 D+0V129 C0 F+8V133 C0 C0V135 G6V84 C0 C0 G+0V180 E5V78 rV4 C0V1 G6V84 C0V1 D+10V180 C0V1 D+10V180 C0V1 C+10V180 C0V1 F11V132 B14V124 C0V1 B14V122 rV10 B14V119 C0V1 B14V119 F6 rV80 rV11 G6V84 B14V1 C0V1 C0 C0V1 C0V128 C0 G10V180 G10V60 B14V66 G10V180 G10V69 C0V128 E0V14 C+5V180 F5V1 E5V78 C12V55 D+11V180 rV5 r]

$$ALL
  [G6V84 C+4V1 C0V1 rV14 D+6V1 F+6V137 rV8 r C2 A+6V180 C+0 r G6V84 D+1 F0 rV65 r F+7V129 D+0V129 G+10V11 B0V4 C0V137 r C+5 rV65 C+1V1 r E5V78 A+0 r G6V84 F+1 G0 A+10V88 C0V145 B6V136 rV9 r B6V80 C+1 r G6V84 G+1 B6V6 C0 A+10V7 D0V4 A1 A+10V2 D+0V131 rV98 C+0 r G6V84 rV24 G+10V107 G+10V5 F+8V1 B14V1 G10V112 rV103 B14V1 G0V4 rV107]
  [r C0V255 D+0V129 rV80 C0V131 C11V76 rV79 G0V1 C+1 C0V5 E5V78 F+0 r G6V84 D+1 F0 C0V255 C11V88 G+10V9 A0V4 D+0V129 E11V13 A0 E1 D+3 C0V133 rV255 r E5V78 C0 r G6V84 G1 C+7V1 A+10V88 C0V145 rV88 A+0 F6 E5V78 D+0 r G6V84 rV22 rV100 F0V4 C0V255 E0V10 C0V80 rV65 D+8V1 E5V78 F+0 r rV80 F+8V1 D+0V4 C0 C0V135 E5V78 B14V1 C0 D+0V129 F+8V1]
  [A0 B6V26 G10V180 F6 A+10V76 A+6V1 C0V133 C0V137 E0V8 C0V255 r E5V78 B0 r G6V84 D+1 B6V6 F+7V1 G0V4 D+0V129 G+10V8 B0V4 D+7 E0V14 E1 C11V95 B6V6 rV255 r E5V78 F0 r B14V80 G6V84 C+7V1 A+10V88 C0V5 B6V136 rV13 r E5V78 G+0 r rV80 G+0V4 D+0V131 B6V40 C+8V1 F6 A2 C0V255 r E5V78 B0 F6 C0V129 D+0V129 rV180 rV65 r C0 rV102 G+10V4 C0]
  [B3V136 rV13 E5V78 rV3 E5V78 C0V131 E11V79 A+10V79 G+6V1 B6V6 rV255 r E5V78 C+0 r G6V84 rV17 C0 D+0V129 G+10V6 F+0V4 D+0V128 rV91 F7V1 E0V14 B14V80 rV18 B6V6 rV255 r E5V78 A+0 F6 r G6V84 C+7V1 B10V180 C0V145 rV88 rV255 r E5V78 C+1 F6 D+0V131 A+10V2 rV22 C0V145 rV11 A1 B6V6 rV255 r E5V78 rV2 rV98 G+10V180 F8V1 C+4 r rV102 D+8V1 F+9V129 rV180]
  [C0V145 rV5 r rV79 r rV65 F6V1 F6V1 C0V137 rV14 B6V6 rV255 r E5V78 F+0 r rV80 G+10V88 G+10V4 E0V4 D+0V129 G10V8 C1V4 C0 F7V1 F6 rV80 rV18 B6V6 rV255 r E5V78 rV1 D+0 r C0V255 B0V1 A+10V88 C0V5 B6V6 rV255 r E5V78 rV4 A+10V5 C0V80 rV5 rV65 rV96 E0V10 rV22 B6V6 rV255 r rV65 F8V1 E5V78 C0 B1 B0V1 C+8V1 C0V129 rV112 F8V1]
  [A+10V52 D+11V180 rV255 C0V133 r D+2 G6V84 G6V84 A+10V79 rV80 rV15 B6V6 rV255 r E5V78 B0 F6 F7V1 D0V4 D+0V129 G+10V3 F+0V80 D+0V129 rV91 C0V133 rV14 F6 rV80 rV18 B6V6 rV255 r rV65 B6V136 F0 B6V26 G6V84 C+7V1 B10V180 rV21 B6V6 rV255 r D11V95 D+0V4 F6 rV98 F+3 C0 C+8V1 rV80 rV23 B6V6 rV255 C5 G6V84 r rV100 E0V10 C0 C0 G10V180 B14V1 C0]
  [C+4V1 B10V180 B6V8 E11V83 G0V1 C+1 r r E5V78 F6 rV80 rV15 B6V6 rV255 r E5V78 rV2 C0V135 D+0V129 G+10V1 C+0V4 F6 G+10V9 B14V88 E11V91 rV65 rV4 F6 rV80 rV19 B6V6 rV255 F0 C0V145 B6V136 rV20 r C0V255 B0V180 rV80 rV21 B6V6 rV1 C0V133 D+0V131 rV7 D+8V1 A1 C11V96 C0V133 F6 rV80 rV23 B6V6 B1 r rV159 B14V1 G+0V4 rV103 D11V180 E5V78 C0V128 G+10V100]
  [G6V84 E11V50 rV14 F+6V1 C0V137 E0V8 G+0 A+0 r r F6 rV80 rV15 B6V6 rV255 r rV65 rV65 rV65 B14V80 C0V255 rV9 G0V4 F7V1 C1V4 F0 rV65 rV9 F6 rV80 rV19 B6V6 G1 A+10V88 C0V145 rV5 A0 B6V26 C0V1 F6 rV80 rV21 G6V84 C11V95 rV65 rV96 C0V137 E0V10 C+8V1 E11V98 r F6 rV80 rV23 E0V13 D+0 G+0V1 C0V128 D+0V129 B14V1 E5V78 r A10V180 B14V107]

$$ALL
  [rV100 G+10V100 E5V78 F+0 r rV80 E0V180 B14V126 C0V1 B14V127 C0V1 B14V127 r B14V124 C0V1 C0V1 F+10V180 C0V1 B9V180 C0V1 D+10V180 C0V1 D+10V180 rV26 B6V6 rV255 r E5V78 F+0 r rV80 D+0V129 rV115 D11V180 D7 A+9V1 C0 D+0V128 rV119 rV112 G+10V112 E5V78 F+0 r G6V84 F+2 F0 C0V255 C0V1 C0V128 C0 C0V1 C0V128 C0 G10V180 G10V60 B14V66 G10V180 G10V69 C0V128 E0V14 C+5V180 F5V1 r]
  [B14V80 C0V255 r E5V78 B0 F6 F0V180 C0V1 B14V124 C0V1 B14V124 C0V1 G0 C0V1 F+10V80 B14V119 C0V1 B14V120 C0V1 B14V124 C0V1 B14V122 C0V1 rV80 rV27 B6V6 rV255 r E5V78 B0 F6 G+10V10 B14V1 E5V78 E2 C0 rV112 G10V7 F+9V1 B14V80 C0V255 r E5V78 B0 r G6V84 F+2 B6V6 C0V1 C0V128 rV67 C0V1 C0V128 rV67 C0V128 G10V60 B14V66 C0V128 G10V69 rV180 B14 B4V180 F5V1 rV1]
  [F6 B6V6 rV255 r E5V78 rV2 F+0V180 G+10V180 C0V1 F10V180 C0V1 A+10V180 C0V1 A+10V180 F6 B14V117 B14V132 C0V1 B14V115 C0V1 B14V120 C0V1 B14V124 F6 rV80 rV27 B6V6 rV255 r E5V78 rV2 G+0V4 C0 r E0V9 rV110 B14V1 F0V4 C0 F6 B6V6 rV255 r E5V78 C+0 r G6V84 rV32 C0 rV65 B14V67 C0 rV65 B14V67 C0V128 G10V60 B14V66 C0V128 G10V69 F+5V1 G10 B4V180 F5V1 G6V84]
  [rV13 rV24 B6V6 rV255 r rV65 G0V180 C0V1 C+10V180 C0V1 F+10V180 C0V1 F+10V180 C0V1 rV9 E0V11 C0V1 G+10V80 C0V1 G+10V180 C0V1 F10V180 C0V1 r F6 rV80 rV27 B6V6 rV255 r rV65 D+0V129 rV114 rV131 F+9V1 B14V1 C0V128 D+0V5 rV180 rV13 rV29 B6V6 rV255 r E5V78 F+0 r rV80 rV60 F+7 G10 rV60 F+7 G10 rV180 E5V78 B14 rV180 E5V78 F+5V180 G10V66 B4V80 F5V1 r]
  [rV107 rV80 rV25 B6V6 rV255 F0 C0V1 B14V136 C0V1 B14V126 C0V1 B14V126 C0V1 B14V131 C0V1 C0V1 A+10V180 F6 F+9V180 C0V1 D+10V180 C0V1 C+10V180 rV65 rV5 F6 rV80 rV28 B6V6 rV255 F0 G+10V5 D+9V1 C1V4 C0 C0V135 rV65 G+10V180 F9V1 rV119 rV80 rV30 B6V6 rV255 r E5V78 B0 F6 G10V60 G2 G10V62 G10V60 G2 G10V62 F5V180 r B14 B4V180 r D+5V180 B14V1 F6 D+5V1 C0]
  [B14V103 F6 rV80 rV25 B6V6 C+2 B14V127 C0V1 B14V124 C0V1 B14V122 C0V1 B14V127 C0V1 B14V127 G6V84 C0V1 rV11 C0V1 B14V127 C0V1 B14V127 C0V1 F0 rV65 rV10 F6 rV80 rV28 B6V6 E2 D+0V4 C0V129 D+0V129 rV180 rV65 F0 F+9V1 C0 B14V115 F6 rV80 rV30 B6V6 rV255 r E5V78 rV2 G10V60 C0 B14V1 G10V60 C0 B14V1 D+5V180 r B14 B4V180 r C+5V1 B14V1 rV13 D+5V1 E5V78]
  [B14V1 r F6 rV80 rV25 G6V84 C0V1 D+11V180 C0V1 B9V180 C0V1 B9V180 C0V1 D+10V180 C0V1 r B14V124 C0V1 B14V131 E5V78 B14V117 C0V1 B14V124 D2 F0 rV65 r F6 rV80 rV28 G6V84 D+0V129 G10V180 G+10V9 F9V1 D+4 E2 C0V128 G+10V112 B14V1 r F6 rV80 rV30 B6V6 rV255 r rV65 G10V60 C+1V1 B14V1 G10V60 C+1V1 B14V1 D+5V180 r B14 B4V180 rV60 C0V1 B14V1 rV180 D+5V1 r]
  [B14V103 rV65 rV5 F6 rV80 r F10V180 rV65 B9V180 C0V1 F10V180 C0V1 F10V180 C0V1 A+10V180 A0 C0V1 B14V127 C0V1 r C0V1 B10V180 C0V1 G6V84 D2 F0 rV65 rV5 F6 rV80 r G+10V180 rV115 G0V4 C0 E2 G6V84 G10V112 B14V119 B14V115 rV65 rV5 F6 rV80 rV31 B6V6 rV255 F0 B14V1 B4V180 B14V1 B14V1 B4V180 B14V1 D+5V1 B14 B14 B4V1 C0V1 C0V1 B14V1 D+5V1 D+5V1 rV255]

$$ALL
  [D+4V1 C12V55 D+11V180 G+0 r B3V80 C0V255 D+6V80 C0V131 C11V76 G0V5 G0V1 rV5 r G6V84 A+2 G0 A+10V88 C0V145 B6V136 rV9 r B6V80 E5V78 D+0 r G6V84 rV38 rV100 F0V4 C0V255 E0V10 C0V80 rV65 D+8V1 E5V78 F+0 r G6V84 D+3 F0 C0V255 C11V88 G+10V9 A0V4 D+0V129 E11V13 A0 E3 D+3 C0V133 rV255 r E5V78 C0 r G6V84 G3 F0 rV65 rV14 E5V78 C+0V4 C0V1]
  [C0V255 D+4V1 C12V55 D+4V136 A+0 F6 B6V6 F6 A+10V76 A+6V1 C11V83 C0V137 E11V81 C0 r G6V84 B2 C+7V1 A+10V88 C0V145 G+10V88 A+0 F6 r E5V78 G+0 r rV80 G+0V4 D+0V131 B6V40 C+8V1 F6 A2 C0V255 r E5V78 B0 r G6V84 D+3 B6V6 F+7V1 G0V4 D+0V129 G+10V8 B0V4 D+7 E0V14 E3 C11V95 B6V6 rV255 r E5V78 F0 r G6V84 G3 F0 rV65 r C0V255 C0]
  [B6V27 C0V255 D+4V1 C0V132 B3V136 rV13 rV34 rV4 E5V78 C0V131 C0V255 A+10V79 E0V10 E5V78 F0 r B14V80 G6V84 C+7V1 A+10V88 C0V5 B6V136 rV13 rV255 r E5V78 C+1 F6 D+0V131 A+10V2 rV38 C0V145 rV11 C+3 B6V6 rV255 r E5V78 C+0 r G6V84 rV41 C0 D+0V129 G+10V6 F+0V4 D+0V128 rV91 F7V1 E0V14 B14V80 rV42 B6V6 rV255 r E5V78 A+0 r G6V84 G3 G0 rV255 B6V84 rV119]
  [rV33 B6V27 C0V135 E0V14 C0V145 G+10V52 rV80 G+10V79 r rV65 B6V28 F6V1 C0V1 r E5V78 A+0 F6 r G6V84 C+7V1 B10V180 C0V145 G+10V88 B6V6 rV255 r E5V78 rV4 A+10V5 C0V80 rV5 rV65 G+10V96 E0V10 rV38 B6V6 rV255 r E5V78 F+0 r rV80 G+10V88 G+10V4 E0V4 D+0V129 G10V8 C1V4 C0 F7V1 F6 rV80 rV42 B6V6 rV255 r E5V78 C0 r G6V84 G+3 B6V52 rV45 F+9V1]
  [rV5 rV33 rV65 D1V1 A+10V52 C0V1 F6 C0V133 rV129 C2 rV34 G6V84 A+6V180 rV255 r E5V78 rV1 D+0 r C0V255 B0V1 A+10V88 C0V5 rV37 B6V6 rV255 r E11V95 D+0V4 F6 rV98 F+3 C0 C+8V1 rV80 rV39 B6V6 rV255 r E5V78 B0 F6 F7V1 D0V4 D+0V129 G+10V3 E5V78 D+0V129 rV91 C0V133 rV14 F6 rV80 rV42 B6V6 rV255 r E5V78 F0 r B14V80 rV45 rV5 C0]
  [D+11V180 rV5 C+2 G6V84 C+4V1 C0V1 rV2 E11V83 G0V1 A2 rV5 r C0V1 B6V6 rV255 r rV65 B6V136 F0 B6V26 G6V84 C+7V1 B10V180 rV80 rV37 B6V6 rV1 C0V133 D+0V131 rV7 D+8V1 C+3 C11V96 C0V133 F6 rV80 rV39 B6V6 rV255 r E5V78 rV2 C0V135 D+0V129 G+10V1 C+0V4 r G+10V9 B14V88 E11V91 rV65 rV4 F6 rV80 rV43 B6V6 rV255 r E5V78 A+0 F6 rV1 rV115 rV180]
  [C12V55 D+11V180 G+2 r C0V255 D+0V129 rV65 F+6V1 C0V137 E0V8 E11V78 B0 B14V80 rV35 B6V6 rV255 F0 C0V145 B6V136 rV36 r C0V255 B0V180 F6 rV80 rV37 G6V84 C11V95 rV65 G+10V96 C0V137 E0V10 C+8V1 E11V98 r F6 rV80 rV39 B6V6 rV255 r rV65 rV65 rV65 B14V80 C0V255 r G0V4 F7V1 C1V4 F0 rV65 rV9 F6 rV80 rV43 B6V6 rV255 r E5V78 rV1 E0V13 B14V1 F9V1]
  [D+4V1 C12V55 E0V13 A0 B6V26 C0V255 D+2 C0V255 A+10V79 G+6V1 D+6V1 F+6V137 F6 rV80 rV35 B6V6 B2 A+10V88 C0V145 rV5 A0 B6V26 C0V1 rV2 F6 rV80 r C+8V1 F+3 C0 E11V9 C+8V1 C0V1 G+0V4 rV65 rV5 F6 rV80 rV40 B6V6 rV255 F0 G+4 A4 F6 B6V43 rV88 D+0V129 G+7V95 D+0V129 F3 F0 rV65 rV14 F6 rV80 rV43 B6V6 rV255 r rV65 B0V4 C0 G6V84]
