
$OPM,

!ALL

$$ALL
  [r D+5 D+5 D+5 D+5 D+5 D+5 D+5 r r r r r r r r r r r r r r r r r r r r r r r r r r r r r r r rV110 G9V101 G+3V115 A9V98 A3V117 D8V110 D9V108 D9V97 C+9V101 rV228 C+0V1 rV1 r rV1 D0 rV155 rV6 C15 G0 rV187 rV11 C15 C1 rV200 rV15 F13 E1 rV13 rV19 D+14 G+1 rV210 rV23 C+14 D2 rV244 rV29 D+14 G2 rV24 rV36 G11 D+3 r r rV2 C0V1 C0 r rV1 C0V1 r C0 D0V2 C+0V2 r C+0 D+0V5 D+0V4 C+0V4 C+0V7 A0V12 C1V1 D0V2 C+0V5 C+0 D+0V1 C0V3 D0V3 r r G2V32 r r G10 rV1 r D+0 r r F12V150 r r r r r r r rV208 rV255 D+17V3 r E0V208 rV255 D+17V8 r A0V208 rV255 D+17V13 r D1V208 rV255 G18V2 r D+0V224 rV255 G18V7 r G+0V224 rV255 G18V12 r C+1V224 rV255 r rV1 F0V6 F0V6 F0V6 F10 D0 rV65 A6 r G5V82 r rV68 D+0 r B6V5 r rV81 E0V5 G+10V180 B7V133 F+2V1 E0V31 G+6 rV93 E0V31 B7 rV81 C0 F+2V1 E2V31 C11V93 C0V129 F+2V5 G+10V180 G+7V133 F+2V1 E0V31 E6V129 F+2V1 E0V31 B14V5 rV180 C+6V10 E0V31 B14V5 C11V74 C0V129 F+2V5 rV180 C+7V129 F+2V5 rV180 C+6 rV89 C0 F+2V5 F+7V129 G+10V91 E0V31 B14V5 C11V76 C0 F+2V5 G+10V91 C0 F+2V1 E0V31 B14V80 F6 rV2 E2V31 C11V96 C0V129 F+2V5 G+10V180 B7V133 F+2V1 E0V31 G+6V129 F+2V1 E0V31 B14V5 rV180 E6V10 E0V31 B14V5 C11V77 C0V129 F+2V5 rV180 E7V129 F+2V5 rV180 E6 rV93 C0 F+2V5 E7V129 G+10V89 E0V31 B14V5 C11V74]

$$ALL
  [C0 F+2V5 G+10V89 C0 F+2V1 E0V31 B14V29 A0V133 F+2V1 E0V31 D+6V129 G+10V91 C0V255 B6V5 r rV82 E0V5 G+10V180 C8V133 F+2V1 E0V31 A6 rV94 E0V31 C8 rV82 C0 F+2V1 E2V31 C11V94 C0V129 F+2V5 G+10V180 A7V133 F+2V1 E0V31 F6V129 F+2V1 E0V31 B14V5 rV180 D6V10 E0V31 B14V5 C11V75 C0V129 F+2V5 rV180 D7V129 F+2V5 rV180 D6 rV90 C0 F+2V5 G7V129 G+10V92 E0V31 B14V5 C11V77 C0 F+2V5 G+10V92 C0 F+2V1 E0V31 B14V80 F6V1 r E2V31 C11V100 C0V129 F+2V5 G+10V180 D+8V133 F+2V1 E0V31 B14V129 F+2V1 E0V31 B14V5 rV180 B14V10 E0V31 B14V5 C11V180 C0V129 F+2V5 rV180 G+7V129 F+2V5 rV180 B14 rV96 C0 F+2V5 G+7V129 G+10V93 E0V31 B14V5 C11V180 C0 F+2V5 G+10V93 C0 F+2V1 E0V31 B14V29 A0V133 F+2V1 E0V31 B14V129 G+10V95 E0V31 B14V5 G+10V180 E0V31 B14V5 rV180 A+7 rV65 B18 C0 B14V10 E0V31 B14V5 C11V180 C0V129 F+2V5 rV180 B7V129 F+2V5 rV180 B14 rV100 C0 F+2V5 B7V129 G+10V96 E0V31 B14V5 C11V180 C0 F+2V5 G+10V96 C0 F+2V1 E0V31 B14V29 A0V133 F+2V1 E0V31 B14V129 G+10V93 E0V31 B14V5 G+10V180 E0V31 B14V5 rV180 G+7 rV180 E0V5 G+10V180 A+7V133 F+2V1 E0V31 B14V80 F6V1 rV1 E2V31 C11V101 C0V129 F+2V5 G+10V180 E8V133 F+2V1 E0V31 B14V129 F+2V1 E0V31 B14V5 rV180 B14V10 E0V31 B14V5 C11V180 C0V129 F+2V5 rV180 A7V129 F+2V5 rV180 B14 rV97 C0 F+2V5 A7V129 G+10V94 E0V31 B14V5 C11V180 C0 F+2V5 G+10V94 C0 F+2V1 E0V31 B14V29 A0V133 F+2V1 E0V31 B14V129 G+10V96 E0V31 B14V5 G+10V180 E0V31 B14V5 rV180 B7 rV65 E0 C+0 B14V10 E0V31 B14V5 C11V180 C0V129 F+2V5 rV180 D+8V129 F+2V5 rV180 B14 rV103 C0 F+2V5 D+8V129 G+10V100 E0V31 B14V5 C11V180 C0 F+2V5 G+10V100 C0 F+2V1 E0V31 B14V29 A0V133 F+2V1 E0V31 B14V129 G+10V96 E0V31]

$$ALL
  [B14V5 G+10V180 E0V31 B14V5 rV180 B7 rV180 E0V5 G+10V180 C+8V133 F+2V1 E0V31 B14 rV95 E0V31 C+8 rV180 C0 F+2V1 G6V84 C0 C0 F+2V5 F+8V129 G+10V103 E0V31 B14V5 C11V180 C0 F+2V5 G+10V103 C0 F+2V1 E0V31 B14V29 A0V133 F+2V1 E0V31 B14V129 G+10V100 E0V31 B14V5 G+10V180 E0V31 B14V5 rV180 D+8 rV180 E0V5 G+10V180 B7V133 F+2V1 E0V31 B14 rV93 E0V31 B7 rV180 C0 F+2V1 E2V31 C11V98 C0V129 F+2V5 G+10V180 C+8V133 F+2V1 E0V31 B14V129 F+2V1 E0V31 B14V5 rV180 E5V78 r rV29 A0V133 F+2V1 E0V31 B14V129 G+10V103 E0V31 B14V5 G+10V180 E0V31 B14V5 rV180 F+8 rV180 E0V5 G+10V180 D+8V133 F+2V1 E0V31 B14 rV96 E0V31 D+8 rV180 C0 F+2V1 E2V31 C11V96 C0V129 F+2V5 G+10V180 B7V133 F+2V1 E0V31 B14V129 F+2V1 E0V31 B14V5 rV180 B14V10 E0V31 B14V5 C11V180 C0V129 F+2V5 rV65 E0 C+0 B14V10 E0V31 B14V5 C11V180 C0V129 F+2V5 rV180 E8V129 F+2V5 rV180 B14 rV104 C0 F+2V5 E8V129 G+10V101 E0V31 B14V5 C11V180 C0 F+2V5 G+10V101 C0 F+2V1 E0V31 B14V29 A0V133 F+2V1 E0V31 B14V129 G+10V97 E0V31 B14V5 G+10V180 E0V31 B14V5 rV180 C8 rV180 E0V5 G+10V180 D8V133 F+2V1 E0V31 B14 rV96 E0V31 D8 rV180 C0 F+2V1 G6V84 r C0 rV80 F6 r E2V31 C11V76 E0V31 B14V5 G+10V81 E0V31 G+5V10 E0V31 G+6V129 G+10V69 E0V31 D+6V129 F+2V1 B5V129 F+2V1 E0V31 E6V129 F+2V29 A0V133 F+2V5 G+10V180 E5V129 F+2V5 G+10V62 C0V5 G+10V74 C0V129 F+2V5 G+10V69 E2V31 C11V69 E0V31 B14V5 G+10V65 E0V31 D+5V10 E0V31 D+6V129 G+10V71 E0V31 A+5V129 F+2V1 A+5V129 F+2V1 E0V31 F+5V129 F+2V80 F6V1 rV2 E2V31 C11V76 E2V26 G+10V180 G+10V76 E0V31 D+6V129 F+2V1 D+6V129 C+2V55 B14 G+5V129 F+2V5 G+10V65 C0V5 G+10V101 A+5V25 rV5 G+10V77 E0V31 E5V10 E0V31 E8 C2 E0V31 G+5V129 F+2V29]

$$ALL
  [A0V133 F+2V29 rV129 rV129 F+2V5 G+10V69 E2V31 C11V69 E2V26 G+10V180 G+10V62 E0V31 G+5V129 F+2V1 A+5V129 C+2V55 B14 A+5V129 F+2V5 G+10 C0V5 G+10V100 F+4V25 rV5 G+10V67 E0V31 E5V78 r rV29 A0V133 F+2V5 G+10V180 D+6V129 F+2V5 G+10V69 C0V5 G+10V81 C0V129 F+2V5 G+10V76 E2V31 C11V72 E0V31 B14V5 G+10V77 E0V31 E5V10 E0V31 E6V129 G+10V65 E0V31 B5V129 F+2V1 G+5V129 F+2V1 E0V31 C+6V129 F+2V29 A0V133 F+2V5 G+10V180 C+5V129 F+2V5 G+10 C0V5 rV65 G+19 D0 A5V10 E0V31 A6V129 G+10V77 E0V31 E6V129 F+2V1 E6V129 F+2V1 E0V31 C6V129 F+2V29 A0V133 F+2V5 G+10V180 C6V129 F+2V5 G+10V66 C0V5 G+10V78 C0V129 F+2V5 G+10V73 E2V31 C11V70 E0V31 B14V5 G+10V75 E0V31 D5V10 E0V31 D6V129 G+10V63 E0V31 A5V129 F+2V1 B5V129 F+2V1 E0V31 E6V129 F+2V29 A0V133 F+2V5 G+10V180 E5V129 F+2V5 rV65 C1 D0 A5V10 E0V31 A8 C2 E0V31 A6V129 F+2V29 A0V133 F+2V29 rV129 rV129 F+2V5 G+10V77 E2V31 C11V73 E2V26 G+10V180 G+10V73 E0V31 C6V129 F+2V1 C6V129 C+2V71 B14 F5V129 F+2V5 G+10V63 C0V5 G+10V99 F+4V25 rV5 G+10V75 E0V31 D5V10 E0V31 D8 C2 E0V31 F5V129 F+2V29 A0V133 F+2V29 rV129 rV129 F+2V5 G+10V72 E2V31 C11V72 E2V26 G+10V180 G+10V65 E0V31 B5V255 B6V89 rV4 rV180 B12V2 E8V4 G+1V101 D2V101 D2V21 F+2V27 D+0V4 G+1V180 C+0V5 D+0V4 E8V4 E8V4 G+1V96 D2V29 E2V31 rV180 G6V84 r r C+0V24 B1V1 G6V84 C0 C+0 C+2V12 B14V25 B0V1 C2 C2 C0V131 r rV88 rV180 D+7V12 B14V25 B0V1 C2 C2 C0V131 r rV88 rV180 E6V12 B14V25 B0V1 C2 C2 C0V131 r rV84 rV180 B6V12 B14V25 B0V1 C2 C2 C0 r rV84 rV180 E7V12 B14V25 B0V1 C2 C0 rV129 r A+10V86 rV180 G+6V12 B14V25 B0V1 C2 C0 rV129 r A+10V86 rV180 G+6V12 B14V25 B0V1 C2 C0]

$$ALL
  [rV129 r A+10V88 rV180 A+6V12 B14V25 B0V1 C2 C0 rV129 r rV83 rV180 A+6V12 B14V25 B0V1 G6V84 r D0 F+2 rV24 E2V31 C11V96 E0V31 D+8V137 F+2V5 C11V98 E0V31 C+8V133 F+2V1 E0V31 G+7V129 F+2V5 G+10V100 E0V31 B14V5 G+10V180 G+7V129 F+2V1 E0V31 C+8V129 G+10V96 C0V129 F+2V5 C11V103 E0V31 B14V5 G10V101 rV100 C+8V129 F+2V1 G6V84 r D+0 F+2 rV24 E2V31 C11V96 E0V31 D+8V137 F+2V5 C11V108 E0V31 F+8V133 F+2V1 E0V31 B7V129 F+2V5 G+10V100 E0V31 B14V5 G+10V180 G+7V129 F+2V1 E0V31 C+8V129 G+10V96 C0V129 F+2V5 E11V103 B1 E0V24 D+6V1 C0V129 G+10V86 D+7V1 B1 E5V78 r rV29 C+0V24 A+10V4 G+7V10 rV132 F+2V5 C11V100 E0V31 D+8V133 F+2V5 E11V98 E0V31 B14V29 rV129 F+2V5 G+10V98 E0V31 C+8V129 G+10V96 B16V1 E2V31 G+10V100 C0V129 F+2V204 C+8V129 G+10V96 B16V1 E2V31 G+10V100 E2V31 G+10V105 B16V1 E2V31 G10V101 rV100 C+8V129 F+2V1 G6V84 r F0 F+2 rV24 E2V31 B1V204 B7V133 F+2V5 E11V103 E0V31 B8V137 F+2V5 C11V105 C0V129 F+2V204 D+8V129 F+2V5 G+10V105 E0V31 B14V29 rV129 G+10V98 B16V5 G+10V180 F+8 E0V31 B14V29 rV129 G+10V108 B16V5 E11V103 B16V24 C2V2 E8V4 D2V29 D+0V4 B14 F+2V27 D+0V5 D+0V4 C2V96 D2V29 E0V31 D+0V4 G7V4 E2V25 D+0V5 B1 E5V78 r rV29 r A+10V98 C0 rV105 F+4V29 r rV105 B14V29 r rV88 rV180 C+8 rV100 B14V1 C0 r C+2V55 D+7V12 B14V25 B0V1 C2 C0 r A+10V98 rV1 E2V29 rV101 A+5V29 r rV105 B14V29 r rV84 rV180 C+8 C0 E2 B14V29 r rV105 rV29 r r rV84 rV180 B6V12 B14V25 B0V1 C2 C0V131 E2 B14V1 E2V26 rV103 rV1 C0 rV86 B0V1 C2 C0 E2V1 C0 rV103 B14V1 E2V26 rV81 rV180 C+7V12 B14V25 B0V1 C2 C0V131 E2 B14V1 E2V26 rV103 rV1 C0]

$$ALL
  [rV88 B0V1 C2 C0 E2V1 C0 rV108 B14V1 E2V26 rV83 rV180 A+6V12 B14V25 B0V1 C2 C0V255 B6V224 rV4 rV81 B0V1 E0V29 B14V1 E2V26 rV103 rV1 C0 rV93 B0V1 C2 C0 E2V1 C0 rV103 B14V25 rV29 r r A+10V93 rV180 D+7V12 B14V25 B0V1 E2V29 rV180 D+8 E2V26 rV103 rV1 C0 rV89 B0V1 C2 C0 E2 B14V29 r rV103 rV1 E2V29 rV101 A+5V25 B0V1 C2 C0 r rV89 rV180 C+6V12 B14V29 r rV100 C+8 E2V29 rV180 G+8V1 E2V26 rV180 G+6V12 B14V5 rV180 D+8V1 C0 rV105 C+8 C2 C0V131 r rV81 rV180 D+6V12 B14V29 r rV100 D+8 E2V29 rV180 G+8V1 E2V26 rV180 A+6V12 B14V29 r rV105 B14V29 r rV83 rV180 F+8 C0 rV180 D+7 C0 r rV65 A+13 D+0 B14V2 B0V131 C7V94 C+0V5 C11V99 E0V31 G8V137 F+2V5 E11V97 E0V31 E8V141 G+10V92 E0V31 C8V129 F+2V5 G+10V99 C0V129 F+2V1 E0V31 E8V129 G+10V101 E0V31 B14V5 G+10V180 D8V129 F+2V5 G+10V106 C0V129 F+2V1 F+2V1 E0V31 E8V137 rV65 D14 D+0 B14V2 B0V131 C7V94 C+0V5 C11V99 E0V31 G8V137 F+2V5 E11V106 E0V31 E8V141 G+10V94 E0V31 D8V129 F+2V5 G+10V99 C0V129 F+2V1 E0V31 E8V129 G+10V101 E0V31 B14V5 G+10V180 D8V129 F+2V5 D12V10 B14V82 C0V129 G+10V82 C7V1 C0V129 G10V2 G6V84 r A+0 F+2 rV24 E2V31 B1V204 C8V133 F+2V5 E11V104 E0V31 D8V137 F+2V5 C11V101 C0V129 F+2V204 A7V129 F+2V5 G+10V101 E0V31 B14V29 rV129 G+10V94 B16V5 G+10V180 E8 E0V31 B14V29 rV129 G+10V99 B16V5 C11V104 B16V29 rV129 G+10V101 B16V1 F+2V1 E0V31 E8V137 rV65 G19 D+0 B14V2 B0V131 C7V94 C+0 E0V31 D8V133 F+2V5 E11V106 E0V31 D9V137 F+2V5 G+11V180 G8 E0V31 G8V129 F+2V5 G+10V104 C0V129 F+2V204 B14V29 rV129 F+2V1 E2V31 G+10V106 C0V129 F+2V204 B14V29 rV129 F+2V29 rV147]

$$ALL
  [rV180 E2V31 D+0V4 C2V23 E0V15 F8V4 E2V25 F+2V27 D+0V5 D+0V4 C2V97 D2V29 E0V31 D+0V4 A+1V21 D1V2 G6V84 C0 C1 C+2V12 B14V5 rV180 E8V29 r E2 B14V1 C0 C+2V12 B14V25 B0V1 E0V29 B14V1 C0 rV180 A8 A8 C2 C0V131 r rV89 rV180 F6V12 B14V29 r rV101 rV29 r E2 B14V1 C0 C+2V12 B14V25 B0V1 E2V29 rV180 E8 C0 E2 B14V29 r C+2V71 C7V12 B14V25 B0V1 C2 C0 r rV75 rV180 D8 C0 rV99 F+4V29 r rV106 B14V29 r rV82 rV180 D8 rV101 B14V1 C0 rV99 F+4V25 B0V1 C2 C0 r rV77 rV180 D8 C0 rV101 F+4V29 r rV106 B14V29 r rV84 rV180 G8 rV106 B14V1 C0 rV101 F+4V25 B0V1 C2 C0 r rV89 rV180 E5V78 r rV29 r A+10V99 C0 rV106 F+4V29 r rV106 B14V29 r rV89 rV180 D8 rV101 B14V1 C0 r C+2V55 E7V12 B14V25 B0V1 C2 C0 r A+10V99 rV1 E2V29 rV102 A+5V29 r rV106 B14V29 r rV85 rV180 D8 C0 E2 B14V29 r rV106 rV29 r r rV85 rV180 C7V12 B14V25 B0V1 C2 C0V131 E2 B14V1 E2V26 rV104 rV1 C0 rV87 B0V1 C2 C0 E2V1 C0 rV104 B14V1 E2V26 rV82 rV180 D7V12 B14V25 B0V1 C2 C0V131 E2 B14V1 E2V26 rV104 rV1 C0 rV89 B0V1 C2 C0 E2V1 C0 rV109 B14V1 E2V26 rV84 rV180 B6V12 B14V25 B0V1 C2 C0V24 rV65 G+12 E0 A+12V236 C0 D1V1 B14V29 G19 rV155 C0V1 E2V15 rV180 A+12V236 C0 D1V2 B14V29 G19 rV155 C0V1 E2V15 rV180 A+12V236 C0 D1V1 B14V29 G19 rV155 C0V1 E2V15 rV180 A+12V236 C0V24 rV80 F6V1 r E2V31 rV180 A+10V155 C+0V1 E2V15 rV180 G+8V236 E2V15 rV180 A+12V236 C0]

$$ALL
  [F+2V255 B14 A+12V236 C0 D1V1 B14V29 G19V133 D1V2 B14V29 G19 rV89 rV25 rV29 G19 rV155 C0V1 E2V31 C11V155 C+0V1 E2V15 rV180 E7V2 C2V2 E2V15 rV180 A+12V236 C0 F+2V1 A+12V236 C0 D1V1 B14V29 C+0 C+0V131 D1V2 B14V29 G19 rV105 C0V29 G19 rV155 C0V1 E2V31 rV180 A+10V155 C+0V1 E2V15 rV180 G+8V236 E2V15 rV180 A+12V236 C0 F+2V255 B14 A+12V236 C0 D1V1 B14V29 G19V133 D1V2 B14V29 G19 rV89 rV25 rV29 C+0 C+0 D1V1 B14V29 G19V133 D1V2 B14V29 G19 rV65 C15 E0 E7V2 C2V2 E2V15 rV180 A+12V236 C0 F+2V1 A+12V236 C0 D1V1 B14V29 C+0 C+0V131 D1V2 B14V29 G19 rV105 C0V29 G19 rV155 C0V1 E2V31 rV180 A+10V155 C+0V1 E2V15 rV180 G+8V236 E2V15 rV180 A+12V236 C0 F+2V255 B14 A+12V236 C0 D1V1 B14V29 G19V133 D1V2 B14V29 G19 rV89 rV25 rV29 G19 rV155 C0V1 E2V31 C11V155 C+0V1 E2V15 rV180 E7V2 C2V2 E2V15 rV180 A+12V236 C0 F+2V1 A+12V236 C0 D1V1 B14V29 C+0 C+0V131 D1V2 B14V29 G19 rV105 C0V29 G19 rV155 C0V1 E2V31 rV180 A+10V89 rV25 rV29 G19 rV105 C0V29 G19V129 D1V2 B14V29 G19 rV65 D20 E0 A+12V236 C0 D1V1 B14V29 G19 rV155 C0V1 E2V31 G+10V155 C0V1 E2V15 rV180 A+12V236 C0 D1V1 B14V29 G19 rV155 C+0V1 E2V15 rV180 G+8V236 E2V15 rV180 A+12V236 C0 D1V1 B14V29 G19 rV155 C0V1 E2V15 rV180 A+12V236 C0 F+2V1 A+12V236 C0 D1V2 B14V29 G19 rV155 C0V1 E2V15 rV180 A+12V236 C0 D1V1 B14V29 G19V129 D1V1 B14V29 G19 rV89 rV25 rV29 C+0 C+0V131 D1V2 B14V29 G19 rV105 C0V29 G19 rV155 C0V1 E2V31 rV180 A+10V155 C+0V1 E2V15 rV180 G+8V236 E2V15 rV180 A+12V236 C0 F+2V255 B14 A+12V236 C0 D1V1 B14V29 G19V133 D1V2 B14V29 G19 rV89 rV25 rV29]
