
$UNKNOWN_0xA7, $FM1,

!ALL

@T50.00

$Inst1,
$Inst2,
$Inst3,
$Inst4,
$Inst5,
$Inst6,
$Inst7,

$$ALL
  [D+5 D+5 D+5 r r r rV9 r r r r r r r r r r r r D9V114 G+9V109 D9V83 G2V80 G2V121 D9V32 C+4 r r rV10 A+0 rV12 B0 rV13 C1 rV14 C+1 rV15 D1 rV15 D+1 rV16 E1 rV17 E1 rV18 F1 rV19 F+1 rV20 G1 rV20 G+1 rV21 A1 rV22 A1 rV23 A+1 rV23 A+1 rV24 B1 rV24 C2]
  [D+5 D+5 D+5 r r r G+3 r r r r r r r r r r r r C+9V111 rV117 F9V116 G2V114 F9V113 F+5V32 D+18 C0 C0V139 F3 rV35 C16 rV67 G+13 rV38 B8 rV232 G5 rV198 D+3 rV169 A+19 rV107 F+16 rV73 D14 rV44 F9 rV238 C+6 rV190 C0 rV147 A19 rV114 A16 rV14 D+8 rV142 G+14 rV7 F3 rV165 F+18 rV107]

$$ALL
  [rV25 C2 rV25 C+2 rV26 C+2 rV26 D2 rV27 D2 rV28 D+2 rV28 D+2 rV29 E2 rV29 E2 rV30 F2 rV30 F+2 rV31 F+2 rV31 F+2 rV32 G2 rV32 G2 rV32 G2 rV33 G+2 rV33 G+2 rV34 A2 rV34 A2 rV34 A+2 rV36 B2 rV37 C3 rV37 C+3 rV38 C+3 rV39 D3 rV40 D+3 rV41 E3 rV41 F3 rV42 F+3 rV43 F+3 rV43 F+3]
  [C13 rV216 A+0 rV111 F+11 rV188 A20 rV53 F+10 rV240 F7 rV174 D19 rV58 G8 rV159 C18 rV41 C7 rV171 A+19 rV72 D+10 rV166 A16 rV252 D+3 rV82 G9 rV163 A+15 rV15 A4 rV120 G15 rV38 F5 rV120 G13 rV227 D5 rV246 F+8 rV232 C+5 rV186 C+0 rV157 G18 rV40 G6 rV7 G+10 rV253 G5 rV183 B0 rV149 F18 rV53 G+6 rV123 F+12 rV193]

$$ALL
  [rV43 F+3 rV44 G3 rV44 G3 rV44 G3 rV44 G+3 rV45 G+3 rV46 A3 rV47 D+0V4 C+1V12 B1V6 F0 D0V3 A+0V19 F+1V19 C0V2 A0V12 G1V20 G1V24 C+0V2 D+0V4 A+0V13 C1 F0V8 D1V17 C2V19 r G+0V11 F+1V21 G+1V23 C0V3 F+0V7 A0V10 A0V12 D0V3 F0V8 A0V10 rV1 D+0V6 A0V11 A+0V11 rV2 F0V6 A0V10 A0V10 D0V4 F+0V7 A0V11 B0V1 D+0V8 D1V17 E1V19 C0V3 G+0V11 F1V20 G1V22 D+0V6]
  [E18 rV7 A+2 rV77 G+8 rV147 F+14 rV217 E20 rV31 A7 rV61 D13 rV126 r D0V11 F+1V19 F+1V19 C+0V4 B0V14 G1V24 B1V6 D0V3 A+0V11 E0V19 r C+0V3 G+0V10 A0V10 rV3 A+0V12 G1V22 A1V24 D+0V6 C+1V16 B1V26 D2 D0V3 G0V10 A0V10 rV1 E0V7 A0V10 A0V10 D0V4 F+0V7 A+0V11 A+0 D+0V3 F+0V9 A+0V10 r D0V6 A0V10 A0V10 D0V5 A+0V13 G1V22 A1V25 F0V4 A0V15 A+1V17 rV1 G+0V11]

$$ALL
  [C+1V16 B1V26 A2V36 D0V2 F0V8 A0V9 C0V1 C0V1 D0V3 r r r r r r C0 C0V1 F12 A+6V45 E6V115 G9V109 F+9 D5 C+14V63 r r r r r r r r r r r r r r r rV255 r rV255 r rV255 r rV255 r rV255 r rV255 rV1 C+0V2 F0V6 rV115 A5V65 D9V107 G+8V101 B8V101 E8V61 D+3 D+9V61 A+6V108 F+9V78 G+9V10]
  [F+1V21 E2V31 rV2 E0V5 G+0V9 G+0V9 C0V1 D0V3 D0V3 r r r r r rV1 C0 C0V1 r A+6V103 F9V83 G2V114 rV171 r r r rV3 E0 rV8 A0 rV13 D1 D+1V2 D+0V16 D+1V7 G+0V16 D+1V12 C+1V16 D+17V1 D0V208 D+17V6 G0V208 D+17V11 C1V208 D+17 C+0V224 G18V5 F+0V224 G18V10 B0V224 G18V15 C0 F0V6 F0 rV10 r B8V48 B8V61 C8V99 rV76 G8V112 D8V111 A0V111 F+9V61 G5V82]

$$ALL
  [rV1 C0V3 D+0 C6V4 C6V83 C1V78 B8V71 E6 D1 D+5 rV1 D+6V7 C0V78 r F9V109 D+0V16 rV81 C0V31 F+2 C0V5 F6V50 rV65 E6 F+2 D+5 rV1 E6V15 r G5 G+5V73 G19V13 C+8V97 E6 D1 D+5 rV1 D+6V7 C0V78 r C8V115 r rV3 F1V10 G+0V249 G2V80 A+6V72 F6V10 G+8V101 r r F1V10 G+0V249 G2V80 A+6V70 F6V8 G9V70 rV42 rV4 A0V244 G+20 G6V192 C+3 D0 G+10V181]
  [rV7 F0V68 r r r rV116 G9V114 G+0 rV1 F1V10 G+0V249 G2V80 A+6V68 F6V6 A5V37 F3V8 D+0V177 D+20 rV68 B15V69 rV236 G6V71 r rV48 F1V10 G+0V249 rV4 C+1V12 E0V5 C+4 E5 D9V101 r r F1V10 G+0V249 G2V80 A+6V67 F6V5 E6 D1 D+5 rV1 D+6V7 C0V78 r A+6V32 E6 F+18 D+5 rV1 D+6V7 C0V78 r F9V109 rV4 D+5 rV1 C0V31 F+0 F6V65 r C15V3 G+8V135]

$$ALL
  [rV105 rV80 rV1 C0V133 D0 G+10V181 rV65 r C15V3 F+8V131 E3 D0 A+10V181 rV110 rV1 r B8V129 C0V131 D0 A+10V181 r D0 A+10V181 rV112 C15V80 rV6 C0V133 D0 E11V110 B6V27 rV3 B8V131 C0V255 r D11V181 G10V110 rV10 r rV10 D+9V255 r A0V149 D0 G+10V181 rV65 r E12V110 E5V78 rV1 C15V3 D+9V135 D0 F6 C+11V110 rV1 C15V3 C0V255 r G+10V181 A+10V110 rV3 E5V78 rV134 D0]
  [C0V133 F6 C+11V103 rV1 C15V3 F+8V129 D2 D0 A+10V181 rV65 r C15V3 C+9V135 C0 G6V84 D+0 C11V108 rV1 C15V3 E5V78 rV1 C15V3 D+9V135 D0 F6 C+11V110 rV1 C15V3 C0V255 r G+10V181 rV110 B6V34 rV3 D+9V130 C0V131 G6V84 B0 D0 B6V40 rV112 rV1 C15V3 C+9V128 G1 B8V14 D0 r D0 A+10V181 rV112 C15V80 rV20 C0V133 D0 E11V110 B6V38 rV3 C+9V131 C0 G+10V181 r rV1 C15V3]

$$ALL
  [D11V181 C11V108 r A+8V129 C0V133 D0 G+10V181 r rV1 C15V3 E5V78 rV134 D0 D11V181 rV108 B6V41 rV3 G+8V131 C0 D0 F6 C0V133 D0 D11V181 rV1 r F8V129 C0V131 D0 rV65 C0 C15V3 A+8V129 A2 D0 A10V181 A+10V108 B6V20 rV108 rV3 D+3 B8V14 C0 D0 G10V181 r C+1 rV80 rV19 rV1 C15V3 G+8V137 G6V84 G1 C11V103 rV1 F+8V129 C+3 D0 A+10V181 rV104 C15V80 r C0V133]
  [B8V129 G6V84 C0 C11V107 rV1 C15V3 E5V78 rV134 D0 A+10V181 r rV1 C15V3 B8V135 C0V255 rV1 G+10V181 A+10V105 rV1 C15V80 rV5 rV1 C15V3 F+8V137 G6V84 F0 C11V102 rV1 F8V129 D2 D0 A+10V181 rV65 C0 C15V3 D+8V131 A0V255 rV1 A0V149 rV65 C0 E12V108 rV1 C15V3 E5V78 rV31 A+8V149 F6 C0V133 D0 D11V181 rV1 r F+8V129 C0V131 D0 rV65 C0 C15V3 G8V135 D0 F6 C+11V112 rV1]

$$ALL
  [D0 G+10V181 B6V41 rV3 C+9V129 C0 D0 F6 C+11V110 rV1 C15V80 rV3 C0V133 D0 D11V181 rV65 C+0 C15V3 E8V135 C0 G6V84 E0 C0V133 D0 E11V108 B6V38 rV3 G+8V131 C0 G+10V181 r rV1 C15V3 E5V78 rV134 D0 A+10V181 rV65 C+0 E12V103 E5V78 rV31 F+8V139 C0 D0 F6 F+2 E12V103 r C11V108 rV1 C15V3 C0V255 rV2 G+10V181 A+10V107 rV3 E5V78 rV134 D0 D11V181 rV1 r D+0V3]
  [C15V3 D+9V255 rV2 G+10V181 C11V110 rV1 C15V80 rV2 C0V133 D0 F6 C+11V103 rV1 C15V3 F+8V131 E3 D0 A+10V181 rV103 rV1 r C11V108 rV1 C15V3 C0V255 rV2 G+10V181 A+10V105 rV3 E5V78 rV134 D0 G+10V181 r rV1 C15V3 D+9V14 G1 F+8V14 D0 r C1 rV103 rV1 C15V80 rV18 rV3 G6V84 F+1 C0V133 D0 E11V108 B6V38 rV3 A+8V131 C0 G+10V181 r rV1 C15V3 A+8V137 G6V84 r G+10V89]

$$ALL
  [C0V141 G+10V77 E5V78 rV3 D0V4 F6 D0V4 D+0V1 B6V129 rV65 D0 D+0V3 E5V78 rV1 E6V129 G+10V76 B6V29 rV93 F+6V133 C11V84 r D+0V3 G+7V133 A+10V181 D+0V3 D0V4 rV65 D0 D+0V1 F+6V139 D0V4 r D+0V3 D0V4 rV65 D0 D+0V1 D+7V133 G+10V91 C15V91 r D+0V3 C0V135 G+10V77 E5V78 rV3 D0V4 C11V81 G+7V255 rV3 D0V4 D11V80 G6V133 F6 D0V4 D+0V1 F+6V129 rV65 D0 D+0V3 F6V133 C11V90 r F+10V12]
  [D+0V3 D0V4 r E11V89 C15V80 rV2 B7V129 D0V4 D+0V3 G1 B6V137 G+10V181 r D0V4 D+0V3 C0V255 rV3 D0V4 D+0V3 G6V84 F0 A+10V181 D+0V3 G+6V129 G+10V91 C15V3 A+2 G+7V133 D0V4 rV84 E5V78 rV134 G+10V77 D+6V133 A3 C+7V133 D0V4 D+0V3 D0V4 G6V84 A0 G+10V89 D+0V3 D0V4 r E11V93 C15V3 D0V4 B6V36 rV80 G7V135 D0V4 D+0V80 rV13 F+7V129 D0V4 D+0V3 B2 F6V137 D11V181 D+0V3 G6V84 r C0V255]

$$ALL
  [B6V12 rV181 B6V17 rV3 C0V255 rV4 C1 E11V103 C15V3 C0V255 rV4 G10V105 D+0V3 E5V78 rV255 rV4 F6 rV65 D+0 r F+10V15 C1 F+2V6 F6 A13V127 F0V1 F0V1 B6V16 rV1 C0V80 rV15 C1 F+2V6 F6 F+2V6 E12V124 r G+11V127 G10V181 B9V132 E5V78 rV1 C10V3 F0V1 D0V6 G6V84 G1 G+11V120 E5V78 rV3 D0V3 B6V36 rV124 F0V1 rV119 F0V80 rV23 C15V115 B10V181 A9V132 C15V124 B10V181 r F0V1]
  [rV4 F+10V255 rV4 C13V127 B6V42 rV31 F+8 D0V4 G10V103 B6V28 rV3 C0V135 rV181 r B6V6 rV80 rV9 F0 G6V84 A+0 rV65 D+0 C0V80 rV13 G10V181 D+10V129 B9V255 rV4 F+2V6 F6 rV65 D+0 C0V80 rV17 rV3 G6V84 F1 C12V115 F0V1 D0V6 r F+2V3 G10V181 B9V128 C15V124 r D0V3 D0V3 r G+11V127 D+10V255 rV4 G11V181 B9V135 C0 F6 D0V6 C0V3 F0V1 D0V6 C0V3 E5V78 rV134 C+10V133]

$$ALL
  [F0V1 B6V17 rV1 C+10V255 rV4 D0V6 B6V14 rV115 G6V84 G3 r D0V229 F6 C0V142 E5V78 rV143 F+10V229 B6V42 rV31 B8 D0V4 G10V108 B6V28 rV3 C0V135 rV181 r B6V6 rV80 rV9 F0 G6V84 A+0 rV65 E0 r F+10V15 G+2 F+0V6 G10V181 B10V181 F6 A10V181 rV65 E0 r F+10V14 G1 B9V12 D0V6 r F+2V3 C+1V1 D0V6 G6V84 G1 C19V144 C+9V132 C15V117 rV65 E0 G+11V119 C+10V255 rV5]
  [F+10V255 rV4 D0V6 B6V17 rV1 B9V255 rV4 G+11V127 r E5V78 rV143 C+15V80 rV1 D0V131 r D0V131 C0V255 rV5 C1 E11V108 C15V3 C0V255 rV5 G10V108 D+0V3 E5V78 rV255 rV5 F6 rV65 E0 r C+10V15 F0 G6V84 C1 rV65 E0 C0V3 F0V3 F0V80 rV15 C+10V14 F0 G6V84 E1 rV65 E0 E12V122 E5V78 rV1 A+10V7 C+9V132 C15V110 r A11V127 F0V1 D0V6 C0V3 B1 D2V3 D0V3 B6V22 rV3]

$$ALL
  [G+11V127 D+10V255 rV5 G11V181 E9V135 C0 F6 D0V6 C0V3 F0V1 D0V6 C0V3 E5V78 rV134 G+9V133 B9V255 rV5 D0V6 B6V17 rV1 C+10V255 rV5 A11V127 rV65 F0 C0V3 G6V84 C0 rV65 F0 C0V3 G6V84 D0 G+11V96 B7V255 rV6 D0V1 r C12V96 E5V78 rV3 C1 B7V149 F6 D0V1 r E11V96 B7V255 rV6 D0V1 C0V80 rV11 B7V137 rV65 F0 D+0V3 G6V84 r C0V80 rV1 D0V1 r C0V3 C+1]
  [D0V3 B6V36 rV117 F0V1 rV112 F0V80 rV24 C15V108 B10V181 D+9V132 C15V120 B10V181 r F0V1 F0V1 B6V17 rV1 B9V255 rV5 D0V6 B6V20 rV120 A+10V24 G+1 B7V153 G+11V96 r C0V3 G+1 B7V153 G+11V96 r C0V3 D0V1 B6V13 rV96 E5V78 rV3 D0V1 r rV65 F0 C0V80 rV8 E5V78 rV3 D0V1 B6V21 rV96 B7V141 F6 D0V1 C0V3 G+1 B7V153 G+11V96 r B7V157 F6 A11V96 E5V78 rV142 rV65 F+0]

$$ALL
  [D0V1 B6V22 rV3 D0V1 B6V26 rV3 D0V1 C0V80 rV6 D0V1 C0V80 rV7 D0V1 C0V3 G6V84 G0 C0V3 B7 F6 F14V96 B7V129 F6 A11V96 E5V78 rV142 E11V96 r B7V157 rV65 G0 r E5V78 rV255 rV8 rV65 G0 E5V78 rV182 F6 C+15V77 r E5V78 rV182 F6 C+14V77 E6V255 rV8 F6 rV65 G0 r E5V78 rV7 E5V78 rV174 B6V6 rV80 rV3 F0 G6V84 E0 r C0V3 C0V80]
  [B7V255 rV7 E12V96 B7V255 rV7 C11V96 B7V129 F6 C+11V96 B7V145 F6 C+11V96 B7V133 G+10V96 r B7V137 A+10V181 C0V80 rV9 D0V1 C0V80 rV10 D0V1 r C0V3 G6V84 B0 D+0V3 F0 G6V84 C0 r B6V10 rV3 A0 D0V1 r C0V80 rV6 G6V84 F+0 r C0V80 rV9 D0V1 B6V6 rV80 rV11 F0 G6V84 C1 r rV181 r C0V255 rV9 F6 rV65 G+0 r E5V78 rV134 B10V181 F6]

$$ALL
  [rV7 E6V255 rV9 C11V181 D0V1 r E11V77 E6V255 rV9 F6 rV65 G+0 B7V255 rV10 G+11V96 E5V78 rV134 rV65 A0 B7V137 E11V96 B7V129 F6 C+11V96 B7V129 G+10V96 B7V255 rV10 G+10V96 B7V129 G+11V96 r B7V255 rV10 F6 rV65 A0 r E5V78 rV134 C11V96 r B7V141 rV65 A0 E5V78 rV7 D+0V129 G0V1 r B6V6 rV80 rV3 G+10V93 E5V78 rV3 D0V2 A+10V181 C+0V3 C0V129 D0V2 r C11V100 B7V129]
  [D0V1 B6V23 rV3 E6V132 E5V78 rV3 D0V1 B6V6 rV80 rV11 C+1 D0V1 B6V18 rV3 D0V1 r C0V3 C+3 D0V1 C0V3 D0V1 C0V80 rV3 D0V1 C0V3 D0V1 B6V34 rV3 D0V1 C0V3 G6V84 E0 B6V6 rV80 rV7 F0 G6V84 G+0 r C0V3 G6V84 A+0 C0V3 A0 D0V1 r C+1V4 G+10V9 E5V78 rV255 rV11 F6 A14V91 D0V2 r C11V103 C15V3 B7V129 G+10V96 C+0V1 E5V78 rV3 D0V2 C+0V1]

$$ALL
  [D0V2 G+10V91 G10V181 r C11V103 C15V3 B7V129 G+10V96 C+0V1 E5V78 rV3 D0V2 B10V1 C11V98 G+7V129 F6 D0V2 C+0V1 C15V3 D0V2 G+10V96 C+0V80 rV9 D+8V133 G+10V98 C+0V3 G6V84 A0 G+11V103 E11V101 rV65 A+0 C+0V3 D2V2 D0V2 r C11V4 C11V4 C11V98 E5V78 rV3 D0V2 C+0 C+0V80 rV14 D+8V137 G+10V93 C11V96 r C+0V3 G6V84 D+1 rV91 G+7V133 C11V103 E5V78 rV27 D+11V27 D+11V1 C11V103 E5V78 rV27 D+11V27 D+11V80]
  [D+0V129 rV3 E5V78 rV3 D0V2 A+10V181 C+0V3 C0V129 D0V2 r C11V105 B8V129 D2V2 D0V2 C+0V80 rV8 F+8V129 D0V2 G+10V96 B7V129 C0 F6 D0V2 C+0V3 C0V144 G+10V98 r C+0V24 rV24 rV3 A+2 C+8V137 E11V4 G+10V96 E5V78 rV3 D2V2 D2V2 D0V2 r E11V96 D+0V141 B7V129 F6 D0V2 C+0V24 rV3 G6V84 D1 E11V4 r rV3 D0V2 C+0V3 D0V2 r G+18V141 D+0V137 D2V2 D0V2 r G+18V141 D+0V149 F6]

$$ALL
  [rV19 B7V4 E8V137 rV65 A+0 C+0V3 D0V2 D+11V1 rV65 A+0 C+0V3 C0 D+0V129 C+8V255 rV11 C11V98 D+0V131 rV1 C15V3 B0 D+0V185 D3 C0 G7V133 C11V93 E8V255 rV11 C11V93 E5V78 rV130 G+10V8 rV65 B0 r E5V78 rV182 F+0V2 r C+0V3 D0V2 A+10V181 C+0V3 C0V129 G6V84 E0 C11V100 B7V129 D0V2 rV65 B0 D0V2 C+0V1 C15V3 D0V2 G+10V96 B6V47 rV96 C+0V3 D0V2 C11V98 G+7V255 rV12 C0V3 D0V2]
  [B10V181 D0V2 C+0V3 F3 C0 G+10V100 F+7V133 D2V2 G3 C0 C11V4 C+0 C+0 B6V45 rV3 D0V2 rV96 D0V2 rV65 A+0 rV65 A+0 C+0 C+0V3 D0V2 B6V18 rV24 D0V2 r F0V129 F+0V24 F0 G6V84 C+0 r C+0V229 G6V84 D+0 C11V103 C15V3 B7V129 G+10V96 C+0V1 r C+0V3 D0V2 C+0V1 C15V3 A+4 F+7V128 F+8V129 D0V2 G+10V96 B7V129 C0V255 rV12 C0 C11V107 C15V3 D0V2 B6V59 rV91 C11V103 C15V3]

$$ALL
  [A+10V181 C+0V3 C0V129 G6V84 G+0 C+0V3 D0V2 G+10V96 r C+0V3 D2V2 D2V2 G6V84 A+0 C+0V3 D0V2 r G+10V100 D+8V133 rV65 B0 B7V137 G+10V96 r C+8V137 E11V4 C11V95 E5V78 rV130 rV65 B0 C+0V3 D0V2 C+0V3 G6V84 E1 B1V136 B1V136 D+0V133 rV65 B0 G+11V4 E12V4 r C15V27 C+0V3 D0V2 r rV100 D+8V133 C11V4 C+0 r rV93 D+0V139 rV24 rV80 rV22 B7V133 C11V4 C+0 A+10V181 r G+10V4]
  [B7V129 G+10V96 C+0V1 r E8V133 C11V96 B14V3 G6V84 A0 C11V4 E11V4 C11V100 r C+8V137 G+12V93 E5V78 rV3 D0V2 C+0V3 C+2 D0V2 C+0V3 G6V84 C+1 C+0V3 D2V2 D0V2 r C+0V3 E3 D+0V135 C11V92 B7V133 C11V101 r B7V225 C+8V4 C15V27 C+0V3 C+2 D2V2 D2V2 G6V84 F+1 D+0V141 E11V100 E5V78 rV136 D0V2 C+0V3 C0 E5V78 rV136 D0V2 rV95 G+10V96 F6 D0V2 C+0V3 C0 C15V3 E5V78 rV3 G6V84]

$$ALL
  [r C15V27 C+0V3 D0V2 C+0V80 rV25 D0V2 B6V6 rV80 rV1 F0 G6V84 D0 r B6V6 rV80 rV6 F0 G6V84 G0 r B6V6 rV80 rV11 F0 G6V84 C1 r B6V6 rV80 rV16 F0 G6V84 F1 r B6V6 rV80 rV21 F0 G6V84 A+1 r B6V6 rV80 rV26 F0 G6V84 D+2 r B6V6 rV80 rV31 F0 G6V84 G+2 r B6V6 rV80 rV36 E3 F+2V5 D1V5 C11V161 E0V10]
  [B1 D+0V133 C11V96 F+8V133 F6 F11V4 F+7V255 rV13 F6 rV65 C1 r E5V78 rV255 rV13 F6 rV65 C1 r E5V78 rV255 rV13 F6 rV65 C1 r E5V78 rV255 rV13 F6 rV65 C1 r E5V78 rV255 rV13 F6 rV65 C1 r E5V78 rV255 rV13 F6 rV65 C1 r E5V78 rV255 rV13 F6 rV65 C1 r E5V78 rV255 rV13 F6 rV65 C+1 G0V31 E13V15 A0V141 G6V84]

$$ALL
  [r E13V15 A0V133 F+2V5 F6 C+11V161 D1V8 C11V161 E0V10 F0V31 E13V15 A0V133 F+2V5 F6 C+11V161 E0V10 E0V31 E13V15 A0V137 F+2V5 D1V5 G+10V161 B6V48 rV31 G+12V15 A0V133 F+2V5 C+1V6 r rV10 D0V31 G+12V15 G5 E13V15 A0V133 F+2V5 D1V5 C11V153 E0V10 F0V80 rV7 A0V133 A0V132 D0V1 F0V31 G+12V15 A0V133 G6V84 G0 F+2V5 D1V3 E11V153 E0V10 E0V31 E5V78 rV134 F+2V5 D1V8 G+11V153 B6V48 rV31 G+12V15 A0V133 F+2V5]
  [C0 C11V153 E0V10 C+0V80 rV2 G0V31 G+12V15 A0V129 F+2V5 D1V8 G+10V153 E0V10 G0V80 rV3 A0V129 F+2V5 D1V8 G+10V161 E0V10 E0V31 B12V15 A0V255 rV14 D1V8 E12V153 E0V10 E0V31 E5V78 rV134 F+2 D1V2 rV65 C+1 C11V153 E0V10 D0V31 G+12V15 A0V129 F+2V5 F6 C+11V161 G+10V161 F+2V5 F+2V5 D1V6 G+10V151 E0V10 r E0V10 D0V31 E13V15 A0V129 F+2V5 D1V5 r E0V10 E0V31 E13V15 A0V255 rV14 D1V8 C11V161 E0V10 E0V31]
