
$FM1,

!ALL

$Inst1,
$Inst2,
$Inst3,
$Inst4,
$Inst5,
$Inst6,
$Inst7,
$Inst8,
$Inst9,
$Inst10,
$Inst11,
$Inst12,
$Inst13,
$Inst14,
$Inst15,
$Inst16,

$$ALL
  [r D+5 D+5 D+5 D+5 D+5 D+5 D+5 r r r r r r r r r r r r r r r r r r r r r r r r r r r r r r r rV105 G9V77 A+8V116 B8V99 G+8V32 E8 A16 C0 C0 r C0V217 rV6 F+8 F0 rV78 rV7 C18 G0 rV38 rV9 D+18 A0 rV201 rV11 D7 A+0 rV176 rV13 G15 C1 rV8 rV14 D+18 D1 rV71 rV16 C20 E1 rV153 rV18 A6 G1 rV108 rV20 B13 G+1 rV218 rV22 G8 A1 rV176 rV24 G13 B1 rV242 rV25 D14 C+2 rV54 rV27 F16 D+2 rV69 rV30 G2 G2 rV83 rV32 A+6 G+2 rV63 rV36 D5 B2 rV203 rV37 A14 C3 rV52 rV38 D+15 C+3 rV243 rV40 A+10 D+3 rV210 rV42 E14]

$$ALL
  [G3 rV4 rV45 B4 A3 rV80 rV47 A+18 A+3 rV204 rV49 F15 C+4 rV26 rV51 D+20 D+4 rV74 rV53 A+10 F4 rV15 rV56 C0 G+4 rV253 rV58 G+16 A+4 rV24 rV1 D+0V6 G+0V11 C+1V18 G+1V23 D+2V26 E1V1 D+0V6 G+0V11 C+1V18 G+1V23 D+2V26 E1V1 D+0V6 G+0V11 C+1V18 G+1V23 D+2V26 E1V1 D+0V6 G+0V11 C+1V18 G+1V23 D+2V26 E1V1 C0V1 r r F6V34 F+8V116 C8V107 A2V98 G+5V101 F9V99 E8V116 G8V116 A4V47 E8V116 D8V101 A3V111 r r C0 rV1 rV1 rV2 r F12 r G+3V57 E5V104 D+9V58 E8V101 F9V99 E8V46 C9 rV190 D5 r r rV1 r D0 r rV6 r G0 r rV11 r C1 r r r C+0V208 rV255 D+17V5 r F+0V208 rV255 D+17V10 r B0V208 rV255 D+17V15 r C0V224 rV255 G18V4 r F0V224 rV255 G18V9 r A+0V224 rV255 G18V14 r]

$$ALL
  [C0V1 r D0V6 F0V6 F0V6 F0V162 rV5 C17 D+6V71 rV99 D+9V121 C5V10 D9V107 B8V54 E5V73 r r rV2 E0V7 A0V12 D1V68 D+0 r C6V4 r C6V83 r rV78 rV99 E8 D+2V8 E1V255 rV14 D0V9 F0V2 C+0V1 G+5V73 C+4 C15 E5 C8V46 B8V100 E6V51 rV16 r D1 rV28 r D+0V255 G+5V1 r r r G+5V73 C+4 C15 E5 C8V46 F9V111 rV65 G0 rV3 rV221 r r rV16 rV24 G2 r B8 rV78 A+6V78 r F6V13 E8V100 E8V109 C10V77 r r D0V14 C+0 r rV4 rV69 G18 r r rV69 F6V50 rV181 rV65 D+9V97 F9V49 E5 rV255 C0V6 D0V5 F0V6 D+0V2 rV78 A+6V61 r F6V9 G8V115 A3 C+3V8 F1V255 rV1 D0V5 F0V6 D+0V2 D+0V255 C0V1 G+5V73 C+4 C15 E5 D8V110 E6V41 rV30 r C0V1 F0V7 D0V3 F+0V6 C0V1 C+0V1 G+5V73]

$$ALL
  [C+4 C15 E5 A9V46 B8 C+9V8 D8V255 rV2 G0V12 F+0V3 D+0V7 A0V10 G+0V7 D0V1 D+0V6 G+0V10 A0V8 E0V3 C0V2 D+0V5 F+0V8 G+0V9 G+0V9 G+0V8 F+0V7 E0V4 D0V2 rV69 F6V50 rV181 rV65 A+9V118 G8V108 E6V119 rV99 r C+0V4 F0V4 C0V2 D+0V5 E0V4 D0V2 C0V2 D+0V4 E0V5 D+0V3 C0V1 C0V2 D0V3 D+0V4 E0V5 E0V4 D+0V3 D0V2 C+0V1 C0 r C0V255 C6V83 r rV78 rV105 E6V14 rV3 r D+0V255 C6V83 r rV78 rV32 F9V46 C+9 D5V8 D+1V255 r rV48 r r r C0 C+0 C+0V255 rV1 C+0V255 rV1 G+5V73 C+4 C15 E5 D+9V114 F+9V111 rV65 G0 rV1 C1 r C0 C+1 C+0V255 r C+0V255 rV1 G+5V73 C+4 C15 E5 D+9V114 G8V116 E5 rV255 C0V1 rV1 r r r C0V14 rV1 C0V69 F6V50 rV181 rV65 F6V119 F9V46 F8 G+3V8 D+1V255 r r]

$$ALL
  [r r r C0V14 rV1 C0V69 F6V50 rV181 rV65 F6V119 F9V46 G+9 G+3V8 D+1V255 r r r r r C0V14 rV1 C0V69 F6V50 rV181 rV65 F6V98 C8V104 E5 rV255 C0V1 D0V4 C+0V2 C+0V3 D0V2 C0V1 C0V1 rV1 r rV78 B6V50 r rV84 E11V96 D0 G7V137 rV3 E11V95 D0 D8V137 rV3 rV65 G+5 r B6V133 rV3 C11V96 D0 B7V133 rV3 C11V98 D0 D8V133 rV3 C11V96 D0 F+7V255 B6V126 r rV84 C11V91 D0 D8V129 rV3 G+10V91 D0 G7V129 rV3 G+10V99 D0 B7V129 rV3 G+10V91 D0 C+8V129 rV3 G+10V95 D0 D8V129 rV3 G+10V99 D0 A+7V129 rV80 F6 rV3 F+0 D0 B7V129 rV3 G+10V96 D0 E7V129 rV3 G+10V101 D0 C+8V129 rV3 G+10V98 D0 A+7V129 rV3 G+10V91 D0 E8V129 rV3 G+10V96 D0 C+8V129 rV3 rV65 F10 r B6V11 F+7V129 rV3 G+10V98 D0 F+7V129]

$$ALL
  [rV3 G+10V96 D0 D8V129 rV3 G+10V99 D0 F+7V129 rV3 G+10V99 D0 A+7V129 rV3 G+10V91 D0 D8V129 rV3 G+10V91 G6V84 r E0 rV133 rV3 G+10V99 D0 B7V129 rV3 G+10V92 D0 E8V129 rV3 G+10V96 D0 C+8V129 rV3 G+10V98 D0 F+7V129 rV3 G+10V99 D0 B7V129 rV3 G+10V95 D0 E5V78 r rV1 G6V84 r F+0 D+0V157 D+0V3 C13V84 G6V84 r G0 D+0V157 D+0V3 C13V84 G6V84 r G+0 rV133 rV3 C11V96 D0 B7V133 rV3 C11V98 D0 D8V133 rV3 C11V96 D0 F+7V255 B6V126 r rV84 C11V91 D0 D8V129 rV3 G+10V91 D0 G7V129 rV3 G+10V99 D0 B7V129 rV3 G+10V91 D0 C+8V129 rV3 G+10V95 D0 D8V129 rV3 G+10V99 D0 A+7V129 rV80 F6 rV11 F+0 D0 B7V129 rV3 G+10V96 D0 E7V129 rV3 G+10V101 D0 C+8V129 rV3 G+10V98 D0 A+7V129 rV3 G+10V91 D0 E8V129 rV3 G+10V96 D0 C+8V129]

$$ALL
  [rV3 rV65 D7 r B6V11 F+7V129 rV3 G+10V98 D0 C+8V11 A+7V129 rV3 G+10V91 D0 E8V129 rV3 G+10V96 D0 C+8V129 rV3 rV65 F10 r B6V11 F+7V129 rV3 G+10V98 D0 F+7V129 rV3 G+10V96 D0 D8V129 rV3 G+10V99 D0 F+7V129 rV3 G+10V99 D0 A+7V129 rV3 G+10V91 D0 D8V129 rV3 G+10V91 G6V84 r C+1 rV133 rV133 rV3 C11V113 C11V96 C11V99 D0 C+9V15 A+7V11 D8V133 rV7 D1V7 A+0V3 C11V91 G6V84 r D1 F0V133 rV133 rV3 C11V116 C11V96 C11V99 D0 C+10V15 A+7V11 D8V133 rV7 D1V7 A+0V3 C11V91 G6V84 r D+1 rV5 D+0V4 F+0 D0 B7V133 rV3 C11V99 D0 C+8V133 rV3 C11V95 D0 B7V133 rV3 rV65 G+4 r B6V133 rV3 C11V96 D0 B7V133 rV3 C11V98 D0 D8V133 rV3 rV65 G+0 r B5V255 B6V236 r rV7 G0V1 F+7V128 D0V2 F19V3 B1 C15V103 B1V1 C+0V103 E8V24 D0V2]

$$ALL
  [C15V94 B1V1 C+0V234 C0V3 G10V181 C+0V1 G8V128 D0V2 C+0V1 C+0V234 D8V24 D0V2 F19V3 G10V181 C+0V24 D0V2 rV1 A+7V128 D0V2 C15V103 C0V3 G10V181 C+0V1 C+8V128 D0V2 F19V3 B1 C15V96 B1V1 C+0V3 B1 C15V101 C0 C+0V1 D0V2 C15V80 F6 rV20 A10V103 A+10V181 A8 rV104 C0 D0V1 D0V3 C15V3 rV181 B8 rV110 C0 D0V1 D0V3 C15V3 D2V3 D0V3 F19V3 rV181 B8 rV111 C0 D0V1 D0V3 C15V110 C0V3 G10V181 D0V1 G9V128 D0V3 D0V1 D0V234 D+0V128 G10V8 F+0V4 D+0 rV3 E5V78 r rV4 D+0 D0 rV120 C0V3 G10V181 D0V1 E10V24 D0V3 rV122 C0V3 rV181 G9V135 rV118 C0V128 D0V1 F+9V128 F+0V3 C15V3 C0V128 D0V181 A+9V1 D0V3 G10V122 C15V7 G+0V125 C0V123 C+10V3 D0V3 D0V119 B9V234 F19V3 rV123 D0V3 F19V3 B1V1 D0V181 D0V3 D0V1 D0V234 D+0V128 G10V8 F+0V80 F6 rV22 F+0V7 D0V7 D8V157 F+0V80 F6 rV23]

$$ALL
  [D0V7 E8V157 F+0V3 rV65 A1 r D8V14 E8V157 F+0V3 rV65 A1 r D8V157 F+0V7 C1V3 rV65 C+11 r G0V6 D+0V7 A0V3 G+10V96 D0 C+8V129 rV3 G+10V89 D0 B7V129 rV3 G+10V98 D0 D8V129 rV3 G+10V95 D0 D8V129 rV3 G+10V101 D0 F+7V129 rV3 G+10V98 D0 F+7V255 B6V126 r rV84 C11V91 D0 D8V129 rV3 G+10V91 D0 G7V129 rV3 G+10V99 D0 B7V129 rV3 G+10V91 D0 C+8V129 rV3 G+10V95 D0 D8V129 rV3 G+10V99 D0 A+7V129 rV80 F6 rV28 F+0V7 D0V7 D8V157 F+0V80 F6 rV29 D0V7 E8V157 F+0V157 C0V128 D0V1 C0V1 C0V3 B1 C15V96 C0V3 G10V181 C0V1 D0V1 C15V103 G6V84 r r D7V12 D8V137 rV3 E11V98 D0 C+8V137 rV3 E11V98 D0 E5V78 r rV130 rV3 C11V98 D0 G7V133 rV3 C11V99 D0 C+8V133 rV3 C11V91 D0 A+7V133 rV80 F6 rV2 E2V10 B1 D7V133 C0V3 rV111]

$$ALL
  [C0 C0V1 D0V1 C15V3 D0V1 C0V3 A+10V181 B8V131 rV107 C0V129 C0V3 A+10V181 G8V130 D0V1 C0V103 C0V133 rV80 F6 rV3 D+0V129 rV3 rV110 D0V1 C15V110 C0 C0V1 D0V1 C15V3 G10V181 C0V3 D0V1 C0V3 rV181 A+8V129 C0V3 G+10V111 D0V1 C15V3 G+10V107 D0V1 C0V108 C0V133 rV80 F6 rV4 D+0V129 rV3 rV110 D0V1 C15V3 A+10V181 E9V133 G+10V111 E9V3 rV110 C0 C0V1 D0V1 C15V3 G+10V110 C0 C0V1 F+8V3 D0V1 C15V3 rV65 C+10 C0 A0V3 C11V111 D0V1 D9V128 D0V1 C15V3 A+10V181 E9V133 G+10V111 C0V3 A+10V111 C+9V3 G+10V105 C0 C0V3 G+10V110 D0V1 C+9V131 rV108 D0V1 B8V3 D0V1 C15V3 rV65 G0 C0 C15V80 F6 rV7 A10V84 C13V80 D0V5 B6V255 B6V23 rV1 rV7 D1V3 C13V83 D0V5 E5V78 r rV130 rV133 rV3 C11V91 D0 E8V133 rV3 C11V91 D0 F+7V133 rV3 C11V99 D0 D7V255 B6V98 rV1 rV11 D7V10 D9]

$$ALL
  [C0V3 G10V181 C0V1 D0V1 C15V3 G10V181 C0V3 D0V1 C0V1 D0V1 C15V103 C0 C0V3 D0V1 C0V1 D0 E5V78 r rV4 D0 D9 C0V3 G10V181 C0V1 D0V1 C15V3 C12V249 B1V1 G+20 C0V24 B1V1 C0V249 G+20V24 B1V1 C0V250 F+0V1 D0V1 C15V3 G+10V107 D0V1 C0V108 C0V133 rV80 F6 rV12 D+0V129 rV3 rV110 D0V1 C15V3 G+10V113 B1V1 G+20 C0V249 G+20V24 B1V1 C0V249 C15 F+7V11 B8V128 D0V1 C15V108 C0V3 G10V181 C0V1 D0V1 C15V3 rV65 A10 C0 A0V3 C11V111 F19V3 B1 C0V1 C+9V128 D0V1 C0V1 C0V234 B1V1 G+20 C0V249 G+20V24 B1V1 C0V249 C15V7 A0V3 D0V1 C0V181 C0V1 B8V128 D0V1 C15V111 C0V3 C12V181 E5V78 r rV130 E0V157 E0V3 C13V84 G6V84 r D1 F+7V15 G7V157 E0V3 G10V234 C2 rV25 A2 B6V51 D4V83 B1V68 rV24 C2 rV25 A+9 F+6V136 D+11V78 B1V153 rV24 C2 rV255 B6V72 rV1 rV7 B0V7]

$$ALL
  [B0V3 C11V91 D0 E8V133 rV3 C11V91 D0 F+7V133 rV3 C11V99 D0 D7V255 B6V54 rV1 rV3 C11V96 D0 F+7V133 rV3 C11V98 D0 F+7V133 rV3 C11V101 G6V84 r F1 rV24 C2V234 rV129 C0V128 D0V1 F19V3 B1 C15V99 B1V1 C0V99 C+8V24 D0V1 C15V91 B1V1 C0V234 C0V3 G10V181 C0V1 E8V128 D0V1 F19V3 B1 C15V96 C0V3 G10V234 C+8V24 rV181 C0V1 A+7V128 D0V1 C15V99 C0V3 G10V181 C0V1 E8V128 C0V99 F19 D0V1 F19V3 G+10V99 F19 D0V1 C15V3 rV181 F+7 rV65 F+19 C0 D7V10 C15V91 C0V3 G10V234 D8V24 rV181 C+0V24 D0V2 C+0V101 F19V3 G10V181 C+0V24 D0V2 rV1 B7V128 D0V2 C15V104 C0V3 D2V2 D0V2 rV99 F19V3 C2V234 D8V128 D0V2 F19V3 B1 C15V95 C0V3 G10V181 C+0V1 G8V128 D0V2 C15V98 C0V3 G10V234 F+8V24 rV181 C+0V24 D0V2 F+8V24 rV181 C+0V1 D0V2 C15V3 rV181 E5V78 r rV7 A0V1 F+7V128 D0V2 F19V3]

$$ALL
  [B1 C15V103 B1V1 C+0V103 E8V24 D0V2 C15V94 B1V1 C+0V234 C0V3 G10V181 C+0V1 G8V128 D0V2 F19V3 B1 C15V99 C0V3 G10V234 E8V24 rV181 C+0V1 C+8V128 D0V2 C15V104 C0V3 G10V181 C+0V1 G8V128 C0V103 F19 D0V2 F19V3 G+10V103 F19 D0V2 C15V3 rV181 A+7 rV65 G19 C0 D7V10 C15V91 C0V3 G10V234 D8V24 rV181 C+0V24 D0V2 C+0V101 F19V3 G10V181 C+0V24 D0V2 rV1 B7V128 D0V2 C15V104 C0V3 G10V234 E8V24 rV181 C+0V1 F+8V128 C0V101 F19 F+0V2 C15V1 C+8V1 C0V3 C0 D0V2 rV181 C+0V181 C15V98 G10V181 C+0V24 D0V2 rV1 B7V128 C0V99 D0V2 rV1 E8 rV98 C0 C+0V1 G6V84 r A1 D8V13 E8V157 G0V3 rV65 B1 C0 F+0V8 F+0V8 D0V8 A+7V255 B6V99 rV1 rV7 A0V1 B8V128 D0V1 C15V3 G10V234 C+9V3 D0V1 rV108 D0V1 F19V3 G+10V107 F19 D0V1 F19V3 B1 rV111 B1V1 C0V234 G6V84 r C2 B8V10 C15V110 C0V3]

$$ALL
  [rV181 C+9V130 C0V111 C+9V3 rV104 C15 C0V3 G10V181 C0V111 C0V110 D0V1 rV1 C+9V133 C0V9 C+0V8 D0V7 D+0V6 E0V5 F0V4 F+0V3 G0V2 G+0V1 A0V31 D1 E5V78 r rV4 D+0 rV6 E0V4 F+0V1 C15V110 C15V111 C0V3 rV181 B8V131 F+11V103 C0V3 B1V1 C0V181 D0V1 C0V103 D0V1 rV1 D0V1 C15V103 C0 C0V1 D0V1 C0V103 C0V133 rV80 F6 rV27 D+0V129 rV3 B1V1 C0V3 B1 C15V110 C0 C0V234 C+9 C0V3 C2V234 F+9V136 D0V1 C15V3 D+11V249 B1V1 G+20 C0V24 B1V1 C0V249 G+20V24 B1V1 C0V250 D9V10 C15V3 G10V181 C0V1 D0V1 C0V108 C15 C0V234 D9V25 rV108 D0V1 C0V1 C0V118 B9V24 D+11V181 D7V255 B6V140 rV1 rV7 A0V1 C+9V128 D0V1 C15V3 G10V181 C0V3 G+10V115 D0V1 C0V1 C15 C0V234 E9 C0V3 C2V234 A8V128 D0V1 F19V3 G+10V107 F19 D0V1 F19V3 B1 rV111 F19V128 C0V111 C+9V24 rV65 C16 C0 F+0V1 C0V3 G10V181]

$$ALL
  [C0V1 D0V1 F19V3 D0V1 C0V3 B1 C15V103 D0V1 C15V110 D9V234 C+9 C0V234 C0V3 C11 G+0 G0 F+0 F0 E0 D+0 D0 C+0 C0 F+2V1 rV7 G+0V1 B8V3 D0V1 A+8V129 C0V1 C+9V128 D0V1 C15V3 G10V181 C0V80 F6 r C+11V91 E11V98 D0 E8V137 rV3 E11V99 D0 B7V137 rV80 F6 rV1 F+0 D0 E6V149 rV3 E12V74 D0 F+6V255 B6V40 rV2 rV72 rV149 rV3 E12V77 D0 C+6V133 rV3 rV65 C+3 C+0 B5V15 B5V133 rV3 C11V79 D0 B5V141 rV80 F6 rV4 F+0 D0V2 E9 C+0V1 B5V133 rV3 D0V2 C+0V3 G+10V113 C0V3 C11V79 D0V2 E9 C+0V1 E9V131 rV74 D0 D9V3 D0V2 C15V3 C11V110 D0V2 C15V80 F6 rV5 F+0 D0V2 G9 C+0V1 D0 E6V134 C+0V118 G9V3 D11V181 E6V133 rV3 G+10V115 D0V2 C+6V133 rV3 rV181 F+9 D11V120 C0V255 B6V28 rV2 rV72 A+10V181 B5V15 C15V3 C11V181 E5V78]

$$ALL
  [r rV7 D1V1 D0V6 B5V15 A+9V167 rV1 G6V84 r G0 rV131 rV120 D0V5 B5V15 C15V3 C11V98 D0 B9V255 B6V58 rV2 rV72 C11V123 D0 E6V133 F0V3 C11V79 D0V6 C+6V133 rV3 C11V79 D0V6 E5V78 r rV7 D1V3 G+11V72 D0 G9V141 rV3 C11V119 D0 B5V133 F0V3 C11V122 G6V84 r A+0 rV133 F0V3 C11V77 D0V6 E6V133 rV3 G+11V74 D0 B9V133 rV3 rV65 E7 C+0 B5V15 F+9 C+0V3 G+10V181 D9V128 D0V2 G+20 C0V24 B1V1 C0V249 G+20V24 C2V249 A20V138 rV133 F0V1 D0 B9V255 B6V144 rV2 rV72 A0V133 F0V3 B1V1 C+0V234 F+9V130 G10V77 D0V2 G10V118 C15V3 G+10V181 E6V133 rV3 G+10V115 C0V234 C0V3 G+10V115 C0V234 C0V3 G10V181 C+0V1 B5V133 C+0V10 B1V1 C+0V3 B1 C0V24 D+11V10 G6V84 r C+1 D+0V157 D+0V3 C13V84 G6V84 r D1 D+0 D0V4 C+7V157 D+0V24 G10V86 B1V17 rV24 C2 rV25 G5 A6V85 C7V81]

$$ALL
  [B1V102 rV24 C2 rV25 G+12 E6V170 C+14V76 B1V187 E5V78 r rV31 D1 B9V157 F0V3 C13V127 F+0 G6V84 r E1 rV133 F0V3 C11V77 D0V6 E6V133 rV3 G+11V74 D0 E5V78 r rV25 B16 B14 rV87 G10V181 C0V24 D0V1 rV1 D8V128 C0V98 D8V3 B1 C0V1 F+7V128 C0V89 F19 D0V1 C15V96 C0V3 G10V181 C0V24 D0V1 rV1 B7V128 D0V1 F19V3 B1 C15V91 C0V3 G10V181 C0V1 D8V128 D0V1 C15V95 C0V3 G10V234 D8V24 rV181 C0V24 D0V1 D8V24 rV181 C0V1 D0V1 C15V3 rV181 E5V78 r rV7 A0V1 D7V128 D0V1 F19V3 B1 C15V99 B1V1 C0V99 C+8V24 D0V1 C15V91 B1V1 C0V234 C0V3 G10V181 C0V1 E8V128 D0V1 C0V1 C0V234 B7V24 D0V1 F19V3 G10V181 C0V24 D0V1 rV1 F+7V128 D0V1 C15V98 C0V3 G10V181 C0V1 A+7V128 D0V1 F19V3 B1 C15V91 B1V1 C0V3 B1 C15V98 C0 C0V1 D0V1 C15V80 F6 rV20 F+0V1 C0V3]

$$ALL
  [G10V181 C0V24 D0V1 rV1 D8V128 C0V98 D8V3 B1 C0V1 F+7V128 C0V89 F19 D0V1 C15V96 C0V3 G10V181 C0V24 D0V1 rV1 B7V128 D0V1 F19V3 B1 C15V91 C0V3 G10V181 C0V1 D8V128 D0V1 C15V95 C0V3 G10V234 D8V24 rV181 C0V24 D0V1 D8V24 rV181 C0V1 D0V1 C15V3 rV181 E5V78 r rV7 A0V1 D7V128 D0V1 F19V3 B1 C15V99 B1V1 C0V99 C+8V24 D0V1 C15V91 B1V1 C0V234 C0V3 G10V181 C0V1 E8V128 D0V1 F19V3 B1 C15V96 C0V3 G10V234 C+8V25 rV1 F+7V11 rV181 C0V181 C15V98 C15V1 D8V1 C0V3 C0 F+0V1 C0V3 G10V234 D8V24 rV181 C0V24 D0V1 D8V24 rV181 C0V1 D0V1 C15V3 rV181 E5V78 r rV7 D1V1 D0V6 F+6V133 rV133 F0V3 C11V181 E5V78 r rV7 D1V1 D0V6 B7V173 rV131 rV123 D0V5 F+6V133 F0V80 F6 rV24 F+0 D0V9 G+0V120 B9V3 rV120 D0V9 B9V129 rV3 C11V113 D0V9 E9 G+0V3 G+10V115 D0 D6V133]

$$ALL
  [G+0V3 D0V9 G+0V3 G+10V119 D0 F+6V133 G+0V115 F+9V3 D0V9 F+9 G+0V3 G+10V122 G6V84 r C2 rV133 G+0V120 B9V3 D0V9 B9 G+0V3 G+10V72 D0 E9 G+0V3 rV113 D0V9 E9V129 rV3 C11V120 B9V3 D0V9 G+0V120 B9 G+0V3 rV120 D0 A+5V133 G+0V3 G+10V115 F+9V3 D0V9 G+0V3 rV116 D0V9 E5V78 r rV7 D1V3 G+11V72 D0 G9V141 rV3 C11V119 D0 B5V133 F0V3 C11V122 G6V84 r D2 rV133 F0V3 C11V77 D0V6 E6V133 rV3 G+11V74 D0 B9V133 rV80 F6 rV28 F+0 D0V9 G+0V120 B9V3 rV120 D0V9 B9V129 rV3 C11V113 D0V9 E9 G+0V3 G+10V120 D0V9 D6V133 G+0V3 D0V9 G+0V3 G+10V123 D0 F+6V133 G+0V115 F+9V3 D0V9 F+9 G+0V3 G+10V122 G6V84 r E2 rV133 G+0V120 B9V3 D0V9 B9 G+0V3 G+10V72 D0 E9 G+0V3 rV113 D0V9 E9V129 rV3 C11V119 A+9V3 D0V9 G+0V119 A+9 G+0V3 rV119 D0V9 A+6V133 rV80 F6]

$$ALL
  [r rV80 F6 rV1 rV80 F6 rV2 A10V84 D0V12 B7 B0V3 C11V96 D0V13 B7 B0V3 C11V96 D0V13 B7V129 A+0V3 C11V96 D0V13 B7V3 D0V12 B0V96 D0V13 B7V129 B0V80 F6 rV3 A10V84 D0V12 B0V96 D0V12 B7V133 A+0V3 G+10V96 D0V12 B7V133 A+0V3 G+10V96 D0V12 B7V129 A0V3 E11V84 D0V12 B7V129 A0V3 G+10V96 G6V84 r D+0 B6V131 B0V3 rV96 D0V10 B7V137 C1V3 rV96 D0V10 B7V137 C1V3 G+10V96 D0V10 B7V137 C1V3 D0V12 B0V96 B7V129 C1V3 G+10V96 G6V84 r E0 B6V131 B0V96 B7 B0V3 C11V96 D0V13 B7V129 B0V3 C11V96 D0V13 B7 B0V3 G+10V96 D0V11 B6V129 B0V96 B7V3 D0V12 B7 A0V3 G+10V96 D0V12 B7V255 B6V102 rV3 rV3 A+10V96 D0V11 B7 A0V3 E11V84 D0V12 B7 A0V3 E11V85 D0V12 B7V129 A0V3 E11V84 D0V12 B0V96 B7V3 G+10V86 D0V11 B7V255 B6V102 rV3 rV3 A+10V96 D0V11 B7 A0V3 E11V84 D0V12 B7]

$$ALL
  [A0V3 E11V85 D0V12 B7V129 A0V3 E11V84 D0V12 B0V96 B7V3 G+10V85 D0V11 B7V255 B6V124 rV3 rV3 A+10V96 B7V3 rV96 D0V10 B7V137 C1V3 G+10V96 D0V10 B7V129 A+0V3 G+10V96 D0V12 B7V129 A0V3 E11V84 D0V12 B0V96 B7V3 rV96 D0V10 C+7V129 A+0V3 rV96 G6V84 r G+0 B6V131 B0V3 rV96 D0V10 B7V137 C1V3 rV96 D0V10 B7V137 C1V3 G+10V96 D0V10 B7V137 C1V3 D0V12 B0V96 B7V129 C1V3 G+10V96 G6V84 r A0 B6V131 B0V96 B7 B0V3 C11V96 D0V13 B7V129 B0V3 C11V96 D0V13 B7 B0V3 G+10V96 D0V11 B6V129 B0V3 G+10V96 D0V13 B7V255 B6V100 rV3 rV3 A+10V96 B7V3 rV96 D0V10 B7V137 C1V3 G+10V96 D0V10 B7V137 C1V3 rV96 D0V11 B7V133 A+0V3 G+10V96 D0V12 B7V129 C1V3 rV65 A7 D0 D0V13 B7 A+0V3 rV96 D0V11 C7V129 A+0V3 C11V85 D0V12 B7V129 A0V3 E11V84 D0V12 B0V96 B7V3 G+10V85 D0V11 B7V255 B6V124 rV3 rV3 A+10V96]

$$ALL
  [B7V3 rV96 D0V10 B7V137 C1V3 G+10V96 D0V10 B7V137 C1V3 rV96 D0V11 B7V133 A+0V3 G+10V96 B7V3 D0V12 B0V3 rV96 D0V13 B7 B0V3 rV96 G6V84 r C+1 B6V131 B0V3 rV96 D0V10 B7 B0V3 G+10V96 D0V13 B7 B0V3 G+10V96 B7V3 rV96 D0V12 C7V129 B0V3 G+10V96 D0V12 B7 B0V3 rV96 D0V12 B0V96 B7V3 rV96 D0V12 B7 A0V3 G+10V96 D0V13 E5V78 r rV130 C1V3 D0V12 A+0V3 rV96 D0V12 B7 A+0V3 C11V85 D0V12 B7V129 A0V3 G+10V96 D0V12 B6V129 B0V3 rV96 D0V12 B7V130 B0V96 B7V3 G+10V96 D0V13 B7V129 B0V3 G+10V86 D0V11 C8V255 B6V102 rV3 rV3 A+10V96 D0V11 B7 A0V3 E11V84 D0V12 B7 A0V3 E11V85 D0V12 B7V129 A0V3 E11V84 D0V12 B0V96 B7V3 G+10V85 D0V11 B7V255 B6V168 rV3 rV3 A+10V96 B7V3 rV96 D0V10 B7 B0V3 G+10V96 D0V13 B7V129 B0V3 G+10V96 D0V12 B7 B0V3 rV96 D0V13 B7 B0V3]

$$ALL
  [G+10V96 D0V12 B0V96 B7V3 rV96 D0V11 B7V131 B0V96 B7V3 D0V11 B7 A+0V3 rV96 B1V1 E5V78 r rV130 C1V3 rV96 D0V12 B7V133 A+0V3 C11V96 D0V12 B7V133 A+0V3 G+10V96 D0V11 B7V133 A+0V3 C11V96 B7V3 D0V12 A0V3 G+10V96 D0V12 E5V78 r rV130 C1V3 D0V12 A+0V3 rV96 D0V11 C7V129 B0V3 G+10V96 D0V12 B7V137 C1V3 rV96 D0V11 B7V133 A+0V3 G+10V96 B7V3 D0V12 B0V3 rV96 D0V13 B7V129 B0V3 rV65 F8 D0 D0V13 B7 A+0V3 rV96 D0V11 B6V133 B0V3 rV96 D0V11 C7V129 B0V3 G+10V96 D0V11 B6V133 B0V96 B7V3 D0V10 C7V129 A+0V3 rV65 D+8 D0 D0V13 B7V3 D0V11 B7 A0V3 E11V85 D0V12 B7V129 A0V3 G+10V96 D0V13 B7V3 D0V12 B0V96 D0V12 B7V129 C1V3 G+10V96 D0V12 E5V78 r rV136 D1V3 E12V96 D0V10 B8V134 D1V3 G+10V96 D0V13 B7V255 B6V82 rV3 rV3 C11V109 D0V13 B7V133 A+0V3 C+11V109 D0V13 B7V3 D0V12]

$$ALL
  [B0V96 D0V12 B7V129 C1V3 rV96 D0V12 B7V255 B6V99 rV3 rV3 G+10V96 D0V10 B7V129 D1V3 G+10V96 D0V10 B7V129 D1V3 G+10V96 D0V10 B7V129 D1V3 G+10V96 D0V10 C+7V129 A+0V3 D0V12 B0V96 G6V84 r C2 B0V3 G+10V96 D0V10 B7V129 D1V3 G+10V96 D0V10 B7V129 D1V3 G+10V96 D0V10 B7V129 D1V3 G+10V110 D0V10 C+7V129 A+0V80 F6 rV26 A10V84 D0V12 B0V96 D0V12 B7V133 A+0V3 G+10V96 D0V12 B7V133 A+0V3 G+10V96 D0V12 B7V129 A0V3 E11V84 D0V12 B7V129 A0V3 G+10V96 G6V84 r D2 B6V131 B0V96 B7 B0V3 C11V96 D0V13 B7V129 B0V3 C11V96 D0V13 B7 B0V3 G+10V96 D0V11 B6V129 B0V3 G+10V96 D0V13 B7 B0V3 rV96 G6V84 r D+2 B6V129 A+0V3 C11V96 D0V15 C7V129 A+0V3 C11V96 D0V15 B6V129 A+0V3 C11V96 D0V15 B6V129 A+0V3 G+10V86 D0V11 B7V3 D0V12 B0V80 F6 rV29 D0V12 B6V129 A+0V3 C11V96 D0V15 C7V129 A+0V3 C11V96 D0V15 B6V129 A+0V3]
