
$FM1, $UNKNOWN_0xA7,

!ALL

$Inst1,
$Inst2,
$Inst3,
$Inst4,
$Inst5,
$Inst6,
$Inst7,
$Inst8,
$Inst9,
$Inst10,
$Inst11,
$Inst12,
$Inst13,
$Inst14,
$Inst15,
$Inst16,
$Inst17,
$Inst18,
$Inst19,
$Inst20,
$Inst21,
$Inst22,
$Inst23,
$Inst24,
$Inst25,
$Inst26,
$Inst27,

$$ALL
  [D+5 D+5 D+5 r r r rV19 r r r r r r r r r r r r G8V110 D+8V32 G2V73 E8V50 G2V41 G2V97 D9V101 F+8V109 D+18 C0 rV36 D+0 rV31]
  [D+5 D+5 D+5 r r r B14 r r r r r r r r r r r r F9V66 A2V121 D+3V116 A+6V97 D9V99 A+8V32 C+8V32 C+9 r r rV20 G+1 rV22]

$$ALL
  [D19 rV29 D+0 rV105 D9 rV183 B14 rV44 B2 rV139 D11 rV205 E1 rV70 C+8 rV140 B13 rV57 D3 rV133 G+9 rV210 D+0 rV61 A13 rV202 A3 rV51 C+0 rV51 B17 rV14]
  [A+1 rV24 C2 rV26 D2 rV29 F2 rV31 G2 rV34 A2 rV34 A+2 rV35 A+2 rV35 A+2 rV36 C3 rV38 D3 rV40 E3 rV41 F3 rV42 F+3 rV44 G+3 rV46 A+3 rV48]

$$ALL
  [G19 rV129 F+5 rV91 B3 rV241 A+3 rV129 E3 rV29 A9 rV236 G17 rV111 B13 rV237 D+2 rV80 F+19 rV218 C+5 rV184 G+19 rV32 A+5 rV7 C4 rV159 C+17 rV2 G3 rV229]
  [C4 rV49 C+4 rV51 D+4 rV53 E4 rV53 F4 rV55 F+4 rV57 A4 rV59 A+4 rV60 B4 rV60 C5 rV62 C+5 rV62 C+5 rV63 D5 r D+5 r D+5 rV65 E5 rV66]

$$ALL
  [B6 rV241 A+10 rV80 D+13 rV138 G2 rV145 E17 rV61 D+13 rV75 G+11 rV212 B20 rV50 G+6 rV127 A+19 rV240 r r D0V4 D+0V4 D0V1 C0V3 r E0V5 F+0V7 E0V5 D0 D+0V2]
  [F5 rV67 F+5 rV68 G5 rV69 A5 rV70 A5 rV71 A+5 rV72 B5 rV72 C6 rV73 C6 rV73 C+6 r r r D+0V4 r r D+0V4 rV2 F0V6 F+0V2 rV4 D0V3 D0V3]

$$ALL
  [F0V6 F+0V8 F0V6 D+0V5 D0V3 F0V6 G0V8 F0V6 rV3 C+0V4 F+0V9 A+0V11 D+1V18 A+0V11 D+0V1 C0V3 F0V6 G+0V11 F0V6 D0V3 E0V4 A0V12 C1V13 G+1V12 A+1V24 D0V3 D0V3 G+0V11 C1V13 G+0V1 rV2 F0V4]
  [F0V7 G0V8 F0V1 rV1 C+0V3 F+0V4 F0V6 F+0V4 E0V3 D0V1 A0V10 B0V13 A0V10 D0V3 D+0V5 D+0V4 F+0V8 C+1V16 F+0V2 C0V3 F+0V9 A+0V11 D+1V18 A+0V11 D0 D+0V6 G0V10 B0V13 G0V10 D+0V5 D0V3 D0V7]

$$ALL
  [G0V8 A+0V11 G0V8 E0V4 D0V1 F+0V7 G+0V11 F+0V7 D0V3 D+0V5 E0V6 G0V10 B0V13 G0V2 C0V3 D0V3 F+0V7 B0V12 F+0V7 D0 D+0V2 F0V6 F+0V7 F0V6 D+0V5 D0V3 D0V5 F0V4 D+0V5 C0V3 C+0 r]
  [G+0V9 A+0V7 C0V3 C+0V4 D+0V5 G0V8 A+0V12 G0V8 C+1V1 C0V3 F+0V7 B0V12 F+0V7 D0V3 E0V4 F0V7 A0V11 C1V7 C+0V4 D0V3 D0V3 F0V7 F+0V7 F0V1 rV2 C+0V4 D+0V4 D+0V4 D+0V4 D+0V4 r D0V3]

$$ALL
  [D0V3 D+0V4 D0V3 rV1 C0V1 D0V3 D0V1 rV1 r r r G9V32 G9V58 F+8V121 F9V98 D8V116 F9V99 F4V32 G+8V103 D9V41 G+9V32 G2V108 G9V101 G2V118 D9V195 F8V32 B6V101 A+6V119 D8V97 F9V32 C+9V32 D+8V32]
  [D+0V4 D0V3 r C0V1 C0V3 D0V3 r C0 r r rV114 G2V117 G2V110 C+9V40 C+9V32 E3V45 B8V99 D9V32 G+9V101 G2V101 D9V39 G2V32 A+9V41 A+6V32 D16V32 G+9V10 E8V115 F+9V44 G8V105 C8V111 E8V121 F+9V32]

$$ALL
  [D9V32 G8V108 C+9V116 C+10V114 C8V105 G2V104 G9V108 C+8V119 G+9V101 A+8V32 C10V110 D+3V104 G9V99 G2V118 A0V32 D+8V32 G2V69 G+9V110 G3V67 C+9V100 G2V104 F+5V102 G2V97 E8V10 G9V32 F9V119 E8V101 D9V104 A0V110 G9V110 B8V101 F+9V105]
  [E8V72 D8V109 G+3V115 F8V114 G2V84 G8V73 B8V118 G2V101 F+9V117 E3V45 F+9V54 D8V116 G2V39 G2V101 E8V121 E8V32 E8V44 E8V111 D+9V10 G3V84 G9V110 G3V116 G9V97 C9V117 D+8V101 F9V32 G2V101 D+8V97 D8V111 G2V110 A0V84 C9V32]

$$ALL
  [A9V114 D8V32 E8V84 F5V97 A0V73 D+9V99 D9V98 C+8V102 G9V110 G9V101 G2V111 A+8V32 C+9V121 G9V101 B8V10 D9V32 F+9V110 E8V77 A9V32 C8V32 G2V104 D+3V101 G3V100 E8V32 D9V114 B8V121 E8V32 G2V108 G9V101 D9V105 F+9V32 E8V77]
  [E8V116 D9V32 C+9V101 G2V83 G+8V32 B8V121 C8V115 E8V108 F+8V116 F9V97 D+8V114 G8V100 E8V114 E8V114 C+9V105 G2V104 G+8V32 C8V68 G+8V105 F9V10 F+8V109 D9V115 D3V32 F+9V101 G+8V101 F+8V83 G+9V100 E8V111 G5V32 F+9V119 C8V32 G9V114]

$$ALL
  [C10V116 G2V102 F9V66 A0V110 C+9V101 D+8V104 G2V111 C8V116 G+9V112 G2V111 E8V97 D+9V111 C8V116 C8V44 C8V101 G2V121 G9V32 C+9V115 G2V116 C9V116 F+9V97 F9V46 G+9V108 G9V100 D9V101 C8V107 G6V76 G9V105 D8V32 G+9V108 G+8V103 E8V102]
  [G2V111 G8V110 D+8V41 C8V44 G2V101 G2V104 G2V97 B8V121 E8V32 D+8V108 G2V111 C10V105 B8V121 G9V98 C+9V32 C8V111 F+8V32 F8V97 E8V102 G+8V32 C8V101 C6V97 G2V116 G8V115 A+9V121 G8V110 G+9V112 A5V114 F+9V97 G2V111 D9V32 F+9V10]

$$ALL
  [C9V46 G2V104 C8V32 C9V100 C8V108 E8V112 G2V104 G2V44 G+8V44 G9V97 G+9V104 G9V101 E8V100 E8V116 D+8V98 D9V32 G+8V117 E8V32 F+6V76 F9V109 D9V107 C8V115 C+9V101 D+9V103 G+8V32 G2V110 B8V32 G+8V98 G2V73 D9V101 F+9V98 F+9V117]
  [C+9V32 G2V32 C10V104 G2V111 G2V102 G2V110 G3V98 C8V97 C8V32 C10V98 G+8V116 G+9V110 E8V111 G+8V99 C8V115 G2V114 F+9V117 G2V111 G6V76 D9V101 G3V98 G9V101 D+8V104 G9V110 G2V111 G2V115 D+8V114 G2V97 A+9V115 F8V97 G+8V121 G9V97]

$$ALL
  [C8V116 F+9V105 F9V118 C+8V10 A3V65 C10V117 C8V107 G2V80 D+8V117 G+8V32 G2V101 G2V111 B8V116 D9V116 G2V109 C8V105 G9V101 E8V46 G3V115 C+8V51 D9V101 B6V97 G3V98 F9V109 G+8V115 C+9V99 G6V51 G9V104 C8V115 G2V102 D8V117 G2V111]
  [B8V98 G9V101 G3V116 C+9V115 A+9V121 C8V32 E8V102 F+6V76 C9V100 F9V97 F+8V116 G2V111 C8V100 F+9V98 E8V101 G2V117 A3V72 A0V98 F9V32 G3V73 D+8V105 E8V32 G2V102 D8V110 D9V70 G+8V115 G+9V112 G2V117 A0V104 B6V32 G2V114 G2V111]

$$ALL
  [A+9V114 A3V66 G9V109 G+9V102 G9V114 B8V32 E5V50 G8V101 C8V111 G2V117 A3V65 F8V120 D+4V111 C+8V103 E8V32 D9V103 G9V101 A0V101 D9V32 D+8V112 C+9V65 C+8V99 C8V39 G9V101 D9V101 A3V10 C+9V32 G9V32 D+6V119 G2V104 G8V115 G2V110]
  [G2V48 A0V102 E8V32 B8V98 C6V115 E8V101 G2V97 G9V114 G2V118 C8V101 D9V32 G2V104 C9V100 C+9V78 D+6V44 F+8V97 C8V101 F+9V111 C8V32 G2V116 G2V68 F+9V32 A0V105 G+3V112 F+9V117 F9V109 G+8V32 E8V79 G2V117 F+6V76 E8V111 D9V32]

$$ALL
  [G2V97 D8V105 D9V107 C6V32 E8V32 B8V32 G6V71 D+9V114 F+9V101 F8V114 G+9V122 G2V101 B8V97 E8V97 C8V99 G8V110 G2V117 G9V109 G2V111 D3V32 F9V101 C6V109 C8V108 G2V102 E8V115 F+9V116 G+9V32 A0V111 A+9V105 C9V99 C8 C0]
  [F9V116 G2V111 G+8V104 F+9V10 F9V32 G9V32 D9V115 G+8V44 C8V108 G8V32 E5V100 C+9V108 E8V32 G2V102 F+9V105 G2V116 G2V114 G2V104 F9V105 B3V10 G2V117 F+9V101 D+9V111 D9V32 D+9V98 C+9V100 G+9V58 D+8V32 G2V111 D9V32 G12 rV1]

$$ALL
  [D+0V1 C0V1 r F+4V52 C9V104 D4V40 G+8V104 B6V117 C8V101 r r r r C+0 rV5 F+0 rV10 B0 rV15 C0V16 D+1V4 F0V16 D+1V9 A+0V16 D+1V14 rV208 D+17V3 E0V208 D+17V8 A0V208 D+17V13 D1V208]
  [C0V1 F12V150 B6V32 G2V32 E7V50 D+6V41 F9V109 E8V32 E5V67 C+14V63 rV170 r r r r r r r r r r r r r r rV255 r rV255 r rV255 r rV255]

$$ALL
  [G18V2 D+0V224 G18V7 G+0V224 G18V12 C+1V224 C0V1 F0V6 F0V6 G1 A+5 C10V101 A+8V101 C8V121 F9V101 r B8V48 B8V61 C8V99 rV68 r D+0V6 C+1V16 B1V26 r r C+4 E5 D9V101 r rV48 F1V10]
  [r rV255 r rV255 r rV255 C0V2 F0V6 A18 rV70 D8V105 A0V108 B3V110 G+8V101 A5V65 D9V107 G+8V101 B8V101 E8V61 A2 rV1 G+0V11 F+1V21 C6V4 E5V73 rV73 G19 G8V116 E6 F+2 D+5 rV1]

$$ALL
  [G+0V249 rV6 D0 C0V1 rV5 F6V50 rV65 G2V111 rV4 D+5 rV1 C0V31 C+2V8 rV12 r F+0 F6V78 r F9V32 E6 F+2 D+5 rV1 E6V34 r D+0V3 r F+0 F6V78 r G9V109 r]
  [E6V27 r C0V1 rV68 B15V69 rV236 G8V104 E8V70 rV42 B3V4 A0V244 G+20 F0V255 C+0 C0V255 G6V192 D+9 B0V115 G+8V101 r rV48 F1V10 G+0V249 rV14 A0V7 r C0V255 G6V192 G+5 F+0V114 E6 D1]

$$ALL
  [r F1V10 G+0V249 A14V172 A+6V78 F6V16 G2V110 A5V37 F3V8 D+0V177 D+20 rV68 F0V69 rV236 F+9V110 E8V49 r r F1V10 G+0V249 rV1 rV68 B15V69 rV236 F+9V110 E8V50 r r F1V10 G+0V249 rV1 rV68]
  [D+5 rV1 D+6V7 D0V78 r G8V116 E8V98 D+0V48 rV81 C0V31 F+2 C0V6 F6V50 rV65 G2V108 E6 D1 D+5 rV1 E6V12 r rV5 F6V50 rV65 G2V108 E6 D1 D+5 rV1 E6V12 r rV5]

$$ALL
  [B15V69 rV236 F+9V110 D+8V70 rV13 rV3 A0V244 G+20 C0V255 C+4 C0V1 rV32 C6V83 C1V78 rV77 C7V15 D1 D+5 rV77 r F+0 F6V78 r G9V114 C3V244 G0V243 G+14 rV2 E5 C0V1 rV68 B15V69]
  [F6V50 rV65 G2V104 rV6 D+5 rV1 C0V31 B0V8 rV14 D+0 rV76 E0V1 r rV97 D+20 D20 rV18 C+0V9 r C0V255 G6V192 A+7 A+0V103 F9 A+3V85 G+6V15 F+2 D+5 rV255 C+1V14 rV5 F6V50]

$$ALL
  [rV236 G9V105 D+20 D20 rV18 C+0V9 r C0V255 G6V192 A+10 C+1V116 D8V105 D+20 D20 rV18 C+0V9 r C0V12 G+0V9 F0V5 D+0V3 rV76 E0V1 r rV97 D9V105 D+20V9 B6 rV18 C+0V9 r C0V10]
  [rV65 rV77 C7V15 D1 D+5 rV77 r F+0 F6V78 r C+9V32 rV77 C7V31 F+2 D+5 rV77 r A+0V10 G0V7 E0V4 D0V2 rV32 C6V83 C1V78 G2V97 rV77 A+7V15 D1 D+5 rV77 r G+0V1]

$$ALL
  [r rV5 F6V50 rV65 C+8V115 C+9V99 E0V43 rV80 C0V31 F+2 G0 D1V13 A+0V11 A0V10 D0V3 A+0V76 E0V1 r rV108 G2V97 G2V117 C3V244 F+8V85 G+14 rV2 G5 G+5V73 G19V13 C8V32 D8V105 D+20 D20]
  [rV68 B15V69 rV236 F+9V97 G8V114 A5V37 A+1V7 D+0V177 D+20 rV65 rV1 B0V12 A0V10 A0V10 C0V1 rV32 C6V83 C1V78 G2V97 D9V105 D9 G2V95 G6V15 F+2 D+5 E0V5 C+4 E5 F+9V32 rV77 C7V15 D1]

$$ALL
  [rV18 C+0V9 r C0V15 C+1V14 C1V13 A+0V3 C+1V255 G6V192 C+9 D+1V115 C8V116 C3V244 E0V51 C+15 rV2 E5 C0V1 D0V255 rV68 B15V69 rV236 F+9V99 G9V115 C3V244 E0V51 C+15 rV2 E5 C0V1 rV14 G2V80]
  [D+5 rV77 r D1V15 C+1V13 B0V12 r F+0 F6V78 r D9V100 F9 A0V85 G+6V15 F+2 D+5 rV255 C1V13 C0V1 rV5 F6V50 rV65 D+8V112 G9 F0V85 G+6V15 F+2 D+5 rV255 C+0V255 D+6V7 C0V78]

$$ALL
  [A+6V81 F6V26 G2V97 G8V98 E6V41 r C1V13 B0V11 A+0V11 C+4 E5 D+9V114 D9V116 D+20V1 D4 rV18 C+0V9 r C0V12 r G5 G+5V73 G19V13 G+8V100 F9 C0V85 G+6V15 F+2 D+5 D0V255 rV68 B15V69]
  [r E8V111 G2V121 A+8V110 rV30 C+1V14 B0V12 A+0V11 G+5V73 G19V13 D8V110 C8V112 rV77 C7V47 D1 D+5 rV77 r C+1V14 C0V2 E0V5 C+4 E5 C8V116 C3V244 E0V51 C+15 rV2 E5 C0V1 rV5 F6V50]

$$ALL
  [rV236 F+9V97 C9V100 C+9V99 E0V43 rV80 C0V31 F+2 G0 D1V11 G0V8 F+0V7 D0V3 A+0V76 E0V1 r rV108 G2V105 D9V105 D9 G2V95 G+6V15 F+2 D+5 E0V5 C+4 E5 F+9V32 D8V105 D+20 D20 rV18]
  [rV65 C+8V115 G8V114 A5V37 A+1V7 D+0V177 D+20 rV65 rV1 G+0V8 F+0V7 F+0V7 C0V1 rV32 C6V83 C1V78 G2V97 G2V97 G2V117 C3V244 F+8V85 G+14 rV2 G5 G+5V73 G19V13 C8V32 D+8V32 rV77 C7V15 D1 D+5]

$$ALL
  [C+0V9 r C0V15 C+1V14 C1V13 A+0V2 G+0V76 E0V1 r rV108 G2V105 G+8V103 E6 D1 D+5 rV1 E6V24 r r F+0 F6V78 r D+9V98 G9V70 rV42 rV4 A0V244 G+20 F+0V255 D0 rV2 G2V80]
  [rV77 r D1V15 C+1V13 B0V12 r rV32 C6V83 C1V78 G2V97 G2V97 D9V116 r r F1V10 G+0V249 rV2 C1V3 C+1V255 G6V192 C9 D1V115 F+9V102 rV4 D+5 rV1 C0V31 D+2V8 rV13 C+0V255 D+6V7 C0V78]

$$ALL
  [A+6V123 F6V20 C8V115 C8V115 C0 r F1V10 G+0V249 rV4 C+1 C0V254 C0V1 rV5 E5V78 rV7 D0 F+0 F+0 rV103 rV3 rV7 F+8V7 D0 F+0 F+0 rV103 r rV7 F+8V7 D0 F+0 F+0]
  [r B8V112 F9V116 E6 A+3 D+5V8 rV1 E6V37 r r D0V255 rV68 B15V69 r D1V103 rV103 F+8V3 F+8V12 F+8V15 D0 B0V103 D1V103 rV103 F+8V3 F+8V12 G6V84 C0 B0V103 D1V103 rV103 F+8V3 F+8V12]

$$ALL
  [rV103 rV3 rV7 F+8V7 D1V80 rV2 F+8V12 F+8V15 D0 B0V103 D1V103 rV103 F+8V3 F+8V12 F+8V15 D0 B0V103 B6V118 rV103 F+8V3 F+8V12 F+8V15 D0 B0V103 D1V103 rV103 F+8V3 F+8V12 F+8V15 D0 r D1V103]
  [F+8V15 D0 B0V103 D1V7 F6 F+0 rV103 rV3 rV7 F+8V7 D0 F+0 F+0 rV103 rV3 rV7 F+8V255 r F+0 F+0 rV103 rV3 rV7 F+8V7 D0 F+0 F+0 rV103 rV3 E5V78 rV7 D0]

$$ALL
  [rV103 F+8V3 F+8V12 F+8V15 D0 B0V103 D1V103 rV103 F+8V3 F+8V12 G6V84 r r A+0V3 D0V11 F6 F+0V18 G6V84 D0 B7V129 C11V182 r A+0V129 G+10V90 B6V15 rV84 rV65 C0 F6 rV65 C+0 r]
  [F+0 F+0 rV103 rV3 rV7 F+8V7 D0 F+0 F+0 rV103 r E5V78 rV130 G+10V83 C+15V80 rV2 F+0V18 r E8V12 A+0V3 E5V78 rV130 A+0V3 C0V255 rV1 G+11V86 G0 B14V80 rV7 F0 G6V84 C0]

$$ALL
  [E5V78 rV255 rV2 F6 rV65 C+0 r E5V78 rV255 rV2 F6 F+0V1 C0V156 B12V12 F+0V1 F+0V2 B12V7 D0V1 rV156 C0V7 B0V153 D0V1 r D1V156 C0V153 D0V1 B0V156 D1V7 B12V15 D0V1 C1V4 F+0V1]
  [r B6V6 rV80 rV4 F0 G6V84 F0 r B6V6 rV80 r B12V12 G+12V15 C0V156 B12V3 F+0V1 D1V156 C0V153 D0V1 D1V7 rV156 E5V78 rV7 D0V1 rV156 C0V7 B12V7 B0V156 C0V3 C+0V31 C0V3 F+0V2]

$$ALL
  [G+12V15 B6V116 rV156 B12V3 F+0V1 D1V156 C0V153 D0V1 B0V156 D1V153 B0V156 G+12V15 D1V156 C0V80 rV3 B12V12 G+12V15 C0V156 B12V3 G+12V15 C0V7 B12V7 B0V156 C0V3 C+0 rV65 D0 C0V3 C+0 F+0V1 C0V156 B12V12]
  [C0V255 rV3 F+0V1 F+0V2 B12V7 D0V1 rV156 C0V7 B12V7 B0V7 B12V15 C+0V7 D0V1 F6 F+0V1 C0V156 B12V12 F+0V1 F+0V1 B12V12 B0V156 D1V7 B12V15 D0V1 C0V3 C+9 B12V15 D0V1 C0V3 B12V12 G+12V15 C0V156]

$$ALL
  [F+0V1 F+0V2 B12V7 D0V1 rV156 E5V78 rV7 D0V1 rV156 C0V7 B12V7 rV156 B12V12 G+12V15 C0V153 D0V2 C0V80 rV6 B12V12 G+12V15 C0V156 B12V3 F+0V1 D1V156 C0V153 D0V1 B0V156 D1V7 G6V84 F+0 B0V156 D1V7]
  [B12V3 F+0V1 D1V156 C0V153 D0V1 r D1V156 C0V153 D0V1 B0V156 D1V153 F+0V1 C0V156 B12V12 rV153 B12V12 F6 F+0V1 C0V156 B12V12 F+0V1 F+0V2 B12V7 D0V1 rV156 C0V7 B12V7 B0V156 r C0V7 B12V7 B0V156]

$$ALL
  [B12V15 D0V1 C0V3 B12V12 G+12V15 C0V156 B12V3 G+12V15 D1V80 rV8 D0V1 F+0V2 G+12V15 C0V156 F+0V1 B12V12 F+0V2 G+12V15 C0V156 F+0V1 r C+0 B12V15 C0V7 B0V156 C+0 D1V7 B12V15 C0V7 B0V156 C+0V7 rV65]
  [C0V3 C+0 F+0V1 C0V156 B12V12 F+0V1 F+0V2 C+0V7 F6 F+0V2 C0V156 F+0V1 B12V12 F+0V2 G+12V15 C0V156 F+0V1 B12V12 F+0V2 G6V84 G+0 C0V156 C+0 D1V7 B12V15 C0V7 B0V156 C+0 D1V7 B12V15 D1V153 D+9]

$$ALL
  [D0 B12V3 G+12V15 C+0 F+0V1 B12V12 C0V3 G+12V15 C+0V7 F+0V2 C+0V7 rV65 D+0 C1V24 r D1 rV65 D+0 B14V80 rV3 G6V84 D+0 B6V10 rV88 F+6 C+7V15 G+7V29 E2V11 G+10V180 C+7 C+1V180 B14V237]
  [G+12V15 F+0V1 B12V12 C0V3 G+12V15 C+0 F+0V1 B12V12 D1V153 G+12V15 D1V153 D1 B14V31 E5V78 rV31 C+1V3 C1 E7V14 F6 F+0V8 r G0V255 rV4 rV65 D+0 B14V237 G+19V5 E0V14 C+8V1 A+0V4 D+0V93 G+7V1]

$$ALL
  [D+0V255 rV4 rV180 E2V11 B14V237 G0V1 D+8V7 G+19V7 D+0V95 F+0V8 rV65 D+0 B14V237 E0V11 G+19V5 G+19V5 rV180 G+7V5 B14V237 B14V237 B6V89 rV88 D+0V95 E0V15 A+7V1 D+8V1 A+0V4 B14V5 D+0V95 D+0V88 r rV81]
  [B6V90 rV88 D+0V95 F+0V8 A+7V14 F+0V8 D1V29 C+1V180 E2V11 D+8V129 E7 C+7V15 G+7V1 D1V29 C0V29 C0V5 D+0V93 E0V15 G+7V1 C+7V255 rV4 rV180 A+7V5 B14V237 B14V237 D+7 C+1V95 rV180 A+7V180 G6V84 A0 C0]

$$ALL
  [C0 A+6V180 A+6V1 r rV84 C0 C+7V180 C+7V1 r D1V129 G+6V1 G+10V81 r D1V88 D0V26 C+7V3 A+1V83 D0V23 D+7V3 C+2V88 D0V26 G+7V3 A+1V88 r A+1V3 C+2V88 D0V24 G+6V3 B1V91 D0V24 D+7V3 B1V88]
  [A+10V180 A+6V180 G6V84 A+0 C0 A+10V180 C+7V180 G6V84 B0 G+10V79 C0V129 E5V78 rV7 D+7V3 C+2V85 D0V26 C+7V3 B1V86 D0V26 C7V3 C+2V91 D0V24 G6V84 C+1 D0V26 D+7V3 C+2V88 D0V23 G+7V3 C+2V88 D0V23 D+7V3]

$$ALL
  [D0V24 D+7V3 A7 D+7V3 D+8V3 B1V88 D0V26 D+7V3 C+2V88 D0V26 D+7V3 C+2V98 B6V97 rV88 D1V100 D0V24 G+7V3 B1V88 D0V26 D+8V3 B1V88 A+1V181 C0V255 rV4 C0 G+6V3 A+1V88 D0V24 F+7V1 rV76 D1V3 B1V80]
  [A+1V97 rV65 D+0 F+0V23 D0V23 F+7V3 A+1V88 D0V24 C+8V3 A+1V95 D0V24 C8V255 rV4 D+7V7 D+7V3 C+2V91 D0V23 G+6V3 C+2V98 D0V23 C+7 A+1V3 B6V81 rV3 A+1V181 D0V26 D+7V3 C+2V88 D0V23 D0V26 D0V23 F6]

$$ALL
  [rV18 C+2V91 C0 C+0V88 C8V1 D0V26 C15V3 A+1V3 rV91 F6 D0V23 D1V88 D1V98 A+1V3 A+1V3 C8V15 D+7V7 D+7V7 D0V26 C+8V15 C+8V15 B6V137 rV88 D+7V27 D1V98 A+1 F+0V23 A+1V7 D0V26 D+7V31 C+2V91 F+2V23]
  [D0V26 C15V3 C+2V91 F+7V237 C8V3 C+2V91 C0 C0V3 C15V80 rV19 D+7V7 D+7V7 D0V26 D0V26 F+0V23 C+2V88 D1V88 D1V98 C+2V88 C+2V88 A+1V255 rV4 F+7V237 G+19V7 D0V26 C+2V86 F+7V15 D1V88 A+1V237 D1V2 G+19V3 C+0V88]

$$ALL
  [F+7V15 A+1V237 D1V2 G+19V255 rV5 C0V255 rV5 C0V1 D0V9 D+10V3 G+0V136 D0V9 C0V3 G+0V136 D0V9 D+11V3 G+0V124 r G+0V1 D0V9 B9V3 G+0V124 D0V9 C0V3 G+0V131 D0V9 D8 C+10V11 G+0V134 D0V9 G+0V122 D0V9]
  [D0V26 D+7V31 C+2V91 B6V12 rV27 B6V104 rV124 D+11V3 G+0V124 D0V9 D+10V3 G+0V124 D0V9 D+10V3 G+0V124 D0V9 G6V84 C+0 A+10V3 G+0V124 D0V9 B9V3 G+0V120 D0V9 D+10V3 rV65 E0 D0V9 C+10V3 G+0V180 C+11V3 G+0V122]

$$ALL
  [B14V134 D0V9 C+10V1 D0V9 C+11V255 rV5 D0V9 D+10V3 G+0V136 D0V9 D+11V3 G+0V124 D0V9 D+11V3 G+0V124 D0V9 r A+0V124 D0V9 D+10V3 G+0V136 D0V9 D+10V3 G+0V124 D0V9 D+11V3 G+0V124 r rV81 D1V180 G+10V83 C0]
  [C+10V3 G+0V134 C+11V3 G+0V122 B6V103 rV136 G+0V136 D0V9 D+10V3 G+0V124 D0V9 D+11V3 G+0V124 D0V9 D+10V3 E5V78 rV7 D+10V3 G+0V136 D0V9 D+10V3 G+0V136 D0V9 D+11V3 G+0V124 D0V9 G6V84 F0 C0 G+6V131 B14V5 D1V1]

$$ALL
  [G6V84 F+0 C0 B6V131 B14V5 D1V1 r C1V129 G+6V1 G+10V81 r D1V180 D+8V3 D0V25 B14V86 C+7V180 D+8V3 D0V25 B14V86 G6V84 A0 D+8V3 C2V85 D+8V3 B14V91 D+8V3 C2V85 D+8V3 B14V100 B6V85 rV100 D1V180]
  [r rV84 D1V180 G+10V86 C0 G6V84 G0 G+10V79 C0V129 E5V78 rV7 C2V100 D0V21 C2V81 C0V1 C2V100 D0V21 C2V91 C0V1 r G+1V1 D0V25 B14V100 C0V1 C0V1 D0V25 B14V100 C0V1 C8V255 rV5 D+8V7 C2V93]

$$ALL
  [B14V100 D+8V3 D0V21 C2V98 G+7V1 C0V3 rV65 E0 F+0V21 G+7V1 C0V3 D0V25 C2V100 D+8V3 D0V21 D+7 E5V78 rV128 F+7V1 D0V25 C2V91 D+8V3 G+1V181 D+8V15 C2V3 B6V90 rV100 C0 D+8V27 D2V25 D0V21 C2V91]
  [F+7V1 C0V3 D0V25 B14V100 D+8V3 D0V21 F7 D+8V3 B14V100 D+8V3 D0V21 G+1V180 C+8V1 C0V3 C+8V1 G+1V181 r G+1V181 D0V21 G+1V180 B14V100 C0 D+6V13 C1 C0V255 rV5 D+8V3 G+1V181 G+19V3 D0V21 D0V25 C15V3]

$$ALL
  [C0 G+1V1 F+7V15 A+8 D+6 D0V25 F+0V21 D1V100 D1V100 D0V25 C8V15 C8V15 C2V100 C2V100 rV65 E0 G+19V3 F+0V21 D+6V15 D1V180 C+7V15 G+1V237 D1V2 G+19V3 C+0V100 D0V25 D+8V31 C2V91 B6V12 rV27 B6V28 rV180]
  [C1 F+6V12 rV65 E0 C2V98 C2V100 D+8V7 D+8V7 A+7V15 C2V100 C2V100 D0V25 C+8V15 C+8V15 G+10 D+8V27 D2V25 B14V100 D+8V7 G+1V1 D0V25 D+8V31 C2V91 F+2V21 F+7V15 G+1V237 D1V2 G+19V255 rV6 C0V255 rV6 G+10V114]

$$ALL
  [G+10V110 D0V10 r C0V7 B14V80 rV3 A0V129 C1V3 B1 F+0V10 A+8V13 B6V26 rV180 C+9V129 A0V80 rV6 B6V76 rV86 D+0V93 G+7V29 C0V129 C+8V86 E0V14 C+1V180 C+8V80 rV8 E2V11 A+0V4 D+0V95 E0V14 B14V237 G+19V5]
  [F+0V10 E5V78 rV1 D1V113 F6 C0V129 A0V7 rV65 F0 D0V10 F9V255 rV6 F9V14 A0V129 F6 C0V255 rV6 rV180 B14V237 G+19V5 rV98 E2V11 A+0V4 D+0V93 F6 F+0V12 E0V14 C+1V180 D+8V1 E0V15 A+7V29 E2V11]

$$ALL
  [E0V14 E7 C+7V15 G+7V1 D1V29 C0V29 C0V5 D+0V93 E0V15 G+7V1 C+7V255 rV6 rV180 A+7V5 B14V237 B14V237 D+7 C+1V95 rV180 A+7V180 G6V84 A+0 C0 A+10V180 A+7V180 G6V84 B0 C0 A+10V180 C+8V180 G6V84 C1]
  [rV65 F0 B14V237 E0V11 G+19V5 G+19V5 rV180 G+7V5 B14V237 B14V237 B6V89 rV88 D+0V95 E0V15 A+7V1 D+8V1 A+0V4 B14V5 D+0V95 D+0V88 r rV93 C0 A+7V180 A+7V1 r rV96 C0 C+8V180 C+8V1 r C+1V129]

$$ALL
  [G+10V91 C0V129 E5V78 rV7 D+9V15 D1V112 C+8V7 F+0V22 E0V11 C+8V5 D+9V15 D1V97 C2V7 E0V11 G+7V5 A+9 C+8V15 F+0V25 C2V7 D+9V15 D1V95 E0V15 D+8V7 F+0V25 A1V5 D+9V15 E0V15 C8V255 rV6 F+0V25 F+0V25 A+0V112]
  [G+7V1 G+10V93 r D1V100 C2V7 F+0V22 D1V112 A+7V5 D1V105 F+0V25 C2V7 E0V12 D1V103 D1V100 rV65 F0 B0V112 D+9V15 D1V98 C2V7 C+8V5 A+0V98 D1V112 D+9V15 F+0V25 A1V5 F+0V25 B6V112 rV112 C+8V15 G+8V15 F+0V22]

$$ALL
  [G+8V7 E0V12 D1V100 C2V7 D+9V15 F+0V25 A+0V112 C8V255 rV6 F+0V25 F+0V25 A+0V112 G+8V7 E0V12 D1V100 C2V7 D+9V15 F+0V25 C+8V15 F+0V22 F6 G10V103 A1V1 D+8V11 D1V100 F+8V15 D1V112 C15V7 D+7V15 A1 D1V100 r]
  [D1V98 C2V7 D+9V15 D1V100 A1V5 F+8V15 F+0V22 B6V116 rV112 C+8V15 G+8V15 F+0V22 D1V98 C2V7 D+9V15 D1V100 A1V5 C+8V15 F+0V22 C15V80 rV18 C0 F+0V22 C2V7 F+0V25 A1V7 F+0V22 D1V181 D+9V15 C2V7 G6V84 F+1]

$$ALL
  [C2V7 C0 F+0V25 F+0V25 F+0V22 F+0V22 C2V7 F+8V15 rV105 D1V7 E5V78 rV3 F+0V22 C2V7 F+0V25 C2V7 F+0V25 A1V7 F+0V25 C2V7 F+0V22 C2V7 F+0V25 A1V7 F6 F+0V25 F+0V25 F+0V22 C2V7 D1V98 F+8V15 D1V100]
  [D1V103 A1V1 F+9V15 F+9V15 C15V97 D+9V15 D1V181 rV93 C0V7 A+0V181 r rV112 D+9V15 D1V98 C+8V15 D1V97 A+7V15 D1V112 C8V15 D1V97 D+9V15 D1V98 D+9V15 A+0V80 rV21 F+9V15 F+9V15 C+8V11 D1V7 F+0V22 A1V7 F+0V25]

$$ALL
  [F+8V15 F+8V15 F+8V15 F+8V15 F+8V15 F+8V15 F+8V15 F+8V15 G2 B14 C+8V129 A0V3 G+0 G+8V255 rV6 F8V129 G+10V102 r E5V78 rV7 D1V80 rV2 C0V7 B14V80 rV3 E5V78 rV3 G+0 A+8V255 rV7 rV65 F+0]
  [F+0V25 F+0V25 F+0V25 F+0V25 F+0V25 F+0V25 F+0V25 rV65 F0 F8V14 A0V129 rV65 F0 B6V24 rV180 A0V3 G6V84 r r D1V7 F6 F+0V7 D1V125 F6 D0V7 r rV65 F+0 B6V10 rV101 C6 F+8V13]

$$ALL
  [C0V1 C0V1 C0 G8V105 A+8V115 G+9V115 F+9V80 rV8 C0V1 C0V1 rV110 A+8V109 C0 F+9V117 G5 G+8 G+8V115 C0V1 C0V1 C0V1 D+9V115 C+9V80 rV10 C0V1 C0V1 C0V1 G+9V117 F+9V114 C+9V107 B6V79 rV105 G+8V1]
  [F+9V114 A+8V108 C0V1 C0V1 C0V1 F+1V117 F6 F+0V16 F9V112 C0 C0V1 C0V1 C0V1 rV65 F+0 C0V1 C0 F+9V117 G+9V110 C0V1 C0V1 F6 D0V16 F+9V110 F9V110 C0V1 C0V1 C0V1 C0V255 rV7 C19V4 D+8V98]

$$ALL
  [D+0V5 C+8V105 C0V1 A0V103 G0V105 C0V4 r A0V103 G0V105 C0V4 D+8V98 C0V1 E0V10 G+8V8 E5V78 rV1 r D+7V237 rV65 F+0 D2V26 E0V91 D2V26 G+19V1 F+7V88 C+2V5 C0V255 rV8 F6 F+0V7 G6V84 C+0]
  [C0V1 E0V10 G+8V8 C0V1 F+8V100 G6V84 B0 C0V1 F+8V100 G+8V1 D+0V5 C+8V105 C0V1 A0V103 r G6V84 C+1 D2V26 C+6 D+7V237 F+11V88 C+2V5 C0V27 D+7V237 E0V91 D2V26 B6V6 rV80 rV1 F+0V7 r F+0V150]

$$ALL
  [F+0V7 G6V84 D0 F6 D0V7 r rV65 G0 E5V78 rV7 G6V84 G0 rV65 G0 D+0V5 C+9V117 C0V1 A0V115 G0V117 C0V4 D+9V110 B6V76 rV117 C0V4 D+9V110 C0V1 E0V10 G+9V8 C0V1 F+9V80 rV11 B6V18]
  [G+10V1 r F+0V80 rV4 E5V78 rV3 A0 B8V15 r B0V1 r E1V141 F+6 G+9V10 C0V1 E0V10 G+9V8 C0V1 F+9V112 G+9V1 D+0V255 rV8 F+9V112 G+9V1 D+0V5 C+9V117 C0V1 A0V115 G0V117 F6 C0V255 rV8]

$$ALL
  [rV27 C2V5 r G+19 D+8V237 rV100 G+19 D+8V237 rV100 F6 rV65 G+0 A+9V15 r D1V1 F+0V180 r rV65 G+0 B6V9 rV117 r F+0V255 rV9 G+11V107 r B0V1 r D+1V4 D+9V110 C0V1 E0V12]
  [G+19 E5V78 rV27 C2V5 D2V25 E0V27 C2V5 D2V25 E0V80 r D1 G+9V15 E5V78 rV7 D+11V15 E5V78 rV3 G+0 C+9V255 rV9 G6V84 F0 B6V13 rV105 E5V78 rV7 G6V84 G+0 G+9V1 D+0V5 C+9V117 C0V1]

$$ALL
  [G+9V10 C0V1 F+9V112 G6V84 A0 C0V1 F+9V112 G+9V1 D+0V5 C+9V117 C0V1 B0V115 r G6V84 B0 rV88 B6V75 rV88 C2V237 E0V31 D+7V15 G+19 F+2V25 D1V5 rV65 G+0 G+0V80 r F+0V4 D0V3 D0V129 C1V7]
  [B0V115 A0V117 C0V4 r A0V115 A0V117 C0V4 D+9V110 C0V1 E0V12 G+9V10 E5V78 rV1 r D+7V15 G+19V255 rV9 G+19 F+2V25 D1V5 rV88 C2V237 E0V31 D+7V15 C1 G+9V156 F6 F+0V3 F+0V3 D+0 D0V7 D1V144]

$$ALL
  [rV144 G6V84 C0 D+0V129 D0V144 G+10V144 F+0V3 B11V15 B6V68 rV144 G+10V144 B11V13 B11 A+0V4 F+0V4 B11V13 r D1V7 D1V7 F+0V3 F+0V4 F+0V3 B11V15 r D1V7 D1V7 F+0V3 F+0V4 F+0V3 G6V84 E0 D+0V129]
  [F+0V4 r D0V129 D0V128 rV144 F+0V4 B11V13 D+0V255 rV10 G+10V144 G10V144 B11V15 D+0V31 B11V13 F+0V4 E5V78 rV7 C1V7 D1V144 F+0V3 F+0V3 B11V13 E5V78 rV7 C1V7 D1V144 F+0V3 F+0V3 F+0V3 r D0V129 D0V129]

$$ALL
  [D0V7 rV144 G10V144 F+0V4 G6V84 F0 D+0V129 D0V7 G10V144 G+10V144 F+0V4 E5V78 rV130 D+0V133 D+0V255 rV10 C1V7 C1V7 F+0V4 E5V78 rV7 D1V144 G+10V96 F+0V3 B11V13 B7V15 B6V69 rV96 F+0V4 F+0V3 B7V15 D+0V128]
  [C1V144 G+10V144 F+0V4 F+0V4 r D0V129 D0V128 C1V144 G+10V144 G10V144 B11V15 r D+0V133 D+0V133 B6V38 rV7 C1V7 C1V144 B11V13 r D1V7 G10V96 F+0V4 F+0V3 B7V15 D+0V255 rV10 G+10V96 F+0V3 B11V13 B7V15 D0V129]

$$ALL
  [D0V7 F+0V4 r D0V129 C1V7 D1V144 G+10V96 F+0V4 D+0V7 F+0V4 D+0V255 rV10 F+0V3 F+0V3 B11V13 D0V128 D0V7 C1V80 rV13 B7V15 B7V15 D+0V129 D1V7 D1V96 F+0V4 D+0V255 rV11 C+1V3 D0V3 B6V27 rV7 C11V144]
  [C1V144 G6V84 A+0 D0V7 D1V7 G10V96 F+0V4 B11V13 C1V144 B11V13 B6V61 rV96 F+0V4 B7V15 B7V15 D+0V129 D1V7 F6 F+0V3 B11V13 D0V128 D0V7 C1V7 G10V144 B11V13 B6V27 rV7 C11V144 B11V255 rV11 C+1V3 D0V3]

$$ALL
  [B11V255 rV11 C+1V3 F+2V3 C+1V144 B1 F+0V3 D0V3 B6V24 rV7 C+1V3 G6V84 E0 B11V14 D0V3 G6V84 F0 B11V14 B11V14 r D0V133 D0V133 B6V38 rV7 C+1V7 C+1V144 B11V14 r C+1V7 C+1V7 C+1V7 C+1V7]
  [B6V35 rV7 C11V144 D+0V7 rV65 A+0 F+0V3 B11V255 rV11 C+1V7 C11V144 r B11V14 B11V129 rV144 r B11V14 B11V14 E5V78 rV130 D0V133 D0V255 rV11 C+1V7 C+1V7 F+0V3 E5V78 rV7 C+1V7 C+1V7 C+1V7 C+1V80]

$$ALL
  [F6 F+0V3 F+0V3 F+0V3 F+0V3 B11V14 B6V68 rV144 G10V144 G10V144 G10V144 B11V14 C+1V144 B11V14 r D0V133 D0V133 B6V38 rV7 C+1V7 C+1V144 B11V14 r rV180 r rV180 r rV180 rV144 r D0V1 r]
  [rV10 F+0V3 F+0V3 F+0V3 F+0V3 D0V255 rV11 A10V144 A10V144 A10V144 F+0V3 D0V7 F+0V3 E5V78 rV130 D0V133 D0V255 rV11 C+1V7 C+1V7 F+0V3 E5V78 rV7 E5V78 rV7 E5V78 rV7 B11V13 G6V84 D0 G6V84 D+0]

$$ALL
  [D0V1 r D0V1 r D0V1 r D0V1 r E5V78 rV3 F0 G6V84 D0 r B6V10 rV108 G+0 B7V255 rV14 E0V8 E0V8 E0V8 E0V8 E0V8 E0V8 E0V8 E0V8 B6V72 rV144 B11V144 B11V144 B11V144]
  [G6V84 E0 G6V84 F0 G6V84 F+0 G6V84 r r rV65 C1 r E5V78 rV255 rV13 rV65 C1 B6V87 rV144 C0V5 C0V5 C0V5 C0V5 C0V5 C0V5 C0V5 C0V255 rV14 C0V1 C0V1 C0V1 C0V1]
