
$OPM,

!ALL

$Inst1,
$Inst2,
$Inst3,
$Inst4,

$$ALL
  [r D+5 D+5 D+5 D+5 D+5 D+5 D+5 r r r r r r r r r r r r r r r r r r r r r r r r r r r r r r r rV97 G9V110 D8V114 C+8V117 F8V117 F9V118 rV216 C+0V1 rV1 r rV1 D0 rV50 rV7 C+17 G0 rV141 rV10 A14 B12 rV169 rV171 D+8 D+14 rV41]

$$ALL
  [rV173 D14 E14 rV139 rV175 D2 F+14 rV1 C0V1 C0V1 C0V1 r C0V1 rV1 C0 C0V1 C0V1 C0V1 C0V1 r C0V3 C+0V2 r r rV1 C0 r r C0V1 C0 rV1 C0V3 D0V3 r r r rV32 C+9V116 C+9V119 G8V32 E8V105 F9V114 C10V117 D+8V10 D3V32 E8V116 D8V112 B8V32 D+8V101 C10V116 G+9V101 rV128 r C0 rV4 C0 r rV164 r rV80 G+5V103 E8 r D5]

$$ALL
  [r r rV1 r C0V208 rV255 D+17V4 r F0V208 rV255 D+17V9 r A+0V208 rV255 D+17V14 r rV224 rV255 G18V3 r E0V224 rV255 G18V8 r A0V224 rV255 G18V13 r D1V224 r r F+0V5 F0V6 F0V6 rV3 A13 D0 C6V11 r r C+0V65 A6 C0 D+0 D0V68 A0 r rV1 F6V50 rV232 rV65 C+8V116 A+8V32 G9V108 G2V98 C9V110 rV77 rV3 rV255 rV48 r B3V255 rV255 rV48]

$$ALL
  [r B3V255 rV255 rV48 r B3V255 rV255 rV48 r B3V255 rV255 rV48 r B3V255 rV255 rV48 r B3V255 rV255 rV48 r B3V255 rV255 rV48 r B3V255 rV255 rV48 r B3V255 rV255 rV48 r B3V255 rV255 rV48 r B3V255 rV255 rV48 r B3V255 rV255 rV48 r B3V255 rV255 rV48 r B3V255 rV255 rV48 r B3V255 rV255 rV48 r B3V255 rV255 rV48 r B3V255 rV255 rV48]

$$ALL
  [r B3V255 rV255 rV48 r B3V255 rV255 rV48 r B3V255 rV255 rV48 r B3V255 rV255 rV48 r B3V255 rV255 rV48 r B3V255 rV255 rV48 r B3V255 G+5 rV255 D1V15 rV255 D1V15 rV255 D1V15 rV255 D1V15 rV255 D1V15 rV255 D1V15 rV255 D1V15 rV255 D1V15 rV255 D1V15 rV255 D1V15 rV255 D1V15 rV255 D1V15 rV255 D1V15 rV255 D1V15 rV255 D1V15 rV255 D1V15 rV255 D1V15 rV255 D1V15 rV255]

$$ALL
  [D1V15 rV255 D1V15 rV255 D1V15 rV255 D1V15 rV255 D1V15 rV255 D1V15 F6V78 C+7 r D3V108 D+8V106 A+8V97 D9V32 C+9V32 G2V32 E8V98 F+9V105 rV65 G0 rV1 F2V87 r r E0 r C6V83 r E0V78 rV111 G2V114 C+9 F3V8 F+2V255 r rV1 C0V2 C+0V3 C+0V2 C0V1 r A+6 rV1 rV5 F1 G+5V73 C+4 D+19V5 E5 C8V32 C+9V99 C+9V110 D+4 E1 r C0V1 r F6V65 G+11 G2]

$$ALL
  [r r r C+0 r rV5 r F+0 r rV10 r B0 r rV15 r E1 r rV20 r A1 r rV25 r D2 r rV30 r D7V86 r r rV31 r r r r r r r r r r r r r r r r r F+2 r rV31 r F+2 r rV31 r F+2 E5V69 r r r r r r]

$$ALL
  [r r r r r r r r r r r rV30 r F2 r rV31 r F+2 r rV31 r F+2 r C+7V141 rV32 r F+2 r r r r r r r r r rV4 r F+0 r rV11 r C+1 r rV31 r F+2 r rV31 r F+2 r rV83 C+4V3 B6V99 D9V95 G9V97 C8 rV70 rV86 D+1V1 rV255 rV255 rV255]

$$ALL
  [rV255 rV255 A+9V228 rV1 A+16V239 rV1 C+6V120 C0V2 F10V24 C0V255 G1V1 A+20V250 G14V29 D0 F+12V14 F+0V4 D0V178 B20V254 D+19V133 D20 D+5V195 F1V246 A+1V240 C+1V1 F10V253 D1V49 A20V236 F+1V146 C21V233 D17V24 C+7V104 A18V217 B10V131 G+15V173 D13V173 E19V242 C+17V201 C+18V12 E6V158 G2V196 C+5V228 A+1V252 A17V123 A+16V231 B20V51 C2V242 F+11V65 F+17V21 F5V173 B17V161 F+19V248 D20V21 F9V238 G19V1 A15V236 F14V62 A2V29 F+17V167 D20V149 F17V14 rV229 E2V242 A+13V149 F4V211]

$$ALL
  [B4V188 D18V8 B1V191 A20 G16V107 G+3V249 G+17V84 F+0V228 A17V206 G+19V34 A+19V23 A+4V247 A+5V190 G+3V233 G+10V248 A2V232 C+5V116 D1V49 A4V175 C20V43 A10V87 C21V32 D+15V144 C+18V70 C+8V70 B0V2 A+19V120 A+2V248 G+6V73 D18V45 D12V152 G18V18 D+3V195 F2V48 A+12V173 A+19V65 A12V160 A+19V65 F+11V131 A3V191 G3V74 rV32 A15V136 G+3V220 C1V36 F1V10 G+10V194 C+19V28 C15V233 F4V6 B11V163 A+18V34 D3V57 A+3V184 F+5V10 A1V245 F+19V248 A1V29 G20V178 G20V17 C+2V155 A19V18 D+0V247 D+0V226]

$$ALL
  [C1V30 A+20V3 C19V147 G+20V26 F7V184 A3V248 D16V249 C20V6 B13V193 C+2V13 D+11V123 D+19V37 rV55 D+0V232 F17V202 G1V52 G+11V154 B18V255 B0V67 F+0V1 D+14V150 C21V29 F15V199 D0V211 A+13V32 C+20V14 D+18V163 D19V59 G+15V17 F3V243 B8V12 F+0V14 B11V119 G1V255 C18V5 A+20V243 G+13V165 C20V39 B18 G+0 B18V173 D+19V4 A19V253 E6V50 rV107 A+8V84 rV172 G5 r rV255 rV255 rV255 rV255 rV6 r E0V6 r D+0V6 r F+0V5 r G+0V7 r C+0V3]

$$ALL
  [r rV3 r C+0V4 r D+0V7 r D+0V6 r F0V5 r G+0V5 r G0V9 r A+0V12 r A+0V13 r F+1V21 r A1V21 r F+1V19 r E1V17 r D+1V10 r G+0V6 r F0V3 rV255 rV253 rV255 G20V250 rV255 A+19V241 rV255 F+17V151 D+1V29 G+3V40 D20V238 D+10V119 B20V2 C6V197 D1V14 D+7V164 G19V238 C+8V113 F+0V2 F8V3 A+20V254 A17V77 F20V245 C5V135 C0 D+20V13 D+20V243 G15V117 D+20V245 C12V12 F+20V243 B14V190]

$$ALL
  [F+19V230 C2V200 C0V244 A+20V41 rV7 A+8V77 C+18V250 C+15V201 F+19V196 A+7V6 F3V47 A+11V147 A13V131 A7V112 B6V109 D5V23 C19V206 C0V255 G10V131 C9V151 B2V60 G15V79 D+0V209 A+16V165 G+18V11 G+18V142 B2V21 rV31 E13V150 A14V251 A0V23 G+6V128 G+1V20 D12V42 G+2V28 G+14V211 D+1V20 B3V183 C+3V47 F+3V144 D2V32 F10V73 D+3V58 C+14V57 B4 D+14V27 A3V48 B5V109 A3V38 E7V72 A5V89 G13V104 B4V81 A+8V57 B7V72 A13V149 E7V96 G9V115 F+6V87 A9V220 C7V75 A4V59 F+7V89 A+4V159]

$$ALL
  [F+6V87 C+5V171 A+7V97 D+1V42 G+5V78 C4V187 G+5V82 D1V8 A+5V73 D15V220 D+7V84 D+0V129 F6V82 D20V172 B6V74 C+11V172 F4V66 F12V214 C5V55 D19V183 A4V53 C+11V141 G+3V48 F+9V14 G+2V30 E6V253 B2V20 D+19V34 E1V32 B14V198 A+0V10 F12V249 rV244 A9V104 G+19V248 D+8V218 D0 E14V223 C17V220 D12V76 C19V235 A+20V13 C+18V214 A+18V83 G18V214 B12V217 G16V195 G11V172 C15V183 A8V177 C14V175 A12V84 F+12V142 A12V149 B14V169 F15V163 G11V147 A13V26 A+12V147 F+3V38 C+12V139 E5V37 F12V133 D+0V63]

$$ALL
  [G10V128 G+3V147 F+11V128 C0V58 G10V128 F+2V13 G10V128 A+2V45 G10V128 A+4V62 G10V128 F6V82 G10V128 C+8V102 G10V128 A9V122 G10V128 F11V142 G10V128 C+13V162 G10V128 A14V182 G10V128 F16V202 G10V128 C+18V222 G10V128 A19V240 G10V128 B20V13 G10V129 G3V252 G+10V128 G+18V136 G10V129 G+9V1 F11V149 C0V165 D+12V133 C20V192 B12V160 A17V236 E14V169 E12V222 C+15V173 D+5V188 G+15V167 B20V74 F+17V209 C+19V100 G15V200 F10V224 C17V212 A1V119 F+18V214 G20V54 C+20V247 A15V205 B19V248 A+1V120 A+0V245 D+15V226 A1V29 E15V128]

$$ALL
  [G2V24 F17V132 F4V32 A+16V82 C5V55 A10V111 B4V86 C+3V76 A+6V80 F+18V255 F+7V108 C1V60 G8V99 D+5V128 G+8V90 D18V224 F+10V115 rV255 E10V127 rV255 F+10V127 rV255 F+10V127 rV255 F+10V127 rV255 F+10V127 rV255 F+10V127 rV255 F+10V127 rV255 F+10V127 rV255 F+10V127 rV255 F+10V127 rV255 F+10V127 rV255 F+10V127 rV255 F+10V127 rV255 F+10V127 rV255 F+10V127 rV255 F+10V127 rV255 F+10V127 E20V241 F+10V127 G+18V221 F+10V127 C17V201 F+10V127 E15V181 F+10V127 A13V162 F+10V127 C+12V142 F+10V127 F10V122]
