
$OPM,

!ALL

$Inst1,
$Inst2,
$Inst3,
$Inst4,
$Inst5,
$Inst6,
$Inst7,
$Inst8,
$Inst9,
$Inst10,
$Inst11,
$Inst12,
$Inst13,
$Inst14,

$$ALL
  [r D+5 D+5 D+5 D+5 D+5 D+5 D+5 r r r r r r r r r r r r r r r r r r r r r r r r r r r r r r r r D+18 C0 C0 r C0V240 rV7 E5 G0 rV131 rV9 C21 A0 rV205 rV11 G+11 A+0 rV234 rV13 G1 C+1 rV205 rV14 B19 D1]

$$ALL
  [rV63 rV15 C2 D+1 rV5 rV17 B2 E1 rV78 rV17 C9 E1 rV226 rV18 A+1 F+1 rV2 rV22 C+9 A1 rV40 rV23 A13 A+1 rV220 rV23 r B1 r rV24 D13 B1 rV208 rV24 C+20 C2 rV159 rV26 B9 C+2 rV8 rV27 D3 D2 rV84 rV27 G11 D2 rV251 rV28 G+2 D+2 rV20 rV29 C+20 F2 rV152 rV30 B3 F+2 rV46 rV32 B16 G+2]

$$ALL
  [rV124 rV34 F+15 A2 rV78 rV35 C15 A+2 rV106 rV36 A+11 B2 rV185 rV36 C2 C3 rV239 rV37 F8 C+3 rV203 rV39 A11 D3 rV184 rV40 D+8 D+3 rV231 rV41 G5 E3 rV197 rV41 G+18 E3 rV53 rV42 D9 F3 rV153 rV42 B18 F+3 rV186 rV44 E7 G3 rV243 rV46 G+5 A3 rV137 rV46 G+13 A3 r D0V1 E0V7 G+0V8 F+0V7 F+0V7 A+0V13 B0V17]

$$ALL
  [B0V12 B0V12 D1V11 G1V21 C0V2 C+0V4 F+0V8 F0V6 G+0V6 F0V11 B0V12 C1V12 B0V12 C1V12 D1V17 G1V1 D+0V3 F0V8 F+0V7 G0V9 F+0V7 B0V14 C1V11 B0V12 B0V15 D1V17 D+1V21 C+0V4 D+0V6 F+0V10 C1V15 F1V18 F+1V21 G+1V21 D+2V30 B1V26 F+2V31 A2V36 rV2 C0V2 C0V1 C+0V6 C+0V1 C+0V2 G+0V7 B0V13 D+1V18 G+1V21 F+0V23 C+2 D0V5 F+0V9 A0V9 G+0V9 G+0V10 B0V12 C+1V15 C1V13 C+1V16 C1V17 G1V22 C0V1 D0V3 D0]

$$ALL
  [r r r rV128 r C0 rV4 C0 r rV175 r rV78 G2V67 C+9V105 A+3V117 D9V114 B9V49 r rV128 r rV34 r C0V1 rV255 D+17V2 r D+0V208 rV255 D+17V7 r G+0V208 rV255 D+17V12 r C+1V208 rV255 G18V1 r D0V224 rV255 G18V6 r G0V224 rV255 G18V11 r C1V224 rV255 G18V1 r rV3 F0V6 F0V6 F0V6 F0 rV228 rV76 F+4 G8V112 D+9V61 D8V111 A+6V108 A0V117 D9V67]

$$ALL
  [D8V61 C+9V65 G+8V108 A+8V102 F+9V10 G5V82 rV1 rV14 rV5 G+0V6 B0V2 C6V11 r r C+0V65 A6 r F6V50 rV232 rV65 D6V99 E6V179 rV29 r E2V26 A+1V20 E1V15 A+0V9 F0V4 C+0 r C0 D2 r rV18 D+5 C1 r rV9 D+5 D+0 r rV254 A+15V255 A20V255 rV191 rV244 A+15V255 B19V255 rV191 rV234 A+15V255 C+19V255 rV191 r C0 r C0V255 C6V83 r E0V78 rV110 E8V77 r]

$$ALL
  [r C0V30 D2V26 A+1V22 G1V18 D+1V14 B0V10 G0V7 E0V4 D0V1 E0V255 rV24 D+5 F+2 r rV2 r C0 C0V255 r F6V78 G+14 r A+0V76 F+8V83 F9 G12V8 G7V255 rV31 E2V28 D2V27 C+2V25 B1V23 A1V22 G+1V20 F+1V19 F1V17 D+1V15 C+1V14 C1V12 A+0V10 A0V9 G0V7 F0V6 E0V4 D0V2 C0V1 E0V255 rV24 D+5 F+2 r rV2 r C0 C0V255 r F6V78 G5 r G+0V79 C+9V72 rV65 G0]

$$ALL
  [rV1 F+2V28 A1V18 C+0V255 rV24 D+5 C+0V255 rV1 G+5V73 C+4 D+19V5 E5 F+9V114 E5 C+0V255 C0V1 D7V17 r rV1 rV1 rV78 A+6V52 r F6V5 G+5V83 E5 D0V255 C0V1 D7V17 r rV1 rV1 rV78 A+6V54 r F6V7 G+5V83 rV65 G0V3 rV1 D0V87 r r F0 r C6V83 r E0V78 rV114 E6V36 rV16 r F+2 r r C+0V255 C0V1 G+5V73 C+4 D+19V5 E5 A+9V105 rV65 G0V2]

$$ALL
  [rV1 rV1 r rV78 A+6V87 r F6V14 C8V111 F+4V104 F9 C+3V8 F0V255 rV31 D+2V26 r C0V4 D0V255 C0V1 D7V17 r rV1 rV1 rV78 A+6V87 r F6V14 G+8V111 F+4V104 F9 C+3V8 F0V255 rV31 D+2V26 r C0V3 D0V255 C0V1 D7V17 r rV1 rV1 rV78 A+6V89 r F6V17 G6V114 D8V32 G8V65 rV65 G0 rV1 F+2V29 C+2V3 r F+0V3 rV1 rV87 r r C0 r C6V83 r E0V78]

$$ALL
  [rV114 G2V116 C8V100 G9V32 D+9V77 r r C0V30 D2V1 rV1 rV1 G0V1 r rV83 r r C0 rV69 F6V50 rV232 rV65 E6V110 G2V116 E5V112 E5 rV255 C0V1 E2V27 E0V255 r A0V3 rV1 rV87 r r C0 r D7V86 r r rV31 r r r r r r r r r r r r r F+2 r rV31 r F+2 r rV31 r F+2 r]

$$ALL
  [rV31 r F+2 E5V69 r r r r r rV3 r E0 r rV8 r A0 r rV13 r D1 r rV18 r G1 r rV23 r C2 r rV28 r F2 r C+7V141 rV32 r F+2 r r r C0 r rV5 r A+0 r rV16 r F+1 r rV12 r D1 r rV20 r C2 r rV30 r F+2 r rV87 G+5]

$$ALL
  [r r r rV30 r D+2 r rV25 r A+1 r rV20 r F1 r rV15 r C1 r rV10 r G0 r rV5 r D0 r r rV65 G0 r B14V80 F6 rV1 F+2V5 rV80 F6 rV2 F14V65 G6V84 r D0 E0V80 F6 rV4 D0V5 E5V78 r rV3 E11V67 D0V5 B5V137 E0V80 F6 rV6 D0V5 F+5V145 E0V3 rV65 E8 r D5V128 D0V5 D0V5]

$$ALL
  [D0V5 D5V129 E0V1 D5V1 D5V1 D6V129 E0V3 G10V180 E0V180 E0V180 E0V3 G+10V67 C0V3 C0V3 C0V3 G+10V82 G6V84 r G0 E0V1 D5V1 D5V1 D6V129 E0V3 G10V180 E0V180 E0V180 E0V3 G+10V68 C0V3 C0V3 C0V3 G+10V68 C0V3 C0V3 C0V3 G+10V67 D0V5 E5V78 r rV3 G10V180 E0V180 E0V180 E0V3 G+10V63 C0V3 C0V3 C0V3 G+10V65 D0V5 B14V70 B14V70 B14V82 D0V5 G5V1 G5V1 G6V129 E0V3 rV65 F+8 r D5V128 D0V5]

$$ALL
  [D0V5 D0V5 D5V129 E0V1 D5V1 D5V1 D6V129 E0V3 G10V180 E0V180 E0V180 E0V3 G+10V65 B14V65 B14V77 D0V5 D6 E0V80 F6 rV11 F+0V5 G6V84 r B0 E5V78 r rV3 rV65 F0 r G6V84 r E1 E5V78 r rV255 B6V6 r rV80 F6 rV19 D0V5 E5V78 r rV255 B6V34 r rV70 C13V30 E2V4 D+0V129 G+10V25 B1V4 G6V84 r G+1 G+10V21 G1V4 D+0V129 G+10V16 D1V4 D+0V129 G+10V11 A0V4]

$$ALL
  [D+0V129 rV65 E2 r F0V4 D+0V129 G+10V2 C0V4 G0V255 B6V8 rV1 rV180 E5V78 r rV31 D+2 G0V4 G0V8 G0V18 G0V22 G0V36 G0V50 G0V56 G0V66 G0V72 G0V84 G0V96 G0V100 G0V112 G0V116 G0V120 G0V128 G0V130 G0V132 G0V134 G0V136 G0V138 G0V141 G0V146 G0V151 G0V159 G0V167 G0V174 G0V185 G0V195 G0V216 G0V228 G0V255 G0V228 G0V216 G0V195 G0V185 G0V174 G0V167 G0V159 G0V151 G0V146 G0V141 G0V138 G0V136 G0V134 G0V132 G0V130 G0V128]

$$ALL
  [G0V120 G0V116 G0V112 G0V100 G0V96 G0V84 G0V72 G0V66 G0V56 G0V50 G0V36 G0V22 G0V18 G0V8 G0V4 E5V78 r rV27 G10V27 G10V27 G10V27 G10V27 G10V27 G10V27 G10V27 G10V27 G10V27 G10V27 G10V27 G10V27 G10V27 G10V27 G10V27 G10V27 G10V27 G10V27 G10V27 G10V27 G10V27 G10V27 G10V27 G10V27 G10V27 G10V27 G10V27 G10V27 G10V27 G10V27 G10V27 G10V27 G10V27 G10V27 G10V27 G10V27 G10V27 G10V27 G10V27 G10V27 G10V27 G10V27 G10V27 G10V27 G10V27 G10V27]

$$ALL
  [G10V27 G10V27 G10V27 G10V27 G10V27 G10V27 G10V27 G10V27 G10V27 G10V27 G10V27 G10V27 G10V27 G10V27 G10V27 G10V27 G10V27 G10V255 B6V70 rV1 rV96 rV99 D+0V103 G0V99 F1V103 A1V104 B2V103 C+4V104 G4V108 F5V104 B5V108 B6V111 B7V108 D+8V111 D+9V115 G9V111 B9V115 G10V116 A10V115 B10V116 C+11V120 D+11V116 F11V120 G+11V123 C+12V127 F+12V123 D13V120 A+13V116 F14V115 E15V111 D16V108 B17V103 B18V96 rV99 B18V103 B17V99 D16V103 E15V104 F14V103 A+13V104 D13V108 F+12V104 C+12V108 G+11V111]

$$ALL
  [F11V108 D+11V111 C+11V115 B10V111 A10V115 G10V116 B9V115 G9V116 D+9V120 D+8V116 B7V120 B6V123 B5V127 F5V123 G4V120 C+4V116 B2V115 A1V111 F1V108 G0V103 D+0V80 F6 rV4 D2V10 G+10V101 D0V10 F+8V141 G+0V3 C11V108 D0V10 D9V129 A0V80 F6 rV5 D0V10 E8V133 A0V3 G+11V104 D0V9 G8V129 A0V3 C11V103 G6V84 r F0 G+0V128 D0V9 D8V129 G+0V3 G+10V99 D0V10 F+8V133 A0V3 C11V103 D0V10 E5V78 r rV3 G+10V99 D0V9 D8V133 G+0V3 G+10V104 D0V9]

$$ALL
  [G8V129 A0V3 C11V103 G6V84 r G0 G+0V3 C11V99 D0V9 D8V129 G+0V3 G+10V106 D0V9 G8V129 G+0V3 rV65 G+4 C0 D8V129 G+0V3 G+10V99 D0V9 D8V129 G+0V3 C11V106 D0V9 G8V129 G+0V3 rV65 E4 C0 D8V129 G+0V3 G+10V99 D0V9 D8V129 A0V3 C11V96 D0V10 E8V133 A0V80 F6 rV11 F+2V11 D+9V80 F6 rV12 rV65 B0 C0 A7V29 rV65 B0 C0 A7V31 rV65 F0 C0 G6V84 r D+1 E5V78 r rV255]

$$ALL
  [B6V30 rV1 rV4 D+0V129 G+10V27 C+2V4 D+0V129 rV65 E4 C0 A1V4 D+0V129 G+10V18 E1V4 D+0V129 G+10V13 B0V4 D+0V129 G+10V8 F+0V80 F6 rV20 D+0V129 G+10V4 D0V4 D+0V129 rV65 G0 C+0 B14V80 F6 rV1 D2V9 rV65 F0 C+0 G6V84 r D0 A0V80 F6 rV4 D0V9 E5V78 r rV27 G10V137 F0V3 E11V72 D0V6 E5V78 r rV3 E11V67 D0V6 F+5V255 B6V101 rV2 rV63 C0V3 C0V3 C0V3 G+10V63 D0V6]

$$ALL
  [B14V63 B14V63 B14V75 D0V6 F+5V128 D0V6 D0V6 D0V6 G5V129 F0V1 F+5V1 F+5V1 F+6V129 F0V80 F6 rV8 D0V6 B14V63 B14V63 B14V75 D0V6 D5V128 D0V6 D0V6 D0V6 E5V129 E0V3 D0V5 D0V5 D0V5 G5V128 D0V5 D0V5 D0V5 F+5V129 E0V80 F6 rV9 D0V6 B14V63 B14V63 B14V75 D0V6 D5V128 D0V6 D0V6 D0V6 E5V129 F0V1 A5V1 A5V1 A6V129 F0V3 C0V3 C0V3 G+10V68 D0V5 E5V78 r rV3 G10V180 F0V180 F0V180 F0V3]

$$ALL
  [G+10V63 D0V6 F0V180 F0V180 F0V3 G+10V72 C0V3 C0V3 C0V3 G+10V72 D0V6 D0V6 D0V6 E5V129 F0V3 rV65 A0 C+0 A5V31 E5V78 r rV255 B6V9 rV2 rV58 G6V84 r C+1 E5V78 r rV255 B6V6 rV2 rV80 F6 rV18 D0V6 E5V78 r rV255 B6V34 rV2 rV70 C13V30 E2V4 D+0V129 G+10V25 B1V4 G6V84 r G1 G+10V21 G1V4 D+0V129 G+10V16 D1V4 D+0V129 G+10V11 A0V4 D+0V129 rV65 C+2 C+0 F0V4]

$$ALL
  [D+0V129 G+10V2 C0V4 G6V84 r r rV65 B0 D0 D5V31 rV65 A0 D0 D0V6 E5V78 r rV3 rV65 G+0 D0 G5V255 B6V201 rV3 rV101 G10V3 D0V8 G0V108 D9V3 D0V8 G0V111 F+9V3 D0V8 G0V110 A8V3 D0V8 G0V113 F+9V3 D0V8 G0V115 A9V3 D0V8 G0V125 C+10V3 D0V8 G0V111 B8V3 D0V8 G0V115 G9V3 D0V8 G0V96 D8V3 D0V8 G0V106 F+8V3 D0V8 G0V110 E9V3 D0V8 G0V102 A8V3 D0V8 G0V80 F6]

$$ALL
  [rV6 D0V8 G0V108 G8V3 D0V8 G0V111 F+9V3 D0V8 G0V103 A8V3 D0V8 G0V113 C+9V3 D0V8 G0V115 A9V3 D0V8 G0V118 C+10V3 D0V8 G0V104 B8V3 D0V8 G0V115 D9V3 D0V8 G0V116 B9V3 D0V8 G0V127 F+8V3 D0V8 G0V110 E9V3 D0V8 G0V113 F+9V3 D0V8 G0V122 F+10V255 B6V8 rV3 rV180 E5V78 r rV1 G6V84 r G+0 G10V31 G+0 G0V86 D0V8 G0V3 D0V8 G0V92 D0V8 G0V95 B7V29 G0V103 A8V255 B6V69 rV3 rV108]

$$ALL
  [G+18V24 B1V34 D+0V138 rV104 F5V3 G+10V101 F5V24 F+11V98 rV99 D0V8 D8 rV101 G6V84 r A+0 G+8V3 G10V103 D0V8 A8V137 G0V110 D2V8 G+10V94 D0V8 C+8 G0V3 rV98 D0V8 F+8V255 B6V66 rV3 rV108 F5V226 G+18V129 F+8V27 D+0V129 G0V3 rV110 B8V3 A+10V4 D2V8 D0V8 A8V129 G0V80 F6 rV13 D0V8 G+9V3 G10V117 D0V8 G0V27 G+18V129 G0V3 G+10V118 D0V8 G0V3 D0V8 B8V3 G10V105 A8V255 B6V93 rV3 rV104 F5V226 G+18V137]

$$ALL
  [G0V115 G+9V3 G10V117 D0V8 B9V225 D0V8 G0V3 rV122 D0V8 F+9 G0V3 rV110 D0V8 B8 G0V98 E5V78 r rV27 G+18V141 G0V106 D0V8 B14V3 G+10V113 A2V3 D0V8 G+9V129 G0V1 D0V8 B8V3 rV65 G+5 D0 D0V8 G+8V129 G0V106 D0V8 G+9V3 G10V113 C0V27 G+18V131 F+8V27 D+0 rV111 D0V8 A9V255 B6V73 rV3 rV125 F5V3 G+10V122 D0V8 C+10 G0V180 G0V34 A9V129 G0V27 G+18V137 G0V7 F2V103 D+0V4 D2V26 E5V78 r rV3]

$$ALL
  [D0V8 G0V98 D7V3 D0V8 G0V110 A8V3 D0V8 G0V94 F+7V3 D0V8 G0V94 C+8V3 D0V8 G0V98 C+9V3 D0V8 G0V98 A7V3 D0V8 G0V94 C+8V3 D0V8 G0V98 E8V3 D0V8 G0V103 E8V3 D0V8 G0V91 A7V3 D0V8 G0V94 C+8V3 D0V8 G0V106 F+8V3 D0V8 G0V91 G6V84 r F+1 G0V91 A7V3 D0V8 G0V94 C+8V3 D0V8 G0V99 C+8V3 D0V8 G0V87 F+7V3 D0V8 G0V91 A7V3 D0V8 G0V103 D8V3 D0V8 G0V87 B6V3 D0V8 G0V84 D7V3]

$$ALL
  [D0V8 G0V106 F+8V3 D0V8 G0V91 D7V3 D0V8 G0V99 E7V3 D0V8 G0V113 D9V3 D0V8 G0V99 B7V3 rV65 B0 D0 B8V30 rV65 F0 D0 G6V84 r D2 G0V225 B1V102 B14V27 D+0V129 G0V3 E11V89 D0V8 E5V78 r rV27 G+18V129 F8V1 D2V8 G+10V89 D0V8 C7V133 G0V80 F6 rV29 D2V8 G+10V4 C0V129 G0 A6V133 G0V3 C11V89 G6V84 r F2 G0V18 D+0V149 D+0V129 G0V3 C11V92 D0V8 G7V128 rV65 G+3 D0]

$$ALL
  [G7V225 B1V102 B14 A7V225 D0V8 C8V133 G0V3 G10V180 E5V78 r rV27 G+18V129 F8V25 rV27 G+18V133 G0V3 C11V113 D0V8 E5V78 r rV3 B1V66 D+0V149 D+0V129 G0V225 D0V8 B8V225 D0V8 E5V78 r rV3 B1V18 D+0V149 D+0V129 G0V18 D8V129 G0V3 G+10V92 C+4V80 F6 rV26 B1V102 E2V28 D+0V4 B1V23 D+0V4 F+1V18 D+0V4 C+1V13 D+0V4 G+0V8 D+0V4 D+0V3 D+0V4 G6V84 r F+2 rV80 F6 rV32 F+2V12 B11V80 F6 rV33]

$$ALL
  [rV65 F0 D0 G6V84 r A+2 E5V78 r rV162 G+10V28 D2V4 D+0V129 G+10V23 E5V78 r rV4 D+0V129 G+10V19 F1V4 D+0V129 G+10V14 C1V4 D+0V129 G+10V9 G0V4 G6V84 r C+3 G+10V5 D+0V4 D+0V129 G+10 E5V78 r rV7 A1V99 F+0V4 A8V25 D+0V3 F+0V4 E9V7 D+2V116 A9V29 D+0V120 D0V4 D+0V3 rV65 D+8 D+0 D10V31 D2V7 F+2V7 rV118 rV115 D0V27 D0V31 D+2V255 F+0V255 F+0V3 A8V3 G+8V26 D2V7 F+2V7 rV99]

$$ALL
  [rV98 D0V27 D0V31 G+1V255 E5V78 r rV255 B6V97 rV4 rV123 D2V7 F+2V7 rV118 rV115 D0V27 D0V31 D+2V255 F+0V255 F+0V3 A8V3 G+8V26 D2V7 F+2V7 rV99 rV98 D0V27 D0V27 D0V255 B6V65 rV4 rV7 A1V99 F+0V4 A8V25 D+0V3 F+0V4 E9V7 D+2V116 A9V29 D+0V120 D0V4 D+0V3 rV65 F0 D+0 G6V84 r F0 E5V78 r rV7 F+2V122 rV121 D0V27 D0V31 E2V255 F+0V255 F+0V3 G9V3 F+9V27 D2V7 F+2V7 rV112 rV111]

$$ALL
  [D0V27 D0V31 A+1V255 F+0V255 F+0V3 A8V3 G+8V3 G8V3 F+8V3 F8V3 E8V3 D+8V3 D8V3 C+8V3 C8V3 B7V3 A+7V3 A7V3 G+7V3 G7V3 G6V84 r G0 E5V78 r rV255 B6V6 rV4 rV80 F6 rV12 rV65 B9 D+0 D10V31 D2V7 F+2V7 rV118 rV115 D0V27 D0V31 D+2V255 F+0V255 F+0V3 A8V3 G+8V26 D2V7 F+2V7 rV99 rV98 D0V27 D0V31 G+1V255 B14V129 G0V3 C11V92 D0V8 E5V78 r rV128 G0V129 G0V18 B14V3 G+10V89]

$$ALL
  [D0V8 C7V255 B6V35 rV4 rV3 G+10V80 F1V1 D0V8 A6V133 G0V3 rV65 A+2 D+0 D0V8 D7V225 C0V129 G0V3 C11V92 D0V8 E5V78 r rV128 G0V27 G+18V153 G+10V94 F+5V3 C11V97 D0V8 E5V78 r rV128 G0V27 G+18V153 G+10V104 A2V3 G+10V108 D0V8 E5V78 r rV128 G0V27 G+18V153 G+10V106 G+18V132 G0V27 G+18V137 G0V80 F6 rV19 B10V99 F1V1 D2V8 C11V99 D0V8 D8V129 G0V50 E5V78 r rV158 D+0V4 G+1V20 D+0V4 D+1V15 D+0V4]

$$ALL
  [A+0V10 D+0V4 F0V5 D+0V4 C0 E5V78 r rV24 rV65 F0 D+0 G6V84 r A+1 E5V78 r rV255 B6V6 rV4 rV80 F6 rV26 C+11V20 F+1V4 D+0V129 G+10V15 C+1V4 D+0V129 G+10V10 G+0V4 D+0V255 B6V26 rV4 rV6 E0V4 D+0V129 G+10V1 rV80 F6 r D0 B8V132 rV65 F0 E0 G6V84 r C+0 E5V78 r rV255 B6V37 rV5 rV72 C11V22 B5V24 C+2V7 D2V7 D+2V4 D+0V255 B6V22 rV5 rV72 G+11V72]

$$ALL
  [D0V3 B5V255 B6V41 rV5 rV72 D0V3 B5V141 D0V3 rV60 D0V1 B4 C0V80 F6 rV7 D0 B7V129 C0V3 G+10V96 D0V1 B7V129 rV3 G+10V96 D0V1 B7V129 D0V3 G+10V96 D0 E5V78 r rV3 G+10V96 D0 B7V129 rV3 G+10V96 D0V1 B7 rV3 G+10V96 D0 B4V129 C0V3 G+10V60 D0V1 C0V80 F6 rV9 F+0 D0V3 B8V129 D0V3 G+10V108 D0V1 B5V129 rV3 G+10V108 D0 B5V129 rV3 G+10V72 G6V84 r A0 rV3]

$$ALL
  [G+10V108 D0V3 B5V129 rV3 G+10V72 D0 B5V129 C0V3 G+10V108 D0V1 B8V129 C0V3 rV65 A+2 E0 F+0V1 C+8V7 D2V98 C+8V28 C0V98 D0V1 E5V78 r rV31 D2 G0V4 G0V8 G0V18 G0V22 G0V36 G0V50 G0V56 G0V66 G0V72 G0V84 G0V96 G0V100 G0V112 G0V116 G0V120 G0V128 G0V130 G0V132 G0V134 G0V136 G0V138 G0V141 G0V146 G0V151 G0V159 G0V167 G0V174 G0V185 G0V195 G0V216 G0V228 G0V255 G0V228 G0V216 G0V195 G0V185 G0V174 G0V167 G0V159]

$$ALL
  [G0V151 G0V146 G0V141 G0V138 G0V136 G0V134 G0V132 G0V130 G0V128 G0V120 G0V116 G0V112 G0V100 G0V96 G0V84 G0V72 G0V66 G0V56 G0V50 G0V36 G0V22 G0V18 G0V8 G0V4 E5V78 r rV31 F+2V128 B8V149 rV3 rV65 C2 E0 B8V141 C0V3 C11V108 D0 E5V78 r rV3 E11V108 D0V1 B8V129 rV3 G+10V108 D0 B8V255 B6V29 rV5 rV84 D0V1 C+8V133 C0V3 G+10V96 G6V84 r E1 C+0V80 F6 rV18 rV65 F0 E0 G6V84]
