
$OPNA, $OPNA, $OPNA, $OPNA,

!ALL

@T200.00

$Inst1,
$Inst2,
$Inst3,
$Inst4,
$Inst5,
$Inst6,
$Inst7,
$Inst8,
$Inst9,
$Inst10,
$Inst11,
$Inst12,
$Inst13,
$Inst14,
$Inst15,
$Inst16,
$Inst17,
$Inst18,
$Inst19,
$Inst20,
$Inst21,
$Inst22,
$Inst23,
$Inst24,
$Inst25,
$Inst26,
$Inst27,
$Inst28,
$Inst29,
$Inst30,
$Inst31,
$Inst32,
$Inst33,
$Inst34,
$Inst35,

$$ALL
  [D+5 r r F1 r r r r r B8V99 G+9V101 B3V83 rV226 rV1 D+20 B10 B9 A6 A+15 F+18 B0 F17 C1 D+0 B16 A+5 F5 C12 G6 A+17 E0 G+7 F+4 C0 C+6 F14 A19 C+3 E3 A+4 D3 D+9 A+3 D+1 E7 E7 F16 D7 B0 B9 G12 G+8 E1 G+17 C+12 A+6 F+20 E5 F+3 D14 E20 D11 E10 D+5]
  [D+5 r rV162 r r r r r r F+6V105 C10V69 G2V111 C+0V1 F+1 A1 B1 C2 D2 F2 G2 A2 A2 B2 C3 C3 C+3 D3 D+3 E3 E3 F+3 G+3 A3 B3 C+4 D4 E4 F+4 G+4 A4 A+4 C5 D5 D+5 F5 G5 G+5 A5 B5 C6 D6 D+6 F6 F+6 G6 G+6 A6 B6 C7 C+7 D+7 D+7 E7 F7]
  [D+5 r rV17 r r r r r r C+9V108 D9V100 F9V98 rV1 rV11 rV204 rV174 rV130 rV132 rV238 rV25 rV160 rV93 rV133 rV162 rV26 rV201 rV62 rV7 rV174 rV47 rV119 r rV23 rV96 rV100 rV2 rV60 rV63 rV17 rV142 rV134 rV207 rV120 rV111 rV111 rV91 rV253 rV49 rV254 rV20 rV68 rV31 rV89 rV105 rV51 rV163 rV131 rV157 rV101 rV55 rV89 rV227 rV188 rV206]
  [r r A17 r r r r r G5V97 E6V109 D+4V56 D+6V86 r rV21 rV23 rV25 rV27 rV28 rV31 rV33 rV34 rV35 rV36 rV37 rV38 rV39 rV40 rV41 rV41 rV42 rV44 rV46 rV47 rV49 rV51 rV52 rV54 rV56 rV58 rV58 rV60 rV62 rV63 rV65 rV67 rV69 rV70 rV71 rV73 rV74 rV76 rV77 rV79 rV80 rV81 rV81 rV84 rV85 rV85 rV87 rV88 rV89 rV89 rV90]

$$ALL
  [C21 G20 A19 D+6 F+10 F0 F+16 C4 F+12 D+16 C+15 G1 E5 C0 F15 D10 G19 G+1 F+3 D11 A+10 F16 D+18 F+9 G+3 G+16 C+20 F6 D2 E11 F+0 D8 A+5 G16 B2 F2 A+2 G19 A15 C+3 D+6 C5 D+0V6 F+0V6 C1V13 G0V7 F+0V8 E0V10 G0V11 A+0V8 F0V6 F0V6 F0V7 C1V1 A+0V13 E1V19 C+2V33 D0V5 E0V14 G1V22 G2V24 F+0V9 A0V12 C+0V25]
  [F+7 G7 G+7 G+7 A7 A+7 A+7 B7 B7 C+8 C+8 D8 D+8 E8 E8 F8 F+8 G8 G+8 A+8 B8 C9 C+9 D+9 E9 F9 F+9 G9 G+9 A+9 C10 C+10 D10 D10 D+10 E10 F10 G10 G+10 A+10 B10 C+11 F0V7 F+0V7 F+0V7 F+0V7 A0V5 A+0V8 E0V12 A1V1 F0V6 G0V6 F0V6 D+0V7 F0V16 A1V24 A+2V26 C+1V7 F0V5 C2V26 C+2V25 B0V2 C1V14 D2V17]
  [rV78 rV144 rV38 rV207 rV216 rV81 rV8 rV107 rV26 rV92 rV238 rV151 rV217 rV68 rV247 rV185 rV120 rV184 rV185 rV150 rV41 rV105 rV187 rV215 rV157 rV102 rV168 rV246 rV182 rV131 rV189 rV23 rV158 rV6 rV184 rV222 rV57 rV140 rV171 rV202 rV116 rV3 F+0V7 F+0V7 F+0V9 E1V1 G0V11 C+1V16 F0V5 D+0V6 F0V6 F0V6 F0V6 D+1V9 G0V6 D2V28 D+2V27 E0V10 A+0V9 D2V28 A+2V1 C+1V16 G1V20 C+0V30]
  [rV91 rV92 rV93 rV94 rV94 rV95 rV96 rV96 rV97 rV98 rV99 rV99 rV100 rV101 rV102 rV102 rV103 rV104 rV106 rV108 rV109 rV110 rV112 rV112 rV113 rV114 rV115 rV117 rV118 rV120 rV122 rV123 rV123 rV124 rV124 rV126 rV127 rV128 rV130 rV132 rV133 rV1 F+0V7 A0V11 F+0V7 D+0V6 F0V7 F0V6 G+0V10 F0V6 F0V6 F0V6 F0V6 F0V12 C1V11 E2V31 C3V1 G+0V11 D1V17 B1V30 C+0V5 F0V7 A1V24 G+2V12]

$$ALL
  [C2V26 C1V15 D+1V15 F2V32 F3V1 C+1V15 F+1V21 F+2V33 D+0V6 F1V8 A+1V25 B2V27 G0V10 B1V12 G+2V35 A+2V37 B0V14 D1V17 C3V20 G3V1 C+1V16 B1V26 F0V40 C+0V2 r C4V83 C+4V83 D+4V83 r rV4 rV101 G9V109 G8V110 D9V32 G2V111 D9V105 G2V97 G2V111 C5V61 C5V40 E17V32 G10V178 G14V142 C+13V179 D+17V209 C12V190 A15V188 G10V176 D+17V208 D+17V208 E17V32 D+17V208 C15V208 G2V176 rV52 E4V48 r r r rV5 rV10 rV15 D+1V4 D+1V9]
  [B2V1 D1V16 G+1V23 A2V36 D+0V6 E1V9 A+1V25 B2V27 G0V10 G+0V12 D+2V30 F2V29 B0V14 D1V17 C+3V20 A3V1 E1V19 B1V25 F0V22 D+0V6 F+1V6 D+2V30 F+3V46 C+0V2 r C4V83 D4V83 D+4V83 rV128 C0 G2V111 G+9V105 G2V111 A+8V110 E8V116 G2V115 C+9V32 E8V116 C5V61 D+17V209 B8V105 D+17V32 B10V131 D+17V208 D+15V177 D+17V209 E17V209 D+17V208 D+15V143 G+15V184 E17V209 D+15V32 A15V191 D+17V208 F+5V109 r D5 r r r r r r r]
  [D+0V6 F+1V9 C2V25 D3V28 G+0V11 A0V13 D2V29 E2V28 B0V14 D1V14 E2V31 D3V1 E1V19 C+2V27 F+0V41 D0V5 F0V7 D+2V30 E3V32 F0V6 A1V9 G2V34 A2V36 C0V1 rV83 C+4V83 D4V83 D+4 r r rV121 G2V117 D9V107 G9V105 G2V121 E8V115 D9V100 G2V114 C5V61 C15V178 B8V41 D+17V208 D+17V208 G+15V190 G2V179 A11V208 E17V32 E15V208 E17V209 D+17V208 F15V190 G2V130 D+17V208 G10V180 D+8V114 rV128 r r C+0 F+0 B0 C0V16 F0V16 A+0V16]
  [G+0V11 A0V13 E2V31 F+2V30 C1V14 D1V14 D+2V30 D3V1 C+1V15 F+1V21 G2V10 D+0V6 F+0V8 F+0V7 G3V32 F+0V9 A1V12 G+2V39 D3V36 G+0V11 B0V14 C3V17 G+3V2 C0V1 C4V83 C+4V83 D4V83 r C0 rV140 G+8V115 C8V101 G+8V108 F+9V117 F9V110 G9V97 F+9V117 A0V61 C5V61 D+17V32 D+17V208 E17V208 E15V129 G2V129 G+15V131 G14V208 D+17V208 A14V131 G14V189 G14V189 G2V132 D+17V208 F15V190 D+17 F4V32 r rV63 r r r r r r r]

$$ALL
  [D+1V14 G2V3 G2V8 G2V13 B3V2 B3V7 B3V12 D+17V1 D+17V6 D+17V11 D+17 G18V5 G18V10 G18V15 F0V6 rV19 B8V48 G+8V82 D9V105 E8V61 C8V115 F+9V68 E8V48 D+6V71 F+9V111 G9V105 G9V117 E8V110 E8V116 C10V48 F+9V83 rV108 D9V107 C4V107 G+9V116 C7V100 C8V107 F+9V82 C8V110 A+6V108 G+8V105 F9V111 C10V101 C5V97 G9V115 C8V101 rV68 F+9V4 C+1V19 A6V102 r A2V68 r rV104 rV184 r C0V71 rV65 C+10V114 A+6V121 C+8V103 F0V16 r rV16]
  [r r r r r r r r r r r r r r F0V6 A5V65 G+9V116 E8V84 C5V114 G+9V10 G9V115 C8V61 E8V116 rV99 B8V99 C5V10 C9V108 G+5V112 G9V99 E8V116 G9V105 A+8V101 A0V110 G6V105 B8V82 E8V102 A0V101 E8V115 A0V70 A0V117 E8V101 G9V61 G9V117 E8V116 E8V97 A0V101 G7 G0V17 A+1V76 E8V99 G+0V18 D+0 C6V83 D+8 C1 r G12V69 A5V108 D+4 r rV65 r r r]
  [rV32 E0V32 A0V32 D1V32 D+0V48 G+0V48 C+1V48 D0V208 G0V208 C1V208 C+0V224 F+0V224 B0V224 C0 F0 r F+5V111 E8V49 A0V117 C4V85 G9V97 G9V115 F+9V97 D8V83 B3V105 C10V114 D+9V121 G9V61 B3V116 B8V97 B3 B3V99 A6V115 G+8V121 C5V114 F+9V10 G5V99 B3V116 A+5 D9V67 G+8V101 G+9V10 C+9V49 G9V116 B3V116 A+6V115 r G+9V115 D+8 E0V11 D9V100 r r F+3V8 r r F6V50 F9V105 r F6V12 G0V1 F0V8 r C0V3]
  [r r r r r r r rV255 rV255 rV255 rV255 rV255 rV255 C0V6 rV110 D9V107 C5V10 E8V80 G+8V108 C8V101 C5V10 E8V101 C5V10 C5V10 G9V101 F9V116 B8V116 B8V101 G9V101 C5V10 E5V146 G9V109 B6V109 F9V101 A0V111 F+9V65 C5V10 G9V117 D8V111 D8V61 A0V101 B8V105 D+9V97 D8V61 G9V101 G+8V61 rV66 rV10 D2V31 E2V83 D+0 C6V4 D0V78 D+1V255 r F4V8 rV187 G9V97 F+0V78 C8V115 rV1 r r F0V8]

$$ALL
  [A+0V13 B0V13 G+1V22 F+2V31 D+3V41 C4V50 A+4V60 G5V69 E6V78 D7V88 B7V97 G+8V106 F+9V116 D+10V125 D+13V78 G8V114 G2V110 D+15V172 rV4 D7V8 E5 C+8V103 r r r C+9V77 rV52 r G2V111 C0V255 D0V78 E8V32 G9V101 E6V12 G0 D0V78 r G14V108 rV7 G15V6 E5 G+9V104 C+9V110 E8V32 G+9V98 r rV78 D+9V110 rV2 r G+5V8 rV133 r rV1 E0V243 rV111 G0V1 C+0V8 r D+0V7 D0V78 G9V105 r C0V1]
  [G0V255 C+1V15 A+1V24 G+2V34 F3V43 D+4V53 C5V62 A5V71 G6V81 E7V90 C+8V99 B8V109 G+9V118 F+10V128 A+6V96 G2V105 rV65 r r G+5V73 G+8V100 C+9V110 rV2 r D1V111 r D+7V9 D0V78 E8V98 rV255 A+6V79 D9V104 E8V105 rV1 G0 rV97 r r r G+5V73 G9V97 F8V32 A+9V102 G2V111 G9V115 C0 A+6V40 C8V32 rV177 A+0V114 E0V255 G2V52 rV27 C0V4 C6V83 G+8V116 rV1 D+0V1 rV112 G0 rV117 G2V110 C0 G0V4]
  [C0V1 D+1V17 C+2V27 A+2V36 G+3V46 F4V55 D5 C6V74 A6V83 F+7V92 E8V102 C+9V111 B9V120 D+4 r G2V111 G0V2 r rV255 C+4 F8V32 E6V23 r F6V78 C+9V104 r G0V1 rV111 G+8 D+4 r G2V111 G+8V103 C0 C6V83 G2V101 C0V2 r rV255 C+4 G9V101 G2V104 G2V117 F9V97 F+8V77 D+4 r B8V101 F6V78 F8V98 rV12 r r rV52 r G2V105 F+1V4 G+0V255 rV254 C6V83 G9V98 E8V77 r D+0V255]
  [G+0V10 F+1V20 D+2V29 C+3V38 A+3V48 G4V57 F5V67 D6V76 B6V85 A7V95 F+8V104 E9V113 C+10V123 D+17 F6V27 G+8V116 rV133 r G0V134 F+15V3 G2V104 rV2 G0V54 G4 G2V101 C0 C6V83 D+9V116 B0V8 B0 F6V41 E8V97 E8V117 rV52 r C+9V77 rV133 r G0V212 F+15V3 A+9V111 C+8V103 G2V97 C8V112 r r F6V18 D+8V54 A8 G+8 B0V2 r rV3 G17V16 D0V78 rV65 F+0V255 C+0 rV52 r C8V98 r D0V255 G0V4]

$$ALL
  [rV6 E5 G2V105 rV120 F6V78 F+9V77 rV131 r rV1 G5V55 C6V83 G2V97 E6V15 D+4 r C10V99 D+1V255 r G1V255 G6V68 G+5V73 G+9V117 G+9V107 rV65 F6V78 F+9V32 B8V101 r A+6V133 D9V104 rV193 D+5 D+5 D+5 C0V5 F6V50 D+8V104 rV65 E0V255 G+2V8 E5 E6V14 G0V2 F+15V3 G2V80 C6V85 E6V164 rV56 rV40 rV60 D+0V4 E0V4 E0V5 C0 r G+5V73 C+9V104 r C0V1 rV179 F6V20 D9V121 r G1V255]
  [G+5V73 C8V104 E8 D+5V54 D9 r G10 r F13V149 rV52 r A+9V116 rV1 D+0 F6V15 E5 rV128 r rV162 C4V255 C+4 G8V115 F+8V103 E15V54 G+5 C9V97 E6V15 D+4 r G2V105 B9 D+2 C2 A+1 F4V8 rV187 G2V105 G0V1 rV1 G+5V73 G9V97 rV3 D+13 E5 B6V70 A+6V79 rV14 D+5 D+5 D+5 D+0V4 E0V4 rV5 A12V154 D4V255 C+4 F9V102 C0V3 C0V1 rV78 B8V99 E5 r D+0V1]
  [C+4 C10V98 D1V8 rV2 r r r r A10V118 G17V9 D0V78 G+9V32 r rV78 C8V115 C0V255 G0 r A+11V130 G0V148 F+15V3 G2V105 rV65 r r A+9V116 rV1 A0 F6V17 rV65 r r r r r rV65 D9V116 rV193 C0V255 C+4 G9V101 r G+5V73 G+5V83 D6V78 B6V69 rV4 A3 C+3 D0V255 A2V255 F+0V7 D+0V14 r G0V88 F+15V3 E6V40 C0V4 C0V9 A+6V106 D+8V114 C0V255 C0V2 C0V1]
  [F+15V3 G2V105 C0V255 rV82 E0V66 C0V2 rV255 rV8 D8V86 G0V240 rV112 B8V101 r A+6V121 G+8V104 C0V1 r r D9V99 rV3 E5 G2V101 G0V4 C13 D+2V99 G+9V32 r C0V78 E8V32 G0V1 rV41 rV26 rV24 r rV69 D8V111 G+8V116 B9 G0V8 F+15V3 F9V102 C+0V255 C+4 A6V32 C+4V33 C6V71 r r r C0V1 D+0V7 D0V4 rV4 G5V68 rV8 E5 rV9 r D+4 r F8V109 C0V1 F0V6 C0V1]

$$ALL
  [C0V1 G+5V73 G+8V32 r D+0V25 G17V5 rV48 rV69 C6V65 G2V65 rV1 B18 C+1 G16V1 E0 G0V243 rV101 rV2 r D1V115 r G5 F6V39 G2V119 E8 D+5 D+5 D+5 D+5 r r F9V97 C10V115 r C6V83 G2V105 D5V77 r r r D+4 r C10V97 D+1V255 r C0V255 D+13V78 G8V114 r r r G6V84 C1V255 G+10V79 r E1 rV65 D2V8 C15V35 r D+1V1 D0V16 D0V20 G6V84]
  [C0V255 C+4 B8V100 r C0V1 D0V3 C6V83 G2V81 E7V73 G2V72 r r r r r C6V83 G2V114 r F6V78 G2V105 r rV78 E8V32 G8V117 F7V8 C+4 C+2 B1 D0V255 r F+3V76 B8V32 C8V101 rV52 r G2V45 r D+1V255 r F0V255 rV11 F6V24 G9V101 rV101 r rV188 A+6V89 G2V110 A+0V13 r rV52 r B6V20 E0V3 D+6V3 r E1 rV65 D1V128 rV96 B7V129 B7V129 B7 r]
  [G0V136 F+15V3 D8V111 C0V1 E18V15 rV52 r A6V33 F+6V32 G+5V85 C+0 r G0V255 r rV52 r C+9V108 C1V54 F4 G+8V97 C0V1 A+6V155 D9V104 C9V99 E1V255 r r r C0V1 F6V78 D+8V97 G+9V32 E6V12 B6 D0V78 G+8V97 r rV244 r C+0V8 G+14V78 C9V108 C+9 F0 r D+4 r E6V52 r r A17V112 r r rV65 D2V8 F+6V3 r F+1 C1V255 D0V16 D+1V3 D+1V3 G1V3 F+0]
  [F12V8 E5 F+9V77 C+1V255 C+0V2 A6 D0V78 G+2V33 G2V72 E6V92 C11V1 r C11V1 r G17 D0V78 E6V13 r r D5V77 D+4 r G2V105 G2V97 rV120 rV28 rV25 rV23 C0V54 G+6 D9V116 G9V97 rV1 G0V97 rV109 G+8V107 C+0 C1 r D+0V4 A+6V102 C9V108 D+4V8 r r D+1V101 F6V11 rV16 r rV1 G0 C+0V96 rV3 E1 rV65 D2V8 A6V3 r B6V79 B7V129 rV96 G+10V96 G+10V96 G1V3]

$$ALL
  [G+10V96 D0V30 G+10V96 F2V181 r D0V20 D0V20 D0V16 E3 G+10V96 rV96 G1V3 A+0 D0V16 F3 D+1V3 G1V3 B7V129 B7V129 B7V129 B7V255 D0V20 G6V84 D0V30 E5V78 D0V20 B7V1 rV4 rV65 E5V78 G+6V255 D0V177 rV134 r rV65 D1V128 rV3 D0V23 D0V23 F2 A+1V3 r D0V23 B5 A+1V181 C0V3 D0V23 G+2 A+10V96 F6 B7V135 B7V33 C15V7 rV12 rV96 B7 B7V255 D0V18 D2V18 F1V35 A2V27 D2V18 rV3 G1V3]
  [D0V16 D0V30 D0V16 F2V3 B7V129 B7 B7V129 B7 r D0V16 G6V84 G+10V96 B5V133 B5V133 r C11V72 rV65 D+1V3 G1V3 D+1V3 B6V29 B7V137 r F2V108 r B7V128 B7V129 D2V26 A0 r B6V18 G0V255 G0V255 D+0 F+1 F+6V255 rV65 B8V133 B8 C0 G+11V96 rV134 B7V131 C0 A+1V181 G+10V96 D0V20 C0 D0V23 rV11 A+1V3 G+19V3 A+1V12 D0V23 D0V23 A+1V3 B6V98 F+11 rV130 D10V30 F2 rV181 rV96 A+10V96]
  [C15V96 B7V129 B7V129 rV65 D+1V3 G1V3 G1V3 F2V3 B7V129 B7 r G6V84 D+1V3 D+1V3 D0V16 D0V16 G+5 G+10V96 G+10V96 G+10V96 r G1V3 D1 D0V20 rV3 D0V30 D+1V3 G10V4 r rV35 rV1 E5V78 G+6V3 A6V3 C0 B6V10 F3 A+1V3 A+1V3 D0V23 D0V20 A+1V3 A+1V3 D0V23 A+1V181 D0V23 D0V23 B11V133 B7V129 C+11V96 G+10V96 G+2V181 F+0V80 B7 B7V3 rV96 rV1 F1V36 A+2V27 D2V18 F1V34 E5V78 D0V23 D0V13]
  [D0V16 G1V3 D+1V181 E6 G+10V96 G+10V96 G+10V96 rV65 D+1V3 G1V3 A0 r C11V72 rV65 B5V133 B5V129 r D0V20 D0V16 D0V20 rV96 rV96 G1V3 B0 G+10V96 B7V1 A+11V119 D2V26 B8V15 C+0V10 rV27 r G6V84 D2V8 C15V35 rV1 C0 rV108 rV65 B7V131 E5V78 A+10V96 rV65 B7V131 A+1V3 D0V23 rV65 A+1V3 G1V80 D0V23 B0V237 D0V20 F6 A+1V3 D0V23 D0V23 rV144 D11V30 F2 rV117 C9V30 r B7V129 C1V96]

$$ALL
  [D0V13 C0 rV16 D0V20 F1 B7V3 D0V23 A+1V3 F+1 B7V3 A+1V80 B11V255 G+11V96 rV116 rV65 B6V11 F6 E5V78 B6V10 F2 C15V101 r C15 B7 B7 B7 B7 B7 B7 B7 D0V21 D0V21 D0V21 G6V84 rV96 G+10V96 rV96 rV96 rV96 rV65 G+1V3 G+1V3 G+1V3 G+1V3 G+1V181 B7 B7V255 D0V21 D0V21 D0V21 D0V19 G+1V3 A+0 D0V21 rV12 rV96 rV96 rV96 A0V12 C1V12 D1V66 C1V12 B0V13 G6V84]
  [C1V3 B11V137 rV65 F2V96 F2V3 D0V30 A+1V96 G+10V96 B7V157 rV96 F6 B6V50 D0V20 D+5V24 G+0 rV2 rV1 r rV2 C+0 C0V3 rV59 rV65 G+1V3 G+1V3 G+1V3 G+1V3 G+1V3 G+1V3 G+1V80 B7 B7 B7V131 r D0V21 D0V21 D0V21 D0V21 D0V21 C+11 rV96 rV96 rV96 rV96 G1V3 G+1V3 B6V99 B7 B7 B7 B7V135 rV96 B8 B8 D0V21 D0V21 D0V21 D0V21 G2V15 G2V15 G2V15 G4V4 D1V59 r]
  [rV65 G1V80 D+1 G6V84 A+10V96 F2V3 D0V23 G6V84 A+1V3 D0V20 rV20 rV1 B11V143 A10V121 C0 rV79 B10V112 rV27 rV181 E8V130 G10V181 D+0V4 C11 rV96 rV96 rV96 rV96 rV96 rV96 F6 G+1V3 G+1V3 G+1V3 G0 B7 B7 B7 B7V129 B7 C+0 D0V21 D0V21 D0V21 D0V21 rV96 rV96 rV2 G+1V3 G+1V3 G+1V3 G+1V96 G6V84 G+1V3 G+1V80 B7 B7 B7 B0V10 B0V13 B0V26 D1V26 E1V12 C+2 C1]
  [C1 F6 C0 r D0V20 rV96 B7 r rV96 B7V129 D0V14 rV3 C+2V24 D+5V181 B8V255 B11V80 D3V181 C+0V255 rV65 D0V12 E5V78 F2V156 C+0 D0V21 D0V21 D0V21 D0V21 D0V21 D0V21 rV7 rV96 rV96 G2V13 G+1V3 G+1V3 G+1V3 G+1V3 G+1V3 G+1V3 B7 B7 B7 B7 B7 D0V21 D0V21 rV96 rV96 rV96 rV96 B7 r G+10V108 F6 G+1V3 G+1V3 G+1V3 D1V32 D1V32 G2V15 D1V32 G2V15 G2V15 C15V20]

$$ALL
  [A10V30 F2V1 C0V25 C2V30 B0V38 F+12V72 D0V12 F+1V255 F2V1 D0 B6V41 D0V13 B7 A10V96 B7V3 B3V128 G+0V3 D1V3 D1V3 D1V3 D1V3 D1V80 C+7V129 C+6V129 C+6 C+7 C+6 E5V78 D0V15 D0V15 D0V15 D0V15 D0V15 C9 rV81 rV69 rV69 rV81 G+10V83 rV3 D1V3 D1V3 D1V3 D1V3 D1V3 A0 B5 B6V129 C+7V129 C+6V129 C+6 D0V15 D0V15 D0V15 D0V15 D0V15 D0V15 rV79 rV67 rV67 rV76 r rV65 D1V3]
  [C15V128 B9V42 D3V181 C15V104 E5V78 B7V80 B10V131 B6V19 B9V30 F+0V3 rV3 B7 C1V80 D0V13 D0V13 E5V78 G+10V74 G+10V86 rV86 rV74 rV86 F6 D1V3 D1V3 D1V3 D1V3 D1V3 r C+7 C+6 C+6 C+7 D+7 D0 D0V15 D0V15 D0V15 D0V15 D0V15 rV66 rV78 G+10V78 G+10V66 G+10V80 rV80 D1V3 D1V3 D1V3 D1V3 D1V3 D1V80 G+6V129 G+5V129 G+5 F6 F5 E5V78 D0V15 D0V15 D0V15 D0V15 D0V15 C9 rV76]
  [C0V25 C2V30 F2V1 C0V25 r F6 B5V30 rV3 G6V84 D12V181 rV3 C1V3 F6 B7V3 B7V3 r D0V15 D0V15 D0V15 D0V15 D0V15 rV6 rV74 rV86 rV86 rV74 rV74 rV3 D1V3 D1V3 D1V3 D1V3 D1V3 G+5 G+6 G+6 G+5 G+6 A+6V255 D0V15 D0V15 D0V15 D0V15 D0V15 G6V84 G+10V72 G+10V84 rV84 rV74 rV86 F6 D1V3 D1V3 D1V3 D1V3 D1V3 r F+6 F+5 D+5 D+6 D+6 D0 D0V15]
  [G3V181 C15V116 B8V37 G+2V181 rV3 rV1 G4V16 rV27 r B7V255 F+11V96 B10V96 rV5 D0V13 D0V13 rV7 C+6 C+7V129 C+7V129 C+6V129 C+6 D0V15 D0V15 D0V15 D0V15 D0V15 D0V15 rV86 rV74 rV74 rV86 rV76 rV65 D1V3 D1V3 D1V3 D1V3 D1V3 B6V109 F5 F6 F6 F5 G6V129 r D0V15 D0V15 D0V15 D0V15 D0V15 rV11 rV69 rV81 rV78 rV66 rV66 rV3 D1V3 D1V3 D1V3 D1V3 D1V3 D+5 D+6]

$$ALL
  [D1V3 D1V3 D1V3 D1V3 B6V109 F+5 F+6 F+6 F+5 F+6V129 r D0V15 C6V255 D0V15 D0V2 r F6 G6V84 D0V133 rV81 rV65 D0V15 D0V15 D0V15 D0V15 D0V15 G6V84 G+10 G+10V76 rV76 r rV76 F6 D1V3 D1V3 D1V3 D1V3 D1V3 r A+6 A+5 A+5V134 D1V3 r D+7 D+6 D+6 D+7 D+7 D0 D0V15 D0V15 D0V15 D0V15 D0V15 rV66 rV78 G+10V78 G+10V72 G+10V84 rV84 D1V3 D1V3 D1V3]
  [r rV70 rV82 G+10V82 rV3 D1V3 D1V3 D1V3 D1V3 D1V3 D1 C+6 B6V44 C+6 C+0V32 F1 rV19 r D0V255 G+12V76 D9 D+5 D+6 D+6 D+5 D+6V129 r D0V15 D0V15 D0V15 D0V15 D0V15 rV24 r rV76 rV76 r rV69 rV3 D1V3 D1V3 D1V71 rV71 rV3 D1V3 D1V3 D1V3 D1V3 D1V3 A+5 A+6 A+6 G5 G6 G6V255 D0V15 D0V15 D0V15 D0V15 D0V15 G6V84 G+10V69 G+10V81 rV81]
  [D0V15 D0V15 D0V15 D0V15 rV67 rV79 G+10V79 G+10V67 G+10V79 rV79 D1V3 D1V35 rV3 D1V3 B5V3 C+0V25 C2V3 G1 B6V25 G+10V81 D0 D1V3 D1V3 D1V3 D1V3 D1V3 A+1 D+5 D+6V129 D+6V129 D+5V129 A+5 D0V15 D0V15 D0V15 D0V15 D0V15 D0V15 rV83 rV71 rV71 D0V15 D0V15 rV88 rV76 rV76 rV88 rV76 rV65 D1V3 D1V3 D1V3 D1V3 D1V3 B6V109 F5 F6 F6 B5 B6V129 r D0V15 D0V15 D0V15]
  [D+6 A5 A6 A6V255 D0V15 D0V15 D0V15 D0V15 D0V15 G6V84 G+10V74 D1V15 rV74 A+10V72 G6V84 G10V80 C2V3 D0V173 rV3 A+11V181 D+5V229 rV76 G+10V76 G+10 G+10V76 rV76 D1V3 D1V3 D1V3 D1V3 D1V3 D1V80 D+6V129 D+5V129 D+5 D+6 F+5 E5V78 D0V15 D0V15 D0V15 G+5 E5V78 D0V15 D0V15 D0V15 D0V15 D0V15 C9 rV83 rV71 rV68 rV80 G+10V80 rV3 D1V3 D1V3 D1V3 D1V3 D1V3 E2 G+5 G+6V129 G+6V129]

$$ALL
  [D1V3 D1V3 D1V80 D+7V129 C+6V19 rV3 D1V3 D1V3 D1V3 D1V3 D1V3 A+5 A+6 A+6 A+5 A+6 C7V255 D0V15 D0V15 D0V15 D0V15 D0V15 G6V84 G+10V74 G+10V86 rV86 rV76 rV88 F6 D+7V59 F6 D1V3 D1V3 D1V3 rV37 A0 r r rV101 C11V144 F6 A0V3 rV4 E1V3 E1V3 E1V3 E1V3 E1V3 C+1 F+6 F+7V129 F+6 G+7V129 G+6 D0V17 D0V17 D0V17 D0V17 D0V17 D0V17 rV71 rV83 rV71 G+10V83]
  [rV69 rV81 F6 D1V3 D0V15 rV88 rV76 rV76 rV88 rV78 rV65 D1V3 D1V3 D1V3 D1V3 D1V3 B6V109 G5 G6 G6 G5 A6V129 r D0V15 D0V15 D0V15 D0V15 D0V15 rV30 D1V3 rV36 rV66 rV78 G+11V72 D2V2 D+0 rV132 rV255 D0V10 D0V10 rV4 rV144 rV79 rV79 G+10V91 rV91 G+10V91 rV91 E1V3 E1V3 E1V3 E1V3 E1V3 E1V80 C+6 C+7V129 C+6 C+7 C+6 E5V78 D0V17 D0V17 D0V17 D0V17]
  [D0V15 D0V15 rV31 rV76 E5V78 D0V15 D0V15 D0V15 D0V15 D0V15 C9 rV83 rV71 rV71 rV83 G+10V85 rV3 D1V3 D1V3 D1V3 D1V3 D1V3 A+2 C+6 C+7V129 D+7V129 D+6V129 D+6 G10V76 G11V72 D0V15 D0V15 D0V15 G2V80 G+11V181 D0V2 E0V8 B6V41 B11V133 B11V133 D0V14 C19V255 D0V17 D0V17 D0V17 D0V17 D0V17 G6V84 rV91 G+10V91 rV91 rV79 rV93 F6 E1V3 E1V3 E1V3 E1V3 E1V3 r A+6 A+5 A+5 A+5]
  [G+5V129 G+5 D0V15 D0V15 r D+7 D+6 D+6 D+7 F7 D0 D0V15 D0V15 D0V15 D0V15 D0V15 rV68 rV80 G+10V80 G+10V68 G+10V82 rV82 D1V3 D1V3 D1V3 D1V3 D1V3 D1V80 D0V15 D1V80 F6V129 F5V129 F5 F6 rV65 E5V78 E5V78 rV4 A0V3 A0V80 B11 B6V109 F+7V129 F+7 F+7 F+6 F+7V129 r D0V17 D0V17 D0V17 D0V17 D0V17 rV6 rV74 rV86 rV74 rV86 rV76 rV3 E1V3 E1V3 E1V3 E1V3]

$$ALL
  [rV73 rV65 E1V3 E1V3 E1V3 E1V3 E1V3 B6V109 C+7V129 C+7 C+7 A+5 A+6V129 r D0V17 D0V17 D0V17 D0V17 D0V17 rV11 rV69 rV81 rV75 rV87 rV75 rV3 E1V3 E1V3 E1V3 E1V3 E1V3 F+6 F+6V135 D1 F+6 G10V80 B5V128 G10V25 C2V3 r D0V143 rV81 G+6 G+7V129 G+6 G+7V129 G+6 D0V17 D0V17 D0V17 D0V17 D0V17 D0V17 rV81 rV93 rV81 G+10V93 rV84 rV65 E1V3 E1V3 E1V3 E1V3 E1V3]
  [D0V17 C9 G+10V77 rV65 rV67 rV67 G+10V79 rV4 E1V3 E1V3 E1V3 E1V3 E1V3 A0 B5 B6V129 G+5 G+6V129 G+5 D0V17 D0V17 D0V17 D0V17 D0V17 D0V17 rV72 rV84 rV72 G+10V84 rV72 rV65 E1V3 rV1 E1V3 E1V3 F6 E5V78 G10V80 C2V3 F+1 F2V255 G10V3 E1V3 E1V3 E1V3 E1V3 E1V80 G+6 G+7V129 G+6 G+7 G+6 E5V78 D0V17 D0V17 D0V17 D0V17 D0V17 C9 G+10V100 rV88 rV88 rV88 G+10V100]
  [C7 D+0 D0V17 D0V17 D0V17 D0V17 D0V17 rV74 rV74 G+10V86 rV83 G+10V83 rV83 E1V3 E1V3 E1V3 E1V3 E1V3 E1V80 G+5 G+6V129 G+5 D7 D6 E5V78 D0V17 D0V17 D0V17 D0V17 D0V17 B2 G+10V91 G6V84 rV91 D2V2 rV16 r F6 C2V3 D0V153 B6V111 rV93 G+10V93 rV93 rV81 rV93 F6 E1V3 E1V3 E1V3 E1V3 E1V3 r G+7 G+6 G+6 G+6 C+8 D+0 D0V17 D0V17 D0V17 D0V17 D0V17]
  [E1V3 E5 E5 E6 F+6V129 F+6 F+6V255 D0V17 D0V17 D0V17 D0V17 D0V17 G6V84 rV84 G+10V84 rV84 rV69 rV81 F6 E1V3 E1V3 E1V3 E1V3 E1V3 r B6 B5 B5 B5 B6 D+0 D0V17 r D0V17 D+13V72 D0V2 rV25 rV18 G6V84 D0V129 rV4 D0V17 D0V17 D0V17 D0V17 D0V17 rV21 rV81 rV93 rV81 rV93 rV88 rV3 E1V3 E1V3 E1V3 E1V3 E1V3 D+7 D+7 D+8 D+8V129 C+8 D+8V255]

$$ALL
  [B6V109 G+7V129 G+7 G+7 G+6 G+7V129 r D0V17 D0V17 D0V17 D0V17 D0V17 rV26 rV71 rV83 rV77 rV89 rV77 rV3 E1V3 E1V3 E1V3 E1V3 E1V3 G+6 G+6V135 E2 G+6 G+7V129 G+6 A+7V129 A+6 D0V17 D0V17 D0V17 D0V17 D0V17 D0V17 rV73 rV85 rV73 G+10V85 rV75 rV65 E1V3 E1V3 E1V3 E1V3 E1V3 B6V16 E1V80 A+5 A+6V129 A+5 G6V84 C15V61 rV152 rV27 C+0 C11V96 E11V96 F2 B7V3 r]
  [rV4 E1V3 E1V3 E1V3 E1V3 E1V3 C2 D+6 D+7V129 C6 C7V129 C6 D0V17 D0V17 D0V17 D0V17 D0V17 D0V17 rV74 rV86 rV74 G+10V86 rV74 rV65 E1V3 rV1 E1V3 E1V3 E1V3 E1V3 E1V3 E1V80 D+6 D+7V129 D+6 D+7 D+6 E5V78 D0V17 D0V17 D0V17 D0V17 D0V17 C9 G+10V79 rV67 rV69 rV69 G+10V81 rV4 F6 E1V3 E1V3 E1V35 r B0 C+0V144 F2V1 E5V78 D0V13 D0V13 E0 G+10V96 rV3]
  [rV81 rV81 G+10V93 rV93 G+10V93 rV93 E1V3 E1V3 E1V3 E1V3 E1V3 E1V80 A+5 A+6V129 A+5 E7 E6 E5V78 D0V17 D0V17 D0V17 D0V17 D0V17 B2 G+10V93 G6V84 rV93 G+10V93 rV93 rV81 rV95 F6 E1V3 E1V3 E1V3 E1V3 E1V3 r C7 C6 C6 C6 D7 D+0 D0V17 D0V17 D0V17 D0V17 D0V17 rV181 rV34 rV71 rV83 C+0V112 A+2 E5V78 E5V78 G6V84 r B7V135 B0V3 B7V146 B1V128 rV65]
  [D0V17 D0V17 D0V17 D0V17 D0V17 G6V84 rV88 G+10V88 rV88 rV73 rV85 F6 E1V3 E1V3 E1V3 E1V3 E1V3 r C+7 C+6 C+6 C+6 C+7 D+0 D0V17 r D0V17 D0V17 D0V17 D0V17 D0V17 rV30 rV76 rV88 rV76 rV88 rV78 rV3 E1V3 E1V3 E1V3 E1V3 E1V3 F+5 F+5 F+6 G+6V129 G+6 G+6V255 G+5 D0V17 D0V17 D0V17 B5V3 C+0V32 r r r rV3 C1V3 rV65 B0V96 E5V78 F+1]

$$ALL
  [E0 B6V166 A+2V25 D+3V25 F3V25 D+3V25 D3V25 C3V25 A+2V25 G+2V25 rV8 rV109 G9V1 C0 rV106 A9V80 rV118 C10V1 C0 rV120 G9V1 E0 E10V1 C0 rV123 D10V1 G6V84 D+10V1 C0 rV135 G9V1 C0 D5V4 rV5 C0V1 D+10V181 E5V78 C2V236 G10V181 r C0V1 F9V1 E0 C0V128 C0V1 E5V78 C15V1 E0 rV5 G9V1 C0 rV123 F+10V1 C0V255 G+2V12 B0V237 G+19V25 C2V30 F2V33 G+2V181 C15V8 G0V116 A+9V36 B2V12]
  [D1V7 rV5 B2V25 E3V25 F3V25 D+3V25 C+3V25 B2V25 A+2V25 G+2V25 D0V24 G9V1 C0 rV106 D9V1 F6 B9V1 C0 rV113 C10V1 C0 E10V1 C0 rV121 A9V1 C0 r C0 rV130 C11V1 C0 rV65 F2V2 rV3 C15V122 A10V181 r D10V181 G10V181 D1 A+9V1 C10V181 C0V3 C0V1 C15V126 r F9V129 B7V141 rV128 C0 rV121 F+10V1 C0 B6V39 G0V118 F10V35 C3V12 B0V237 G+19V25 C2V30 F2V33 G+2V181 C15V8 G0V118]
  [F2V188 rV122 C+3V25 F3V25 E3V25 D3V25 C+3V25 B2V25 A2V25 G+2V80 G8V1 C0 rV118 D9V1 C0 rV9 C0 rV113 A9V1 C0 rV65 C0 rV127 G10V1 C0 rV123 A+0 rV130 A+10V1 C0 rV104 F+1 C0V255 C0V1 C15V117 A10V181 rV155 G10V181 C0V1 C15V121 F9V1 rV65 C0V1 C+10V1 C15V124 rV134 rV65 F2V255 C0 rV128 G10V1 C0 rV118 rV5 G+2V181 C15V8 G0V119 G9V40 D3V12 B0V237 G+19V25 C2V30 F2V33 G+2V181]
  [C0V255 G+2V25 D3V25 F+3V25 E3V25 D3V25 C3V25 B2V25 A2V25 F6 C0 rV109 F+9V1 C0 rV115 C0 rV118 A9V1 C0 rV121 E8 rV121 C10V1 C0 rV118 A9V1 rV119 A+9V1 C0 rV121 F8V1 E0 B6V58 C15V119 C0V1 G10V181 D2V29 G10V181 G6V84 G+0V121 A+9V1 B4 C15V119 G+9V181 C15V126 D0 C+1 B6V102 rV128 G9V1 C0 rV125 D10V1 rV116 C2V30 F2V33 G+2V181 C15V8 G0V126 A9V38 C3V12 B0V237 G+19V25 C2V30]

$$ALL
  [B0V237 G+19V25 C2V30 F2V33 G+2V181 B11V30 D11V30 F2 rV117 C9V30 r E0 rV108 rV3 C15V123 C0V1 B6V48 E10V9 C0V1 r D10V181 G10V181 D+2 D+10V1 C15V126 B6V166 A+2V25 D+3V25 F3V25 D+3V25 D3V25 C3V25 A+2V25 G+2V25 rV30 rV123 A10V1 C0 rV120 B10V80 rV120 D10V1 C0 rV122 A9V1 E0 F+10V1 C0 rV125 E10V1 G6V84 F10V1 C0 rV137 A9V1 C0 D0V19 D0V7 rV5 D+3V181 C15V118 C9V35 A2V181 r]
  [F10V35 A2V12 B0V237 G+19V25 rV65 D0V18 D2V18 F1V35 A2V27 D2V18 rV3 C0V255 C0V255 C0V1 C0V128 C0V1 rV5 C0V1 C0V1 rV155 G10V181 C0V1 C15V113 D10V181 C0V130 rV5 B2V25 E3V25 F3V25 D+3V25 C+3V25 B2V25 A+2V25 G+2V25 D0V24 A10V1 C0 rV120 E10V1 F6 C+10V1 C0 rV115 D10V1 C0 F+10V1 C0 rV123 B9V1 C0 r C0 rV132 D11V1 C0 rV65 E5V78 C15V144 rV24 F2V1 C0V25 C2V30 F2V1 C9V229]
  [C15V8 G0V119 G9V33 G+2V12 D+8 F+11 rV130 D10V30 F2 rV181 rV65 B6V12 B6V62 C15V121 C0V1 C0V1 rV1 C0V1 C15V120 D2V29 G10V181 G6V84 C15V118 G10V181 C0V130 rV124 C+3V25 F3V25 E3V25 D3V25 C+3V25 B2V25 A2V25 G+2V80 A9V1 C0 rV132 E10V1 C0 rV31 C0 rV115 B9V1 C0 rV65 C0 rV129 A10V1 C0 rV125 G+2 rV132 C11V1 C0 rV106 A0 r C0V255 D2V33 C10V38 B2V181 C15V106 G6V84 C1V80]
  [F2V33 G+2V181 C15V8 G0V126 E0 F1V36 A+2V27 D2V18 F1V34 E5V78 G+0 rV5 rV5 C15V124 D+10V181 C0V255 E10V236 C0V1 E5V78 C2V236 G10V181 r C0V1 C0V1 C0V255 G+2V25 D3V25 F+3V25 E3V25 D3V25 C3V25 B2V25 A2V25 F6 C0 rV123 G+10V1 C0 rV129 C0 rV120 B9V1 C0 rV123 E8 rV123 D10V1 C0 rV120 B9V1 rV121 C10V1 C0 rV123 G8V1 E0 rV157 B6V89 C0V25 C2V30 F2V1 C0V25 r F6]

$$ALL
  [rV1 rV6 rV6 C10V1 C0 E5V78 D+10V1 C0 rV114 F2V149 r rV7 D1 rV9 rV65 D2 C9V237 F0 G+19V4 G+0V10 C1 E0V13 F9V4 F9V128 D+0 rV7 B0V80 C0V4 E9 E0V7 rV7 F9 E0V13 r E0V7 D+0V129 D+0 E0V13 F9V4 A9V128 D1V26 D+0 rV7 B0V114 F9 G+10V112 rV65 r E0V25 A3 D+0V128 rV11 F+1 D0 rV12 C0V128 G10V119 A+9 rV2 D+0V4 F0 A+1 F+9V157 D0]
  [B1V1 rV181 rV125 C0 rV116 r C0 rV130 G6V84 C+1V128 rV7 rV65 D+9V13 A+4V114 E1 rV65 D2 D+9V237 D+0V4 D+0V4 F9V13 F+0V5 D+0 E0V13 F+0V5 F9 F6 D+0 C1V24 D9 E9 F5V29 F+0V5 rV63 F9 C1 C1V4 F+0V5 D+0 rV65 r F+0V5 A+9 D+0 C1V24 rV4 A+3 E0V5 A+4V5 F0 G10V6 B0V4 rV80 C9V255 F2 C1V4 D+0V1 C0V128 rV114 A+0V12 G9V1 rV65 rV80 G9V255]
  [D9V255 C9V255 C0 rV121 C10V1 rV3 rV130 A+10V1 r B0V128 G+0V80 F1 G+0V80 E0 F0 E1 rV65 D2 D+0V4 G6V84 D+0 rV116 F+0V5 F+0V5 rV4 C1V4 rV14 F+0V5 G+10V113 rV113 C1V4 D+0 G10V12 C+2V1 rV114 F+0V5 F9 rV116 F+0V5 F+10 F+0V5 rV4 C1V4 F+0V5 rV112 E0V7 F0 rV111 rV181 F8V1 F+0V4 G6V84 F6 B6V115 rV118 C15V5 E0V8 F0V4 D+0V4 rV65 G6V84 C1 F6 B6V9]
  [B6V12 B6V58 rV125 F+10V1 D0 rV119 A+9V1 C0 E0 E5V78 F6 F0 F6 G9V13 C9V237 F0 D4 G+11V109 D+0V4 r rV114 B1V66 rV7 rV114 E2V13 E0V13 D5V113 rV7 rV4 D+0V5 E0V7 rV113 E5V78 rV4 E0V13 rV113 rV114 B1V66 rV7 F0 rV119 E2V13 E0V13 rV7 rV24 F9V128 D1V26 D+0 rV65 C+0V4 D+0V128 r rV20 rV6 A9 rV7 C+0V181 C15V5 F0V7 A+0 r F0 rV25 rV6]

$$ALL
  [rV116 rV3 D+0 B6V124 rV7 A9 E0V13 E0V7 D+0V129 D+0 E2 E0V13 F+9V4 F+9V128 D+0 rV7 B0V80 C0V4 G9 E0V7 rV7 A9 E0V13 r E0V7 D+0V129 D+0 E0V13 F9V4 F+0V5 rV63 E9 C15V54 C0V4 D+0 B6V9 r C1V5 C13V111 rV5 C+3 r G6V84 B10V116 C1V80 C0V4 C10 E0V7 rV7 D+9 rV24 G9V8 C+1 B6V13 E5V78 E5V78 D10V1 C0 rV115 A+0V1 C0 rV130 F+0 rV7]
  [G6V84 G+11V116 D+0V4 rV6 G9 F5V29 F+0V5 G9 C1 C1V4 F+9V13 F+0V5 D+0 E0V13 F+0V5 F+9 F6 D+0 C1V24 F+9 G9 F5V29 F+0V5 rV63 C10 C1 C1V4 F+0V5 B1V66 G10V12 C+2V1 rV113 E5V78 D+0V128 G10V10 rV6 A+2 E5V78 G6V84 D9V237 rV5 D3 r D+0V4 F6 D+0 C1V24 B9 G9 F5V29 rV65 D+0V131 F+0 rV7 r r C0 rV121 G6V84 C0 rV130 A+10V3 C15V59 rV144]
  [r D+0 A0V11 rV15 C1V4 D+0 G10V12 rV116 F+0V5 G6V84 D+0 rV116 F+0V5 F+0V5 rV4 C1V4 rV30 F+0V5 G+10V116 rV116 C1V4 D+0 G10V12 C+2V1 rV121 F+0V5 G9 rV112 F9V4 E5V78 rV4 C2V30 r G10V5 A+0V4 rV104 G9V237 r r G6V84 E9V237 rV5 D+3 F0V8 rV41 F+0V5 G+10V121 rV118 C1V4 D+0 A1 C15V59 D1 rV30 rV1 rV3 rV125 F+10V1 r rV119 A+9V1 rV65 C19V255 D0V18]
  [D2 D+0 D+0V255 C1 E0V7 rV116 C1V4 E0V13 rV115 r rV115 B1V66 rV7 rV115 E2V13 E0V13 D5V116 rV7 rV4 D+0V5 E0V7 rV116 E5V78 rV4 E0V13 rV120 rV116 B1V66 D+0 r E0V5 E0V13 rV7 F0V4 D+0V255 G6V84 rV31 rV3 C3 r G6V84 G9V237 rV3 D+0V4 D5V121 rV7 rV4 D+0V5 E0V7 F5V25 F0 rV65 G+19V255 D0 D0 rV120 C10V1 C0 D+0 D+10V1 C0 C+1 B6V98 F+11]

$$ALL
  [F1V36 A+2V27 D2V18 F1V34 E5V78 rV7 rV9 G6V84 F+9V237 rV10 B0 rV65 D+0V129 C9 C9V1 C0V129 D1V26 B1V66 G+10V111 rV1 F+0 G9V1 C0V129 F5V25 D+9V80 r rV181 A8V255 D0 F+4V1 C0V128 G10V114 F6 G0 rV22 rV7 r F+0 rV26 F6 D9V1 C0 rV111 D9V80 r C2V4 C0V129 rV113 A+4V118 rV4 D+9V1 D+0 B6V36 C0 F4V80 E5V78 G+13V121 D0 rV115 rV7 B6V17 G+19V255 D0 rV15]
  [D11V30 F2 rV117 C9V30 r rV106 A+4V118 r G6V84 G9V237 rV10 E6 rV109 C9V1 C0 rV65 D+0V129 D9 D9V1 C0V129 D1V26 B1V66 G+10V110 rV24 F6 F9V1 rV65 B6V13 E5V78 C0V128 G10V181 C15V1 rV20 F+0 D0 rV119 rV3 A+9V157 D0 rV27 C0 G+10V111 D+0V129 F6 E9V1 C0 rV113 G9V80 r C2V4 C0V129 F5V25 rV7 G+10V116 F6 r A0V80 G+9V255 A0V27 rV115 rV7 B6V17 A9V255 C0V4]
  [D2V18 F1V35 A2V27 D2V18 rV255 C1V80 A0 A0 r G6V84 A+9V237 F+0 C9V1 C0V129 F5V25 E6 rV111 D9V1 C0 rV65 D+0V129 G9 C+9V1 G+10V110 rV16 C0 G+0 rV7 r G10V116 F9V1 C0 C0V173 A+9V80 A9V255 D0 rV65 rV80 A9V141 A+4V111 rV4 D9V1 D+0V129 rV28 C0 G+10V113 D+0V129 F6 A9V1 C0 rV107 rV1 rV15 C15V59 rV31 rV59 F6 B6V17 G+19V255 A0V27 rV118 rV7 B6V81 C0]
  [rV130 D10V30 F2 rV181 B6V11 F6 A+9V237 rV10 A+0 r D2V26 D1V26 B1V66 G+10V109 rV1 F+0 D9V1 C0V129 F5V25 A+6 rV116 G9V1 C0 G+10V110 A+4V114 F2V135 F+0 rV113 rV25 C15V1 C0V128 rV80 rV65 F6 B6V13 E5V78 C1 F6 C+2V80 r C2V4 C0V129 rV111 A+4V113 rV4 E9V1 D+0V129 rV29 C0 G+10V113 D+0 C0V255 C0V4 G9V25 D0 rV10 rV33 rV7 B6V17 G+19V255 A0V27 rV116 rV7 G+10V118]

$$ALL
  [A9V24 C0V129 C9 F6 C15V59 D5 C0 G0 G0 rV4 rV5 r rV15 G0 rV8 r r G6V84 rV1 D+0V129 G+10V106 A8V1 G8V1 D+0V129 C0 G+10V106 C+1 rV107 A+8V1 G+10V107 r C0V129 rV111 F8V24 C0 D1V26 A+4V1 E1 D0 F+4V1 C0V128 G10V109 F6 G0 rV22 rV8 r G0 rV26 F6 B8V1 C0 rV108 B8V80 r C2V4 C0V129 rV108 A+4V109 rV4 C9V1 D+0V129 rV30 C0]
  [G+10V118 rV112 D+0V131 rV39 rV65 G+19V30 C0V3 C15V3 E8V157 C0V157 C2V30 rV255 C19V30 r rV116 rV3 A+0 r C0V129 rV106 A8V24 G6V84 rV1 D+0V129 G+10V106 A8V1 A+8V1 D+0V129 C0 G+10V107 D1 rV111 A+8V1 rV105 rV65 D+0V129 C2V30 rV80 E5V78 C0V128 G10V181 C15V1 rV20 G0 D0 rV124 rV3 D+10V157 D0 rV27 C0 G+10V108 D+0V129 F6 A8V1 C0 rV108 B8V80 r C2V4 C0V129 rV109 A+4V113 rV4]
  [G+10V118 D+9V1 D+0 D0V26 D+1 G6V84 rV65 rV65 rV80 rV80 B1V128 B6V14 G6V84 D10V255 D0 C13V120 rV3 B0 rV106 A8V1 G+10V106 r C0V129 rV104 A8V24 G6V84 rV1 D+0V129 G+10V107 A+8V1 D9V1 D+0V129 C0 rV4 B2 rV119 G6V84 F6 r G10V111 C9V1 C0 C0V173 D10V80 D10V255 D0 rV65 rV80 D10V141 A+4V108 rV4 B8V1 D+0V129 rV28 C0 G+10V106 D+0V129 F6 C9V1 C0 rV109 E9V80 r C2V4]
  [A9V1 B1V66 F5V80 D+0V131 G0 r B0 C1 F6 F6 E5V78 rV8 r B6V13 E5V78 G6V84 G+11V107 A8V1 D+0V129 C0 G+10V106 C1 rV104 G8V1 G+10V106 r C0V129 rV107 A+8V24 G6V84 rV1 D+0V129 G+10V105 C2V4 G0 A+9V25 r rV18 rV25 C15V1 C0V128 rV80 rV65 F6 B6V13 E5V78 C1 F6 C+2V80 r C2V4 C0V129 rV108 A+4V106 rV4 B8V1 D+0V129 rV29 C0 G+10V109 D+0V129 F6 E9V1 C0]

$$ALL
  [G+10V109 D+0 C0V255 C0V4 C10V25 D0 rV65 D0 C13V122 rV3 C10V141 G0 E9V1 C0V129 F5V25 G6V84 A+10V15 rV27 rV109 C+0 D0 C0 rV118 A4 C0 rV109 C9V80 rV1 rV7 F+0 A0V3 B6V9 r G2 C11V15 A+5 F0 rV1 D0 r D0V5 C2V4 F0V4 rV14 C0V1 D0V29 D+0V129 rV15 B1V18 C+0V118 G+10V108 G2V1 rV115 D+9V24 C0V161 r rV113 D0V129 rV65 rV24 D+0V131 G1 G+0 rV15]
  [A+8V1 D+0 B6V36 C0 F4V80 E5V78 D1 E5V78 G6V84 rV65 rV3 D1V26 B1V66 G+10V107 rV24 r A+4 G+19V255 C+10V1 rV1 rV3 rV127 G10V1 G+0 rV123 G8V1 F6 B1V128 A+0V1 E5V78 G10V181 rV9 A0 G+0 F2V225 G+0 D0V29 B1V18 rV113 C1 rV3 B1V18 E0V6 A10V4 D+0 D0 F0V255 A10V4 E5V78 rV1 rV15 D+0V255 C+0V117 G+10V108 G+9 F1 C+9V255 F1V1 E3 C11V122 F1V1 F10V129 B11V255 C0V4]
  [C0V129 F5V25 rV8 G+10V121 F6 r G0 r r E1 rV65 D+0V129 E9 A+8V1 A+10V109 D3 E5V78 B6V14 G6V84 G6V84 rV127 G10V1 C0 D+9V157 C10V1 C0 rV5 E5V78 G6V84 r D+9V30 rV144 C+1V3 D0V14 D2V27 E9V255 D0 G+9 rV1 D+0V141 B8 D+9V4 C+9V80 C2V4 F0V4 A+10V4 F+9V80 G+4V99 r G+9V25 D+5V61 B6V59 rV1 rV115 F+9V4 F0V2 D+0V129 G+4V115 G+0 G+10V4 G6V84 rV65 B6V96 B1V18]
  [rV104 rV1 rV15 C15V59 rV32 rV3 D10V30 rV3 B2 G0 G+6 rV113 E9V1 C0 rV4 C+2V24 r rV9 r r D10V1 C0 rV65 A+0V1 C0 rV111 C0V149 r r rV158 C0V255 G6V84 rV65 B8V6 rV65 D+0V139 rV113 D0V29 G6V84 F0 A+10V4 D+0 F6 C2V3 E0V6 C2V4 F6 F2V1 rV25 rV24 C15V25 rV9 F+9V255 G+10V4 G6V84 D0 D+0 D+0V129 D1V1 G+4V125 r G+0 rV9 G+10V4]

$$ALL
  [C0 B9 D+0 D+0V129 rV23 rV127 E0V6 D0 D+10 rV24 D+0 rV5 rV3 G+10V129 B6V115 D+0V129 F+1V28 B1 D11V41 F0V9 rV65 rV114 r A10V181 E0V2 C15V5 D+0V1 C0V5 rV7 G+10V2 E0V2 D+0V1 E0V181 C0V255 F+3V24 F2V1 D9V47 C2V30 C15V99 F2V132 D0V25 D9V1 F6 D+9V30 rV9 rV3 C+10V24 D+0 rV33 D+9 rV24 D0V5 rV130 C+10V4 B9V3 E2V6 rV130 rV65 D0 D+0 A+9V4 F0V2 D+0V129 G+2V119]
  [G+10V4 rV122 F0V4 F1V25 F+2V31 D+10V24 D0V5 B9 D+0V129 C5V127 rV124 rV3 rV132 G+10V4 rV9 D+0 rV5 D+0 C0V129 C11V15 C+2 C0 D2 D0V4 E0V181 G+10V2 G8V1 G10V181 D0V4 E0V5 E0V181 G8V130 D0V4 B6V115 C0V25 D9V47 F2V25 D8V43 G+10V30 rV65 C0V1 C0 rV31 F+5V27 rV115 G+9V3 G+11V119 F0V255 A10V4 rV110 rV114 rV112 F1V25 E0V6 C0V131 rV117 F1V57 G4 rV119 A+9 G6V84 D0 D+0 G+10V117]
  [B1V19 B1V18 E0V6 rV80 rV24 G+10V4 G+10V4 rV122 F+1V80 r D+0V129 A+10V129 D+0 C2V4 rV15 rV127 rV3 C0V24 C15V47 F2V225 G+0 rV1 G2V129 C15V104 G8V5 E0V5 G8V129 E5V78 C15V104 E0V3 D9V128 E0V3 C15V107 rV9 A+3V1 C2V30 A+3V181 F2V1 C15V99 F+3 C0 rV118 A14V110 D0V255 A+10V4 D+0 rV3 G+9V80 E2V6 C0V131 rV4 E5V78 rV25 D0V5 F1V25 E5V78 D+0V30 G+0 F+9V255 rV181 r rV117 D0V129 C+0V80]
  [D0 D+0 D+0V129 F6 G+10V129 D+2V4 B1V19 B1V18 F6 D+0V129 F+1V28 F1V24 F0V24 C0V255 r D+0V129 C+11V3 C0V128 A+10V15 D2V27 F9V129 G6V84 C0V5 C15V104 E0V3 C15V104 C0V5 r C0V5 C15V5 C+0V104 C+0V181 C15V109 rV111 D9V43 C2V30 C2V30 D8V47 A10V181 G+0 rV118 C15V80 F2V133 B6V71 E2V6 F0V255 G+9V3 F6 rV3 F1V25 E0V6 r D+1V1 rV3 rV4 r C15V24 A+9V2 D+0V129 B9V32 C3 rV114 F1V1 F6]

$$ALL
  [rV38 rV112 B1V18 B6V41 D+0V133 B1V18 C+13V144 rV65 F2V129 B1V19 rV12 G2V30 r D+0V133 C0 F+1V25 G+10V124 F+3 F2 rV24 D+0V129 G+10V4 D+0V129 B1V19 D+0V129 C0V1 r F2V63 rV114 D5V120 r r r rV125 F+10V1 G6V84 C0 rV121 F8V1 E12V113 rV5 rV6 D0 B3 G+10V109 C0 rV9 C0V1 rV113 C0V130 C0 rV10 C0V129 rV119 F2V133 rV10 D0V129 C2V3 rV10 B8V1 D+0V129 rV14 C0V1 D+0]
  [E2V6 rV4 C15V57 rV9 D+0V129 C15V80 D0 C7 F1V24 G10 A+3V131 B0V30 rV57 D+0V30 F2 rV1 G+10V4 D+0V129 G10V47 rV131 D+0V129 G6V84 F1V24 B10 F1V25 B1V18 rV1 D2V30 rV80 C19V4 r rV3 rV3 G9V1 C0 r rV135 G9V1 G6V84 C0V129 D0 rV65 C15V27 A0 G9V1 D12V121 C0 C0V129 E5V78 C0V129 C0V1 rV112 G+10V116 C0 F2 rV113 D0 C2V3 rV24 B1V18 G+10V108 A10V4 C0V129 D+0V131]
  [C2V3 C2V4 D0V4 rV15 F1V57 F6 C15V27 G+0 C11V129 G+10V128 C11V24 B0V40 D+0V30 G+2V136 C11V47 C0V129 G6V84 F1V24 D+0V129 C0V1 F1V24 r G+10V131 D+11V32 rV24 B10 G+4V181 rV59 F6 C2V30 D+0V6 C13V181 C13V118 C0 rV121 D0 C11V1 C0 r G10V80 C15V80 A1 F2V128 C9 C0V129 D10V80 G+10V109 G+10V113 r rV116 C0V255 A+8V1 G19V1 A+10V116 D0V255 D+0V139 A+10V4 C0V255 G+11V108 G+9 C+9V80 C2V4 G+10V118 D0]
  [B1 C2V3 C0V255 r D0V4 rV40 F2V128 D1V31 G+10V4 rV12 G+10V131 E5V78 B1V18 rV138 D+0V129 F1V24 r rV15 F+1V25 B1V18 G+10V131 G3 G+10V4 D+0V129 rV137 E5V78 F2V140 D2 rV46 G6V84 E5V78 E5V78 C0 rV125 F+10V1 rV1 C0 rV104 D+0 F6 F6 A0 rV65 A10V110 rV116 F6 C0V129 G9V113 rV1 G9V1 B6V72 F9V1 C0V129 F9V27 B6V52 D+0V129 C2V4 B6V51 G+10V110 D+0 F6 C2V3 rV110 rV65]

$$ALL
  [D4 rV1 C0 r G+9V25 G+11V135 G+10V133 r C2V3 rV24 G10V1 rV65 D0 D+0 C11V1 D0V28 C0V129 rV131 D+11V1 A0 rV3 rV3 D0V19 G6V84 D0 r C0V130 C0V1 C0V1 rV65 C0V1 C15V93 G+7V1 C0V1 rV100 F2V129 C15V33 A+7V36 F2V130 C0V25 rV28 F2V25 C2V30 rV30 F2 D10V47 A+3V24 C2V30 rV30 F2 rV114 D+0V24 C2V30 B1V38 rV116 A+3V30 E5V78 rV121 A+3V24 F2V25 rV30 F2 D10V47 C2V30]
  [A0 C0 rV138 D+1 rV24 D11V135 A10V3 rV27 C0 E11V135 C0V129 F6 rV113 D0V129 C0V129 G+9V80 F1V25 C+11V1 C0V131 D0V19 G+10V181 rV65 B8V30 r C15V3 rV27 C0V1 C0V1 C15V93 F+6 C0V1 C0V1 G+7V1 C0V255 G+10V30 G+2V181 F2V25 C15V33 C2V30 C+3V25 D2V11 A+3V24 B1V38 C2V30 F2 F2 rV116 F2V25 G6V84 C+3V25 rV30 G10V111 F2V25 F2 rV4 G9V47 r B1V38 rV121 A+3V30 C2V30 F2V24 F2 F2V25]
  [B1V18 G+10V133 D+11V1 D+2V118 G+10V108 C11V1 G+10V117 C0V25 F1V25 rV135 rV130 A0 C+9V255 F1V27 G+10V126 F6 rV27 C0V129 rV65 E5V78 E5V78 C+2 C2V30 B1 G+10V181 F2V130 G+7V1 C0V1 C15V93 A0 C0V1 D+8V1 G+7V181 B6V116 C15V100 F2V1 G+2V100 F2V129 B1V33 G10V80 rV30 rV116 G9V47 B1V38 C+3V25 F2 B1V38 A+3V24 r A+3V25 C2V30 B1V38 A+3V24 C+3V25 B1 C+3V118 rV25 F2 rV30 A+9V47 B1V38 C2V30 F2V129 A+3V30]
  [C15V123 C+11V1 G6V84 rV1 rV117 C0V129 E5V78 C+3V24 rV25 rV133 G+9V129 E9V2 D+0V129 D+0V1 C11V1 rV19 D+0 rV134 A0 r r A0 C2V3 rV1 E5V78 C0V130 G+7V181 C0V1 C0V128 G+7V30 C15V93 G+7V1 A10V181 rV10 A10V181 D+8V36 C2V30 G+2V181 C2V30 F6 C2V30 rV30 C+3V119 C10V47 A+3V30 C+3V25 F2V24 rV121 E2 A+3V24 B1V68 F2V24 rV118 A+3V24 C+3V25 B1V38 A+3V24 C+3V25 C2V30 C+3V116 G9V47 B1V38 F2V24 C10V47]

$$ALL
  [F2 B6 D9V47 G+10V4 C2V30 G2 C2V3 rV25 G+2 G+9V24 C0V129 rV130 C+10V1 C2V4 rV10 A10V1 C0 rV35 F+9V255 E2V137 rV132 A0 rV1 D+0V137 G10V1 B6V78 B1 C2V3 C11V1 G+10V119 B1V68 rV136 G11V1 rV3 B6V10 A1 rV114 B9V24 D+0V131 rV44 G+0 rV11 r r E5V78 E5V78 F6 A+0 D+15V12 rV27 F1V25 B1V18 r C2V4 D+0V131 r G+9 C2V3 F6 D+0V154 F6 D0 D+0 E5V78]
  [F2V24 rV10 F2V25 B1 C2V3 A+10V4 C0V131 rV1 D+0V141 C11V119 rV112 F1V25 C0V129 C2V3 rV24 C0V129 A+10V138 D0V28 D+0V129 rV135 B9V129 G+9V1 B1V18 E2 C0 rV10 rV112 B1V18 C0V129 E5V78 D+10 D11V1 C0V255 G10V181 rV10 A0 rV65 C11V124 F1V25 D2V33 A+0 rV116 C+0 D0 r r rV6 C15V80 F2V255 G+18 rV25 G+9 rV128 C0V129 F1V25 A+0 A9V16 C0V131 rV12 D8 rV13 rV117 G+9 r]
  [C2V30 rV123 A+3V24 C15 G6V84 C2V4 F1V25 G6V84 D+0V129 A+10V4 E5V78 rV25 D0 C0V255 C+12V181 rV136 G11V80 D0 D+0 A10V1 rV65 A+9V38 C+9 C0 G+10V119 rV115 rV4 D11V4 G+10V135 r E10V4 C0 B6V22 G+9V30 rV3 D2V28 C+3 G+10V4 G+4V80 G+11V181 D+11V255 C11V1 rV1 rV1 rV3 rV157 rV65 F6 B6V58 D2V255 rV25 F+9V255 D0 rV115 rV1 B8V1 rV120 F1V25 G10V117 C0V130 B10V15 E9V255 rV181 rV128]
  [F2V255 G10V30 rV123 C+9V30 r C2V3 rV25 r G+10V110 C2V4 r D+1V1 A+10V4 B6V51 E2 A+10V1 F6 rV119 D0V141 C0V129 F+6 C0V25 G+9V255 G+10V130 C0V255 C2V3 C2V4 D11V135 C11V3 rV1 C0 rV138 rV10 C0V255 rV65 C11V112 A0 G+4V127 F6 rV65 B6V14 G6V84 G6V84 D0V12 C13V181 G10V80 G0 rV8 rV11 E9V131 rV1 E5V78 A+10V4 D+0V133 G6V84 B1V18 A9V1 rV80 rV115 F1V80 C+0V48 D+0V129 A9V32 G+10V115]

$$ALL
  [C2V3 C2V4 D+0V255 C2V1 B1V68 E13V15 rV128 F1V57 F6 B6V12 B6V166 A+2V25 D+3V25 F3V25 D+3V25 D3V25 C3V25 A+2V25 G+2V25 rV20 rV127 B9V1 C0V129 G+6 G+10V4 B1V19 F+1V24 G+10V4 D+0V129 C0 G+10V131 A+10V24 r C0V4 B1V18 B1 F2V1 E5V78 D0V7 rV3 r rV27 rV229 F2V24 rV124 D+3V24 F2V25 C2V30 F2V24 F2 A+9V40 A2V80 B1V34 C2V30 F2 A2V116 B1V34 C2V30 rV30 rV11 B1V34 rV121 D+3V30 C2V30]
  [B1 C2V3 B6V58 F+9V38 A8 B19 G+10V118 D0V4 rV17 rV11 rV11 B2V25 E3V25 F3V25 D+3V25 C+3V25 B2V25 A+2V25 G+2V25 B10V127 D+10V24 B1V18 F1V25 A+0 C2V4 D+0 rV120 G6V84 F+10 G+10V4 D+0V129 G+10V129 A+1 B1V18 D+0 D+0 B10V25 r C15V56 C11V96 C+2 F15V119 G6V84 C2V30 B1V34 rV119 D+3V24 B1V34 C2V30 F2 A2V121 F6 A+9V40 B1V34 G5V24 B1V34 A9V40 B1V34 C2V30 rV25 F2 rV30 A+9V40 B1V34]
  [D0 B1V18 rV11 C0V1 E9V255 E5V78 D+0V133 B1V18 D11V126 rV114 rV122 C+3V25 F3V25 E3V25 D3V25 C+3V25 B2V25 A2V25 G+2V80 C+3V24 G+10V4 D+0 rV24 C2V4 C0 G+10V122 C+10V24 r G+10V4 B1V19 F+1V24 G+10V4 F+10 B10 rV1 C0V24 D4V35 rV3 E5V78 C2V30 F+1V80 A+3V12 r F2V25 F2 rV30 rV119 D10V40 B1V34 A2V25 B1V34 rV29 F2 F9V40 B1V34 F2V24 A2V119 G9V40 F2V255 C+3V24 A2V25 C2V30 A2V116 G9V40]
  [rV4 C15V33 rV1 C2V3 D+0 r D+0V129 C15V80 C0V255 C0V255 G+2V25 D3V25 F+3V25 E3V25 D3V25 C3V25 B2V25 A2V25 F6 G+10V129 B1 rV1 rV65 D2V31 G+10V4 D+0V129 G+10V124 A1 C2V4 D+0 rV132 G6V84 G+10V57 A10V1 C2V3 C0V128 D2V38 C11V144 r G6V84 F6 A+2V121 D+2 C+3V24 A2V25 C2V30 rV30 F2 G9V40 D+3V30 F2 C2V30 F2V24 F2 D9V40 C2V30 rV30 D+0V131 B6V157 rV121 D+3V24 F2V25 rV30 F2]
