
$OPNA, $UNKNOWN_0x81,

!ALL

$Inst1,
$Inst2,
$Inst3,
$Inst4,
$Inst5,
$Inst6,
$Inst7,
$Inst8,
$Inst9,

$$ALL
  [D+5 D+5 D+5 r r r rV3 r r r r r r r r r r r r D9V101 A5V110 C8V110 A+8V111 D9V101 rV97 B8V32 D+8V98 F4 r rV1 rV4 E0 rV5 E0 rV245 C11 rV91 G7 rV93 G+7 rV94 A7 r C0 C0V1 C0 r r r C0 C0V1 r G+8V115 r r r r C+0 rV5 F+0 rV10 B0 rV15 C0V17]
  [D+5 D+5 D+5 r r r C+14 r r r r r r r r r r r r C9V110 C+9V32 E8V116 F9V97 E8V105 G2V105 E8V105 B3V53 D+18 C0 C0V21 G18 rV102 A15 rV80 E8V1 D0V11 G+1V3 D0V57 D12V3 D0V57 B12V3 D0 C+0 r C0V1 r r rV63 rV1 C0 C0 rV117 G9V109 rV63 r r r r r r r r r rV255]

$$ALL
  [D+17V2 D+0V208 D+17V7 G+0V208 D+17V12 C+1V208 G18V1 D0V224 G18V6 G0V224 G18V11 C1V224 G18V1 rV3 F0V6 D0 rV76 B8V99 A+8V121 C10V102 D+6V71 C8V115 G9V117 C10V101 E8V83 G5V82 rV9 F0V8 r r rV2 A+2 C1V73 C+9V32 G2V240 F6V50 rV65 G+9V101 E9V8 rV86 D+2V1 F+2 rV21 F+1 r r A+13V78 F19V145 A3V213 E9V25 E4V240 F6V50 rV65 G+9V101 B0V8 r B11 A+6V23 F6V13 C9V110 F6V50 rV65 G+9V101 D+0V1]
  [r rV255 r rV255 r rV255 r rV255 r rV255 r rV255 C0 F0V6 F0V6 r F2 E8V61 G+8V114 F+9V10 rV98 C9V116 D8V105 A0V116 C5V10 rV1 C0V3 C6V4 E5V73 r E0V78 r G9V117 F4V8 rV69 rV184 C6V115 G2 A0V255 D5V49 rV193 r D+5 r C0V8 G0V8 F0V6 E0V4 D0V3 F4V8 D0V69 rV184 C6V115 G2 C0V255 D+4 rV78 r C+9V116 D4V69 rV184 C6V115 G2 F+2V69]

$$ALL
  [rV78 r C+9V116 E4V83 F6V1 C+4 E5 E8V116 D0 F6V78 r G9V117 A+6V4 C0 r rV110 G9V56 rV78 E6V50 D+4V114 rV125 r rV255 rV255 rV1 F+19V243 F+20V184 G17V127 F0V187 F+1V89 G+2V238 rV255 D+16V247 D0V179 C17V245 B17V47 G+18V27 G4V4 F2V42 D7V13 A+4V193 C+2V239 D+20V11 A2V246 D+1 B2V33 D5V6 G+0V20 G+5V248 A20V229 G0V225 F16V252 G18V224 C+17V227 B19V234 C+15V12 C+20V235 C+20 C21V41 E20V1 A+17V52 A18V23 G+16V19 D+18V242]
  [A+6V36 F6V13 C9V110 r G+5V73 D+15V4 F+9V114 rV77 G+5 B2 C1V73 C+9V32 rV31 C6V83 D+0V78 F9V109 E6 rV69 rV115 E8 G+4 rV255 rV255 r B19V250 C20V234 A8V183 D+20V53 B2V227 G20V39 C6V228 G+0V244 rV248 C20V225 F4V244 C3V223 C+2V211 D1V22 D+4V8 D3V217 C19V20 G+2V223 C17V193 C21V236 A20V246 B17V29 C19V46 C+20V54 C+16 D+20V46 C4V61 D1V251 F17V1 D+18V39 G3V220 B16V41 rV36 D+4V34 D+3V7 A3V17 A+4V216 D20V219 G3V160 E18V183]

$$ALL
  [G+0V231 F3V246 A20V77 B2V61 B3V67 F0V21 rV4 F1V218 C+20V207 F0V195 C20V235 G2V192 E20V16 B0V237 A19V33 B0V198 D18V214 G+17V210 rV186 E19V221 C19V232 G+19V37 C19V26 D+0V59 rV51 G+1V40 A0V14 C1V244 D+20V35 C+20V22 C20V27 F20V58 C4V19 F17V101 A+6V243 D+2V223 C+1V231 F+0V207 F20V211 F18V230 F20V208 F+16V19 A+20V218 G20V21 G0V233 B19V246 B19V211 G18V224 G+14V238 F18V16 C17V41 F3V13 C+18V77 G+3V26 G2V35 F+2V252 D+20V22 C+1V239 B18V59 D1V6 D4V229 A1V16 A+6V225 D1V237]
  [F+17V228 D20V30 B1V246 D0V38 C2V254 G+19V245 F+13V32 A18V214 G+13V19 D18V247 F0V26 C1V71 F+1V68 D2V35 A20V60 G2V223 C+2V19 G1V254 D4V239 D+1V16 F5 G6V241 rV38 A+5V247 A+0V236 D20V243 F18V245 G+20V221 A+15V222 A18V246 D+17V241 F17V9 F+19V15 E18V23 D18V43 G+19V1 B17V38 E18V246 rV251 E17V34 G+6V219 A+19V57 F+5V43 F1V40 E5V24 G2V20 G+4V213 E20V8 D0V203 A+20V237 E0V244 E2V8 A+3V229 E1V247 E18V245 C21V219 F17V188 F+18V213 A+17V244 E17V240 rV21 F+0V255 A+19V54 G+2V238]

$$ALL
  [C2V247 G19V244 A+19V242 B18V253 G+20V227 G18V14 C21V200 D18V11 G+20V253 F17V57 D+20V30 F18V34 G18V255 A17V13 A17V8 A+0V242 C19V43 F+3V2 D2V54 G0V18 E2V23 B0V240 E1V234 D+1V230 B1V12 C21V252 C+1V6 D+20V242 D+1V247 A+0V234 C0V244 D20V17 D+0V240 D20V233 D+17V239 C21V224 F+19V222 D20V16 rV21 D+1V39 C2V18 C+2 A19V248 C1V223 B19V14 B0V227 C1V38 C1V43 F6V6 D1V255 F2V12 G19V242 E3V208 G18V242 E1V249 F+19V255 C21V251 C+20V31 C1V236 rV18 F+1V217 F19V7 F+18V250 F+0V239]
  [G0V44 F2V216 B0V16 F0V246 E2V254 D+18V43 C+3V7 C0V59 G3V23 F+2V27 D+2V2 A+1V229 C21V183 D20V215 F16V239 G18V2 A19V253 D+20V24 C+2V233 A0V239 G19V235 G0V192 F18V242 F+17V241 C+20V25 D+19V17 F0V25 B0V251 rV28 G+0V246 F+2V20 D0V2 B0V6 D+19V17 D+20V236 C21V248 rV244 A+2V248 C+4V234 F+3V6 E20V24 F+1V224 F16V243 E19V212 F15V1 G+1V243 A0V241 D1V18 C21V29 F0V244 G18V34 D+20V226 F+18V250 F+20V252 D+19V20 F+19V28 rV44 C20V39 F3V2 C18V22 C1V255 D+19V14 D+0V205 F+18V15]

$$ALL
  [D18V250 A1V249 E20 F+2V4 G1V2 C+4V237 G20V19 D3V201 F19V35 C1V221 A+19V36 F0V249 A1V3 C3V223 G+2V3 A+0V239 E1 E18V9 A0V229 C19 A20V239 G0V5 E1V233 A+1V5 F2V232 D0V20 C+1V230 D+19V22 E19V241 B19V24 A0V244 rV22 F+0V21 D1V3 B20V12 G20V253 rV14 A19V246 A+0 F+19V13 C1V248 G20V237 rV11 A20V249 D+0V254 D+20V28 E2V237 G20V6 G19V243 F1V220 F+19V234 rV240 C+20V15 D2V13 A0V16 F2V251 B19V3 F+1V224 A20V242 D20V238 C0V10 D2V253 B20V28 A+0V10]
  [F+0V238 B19V7 A+1V232 A+19V31 D1V246 F+0V15 C20V250 G+0V229 A17V232 G+20V237 D19V250 C20V17 C20V25 G0V2 A19V24 D2V243 A20V13 C1V214 D+19V16 D+0V209 A+20V5 G20V10 B0V26 B0V16 B1V15 rV18 E0V243 D19V242 C+20V236 A+17V252 F20V10 C0V40 C0V255 F+0V16 A19V248 D0V250 F+20V239 C+19V22 B20V246 rV1 A19V6 G+20V249 rV10 C0V244 B0V1 C20V14 G2V5 G+19V246 E20V250 G18V238 G0V244 rV4 A+3V252 G+1V26 A2V250 D+20V6 A+20V242 F19V238 C+18V3 G+2V251 C0V255 A2V12 rV16 F+2V215]

$$ALL
  [D+0V10 E20V249 G+1V237 D+20V3 E1 B19V20 C0V14 A19V7 rV255 G18V34 A2V233 F+19V35 E1V3 G20V251 D19V1 A18V245 C20V245 A+20V254 F0V3 C2V10 C+1V254 B1V238 F+19V5 D+20V245 E19V5 D+0V254 F+20V22 C3V235 rV23 B0V241 G20V16 B20V245 A20V13 D+20V251 rV8 C0V249 A0V251 rV248 G+1V248 A+20V17 G+0V2 D0V250 C+20V15 F+20V2 rV236 G+19V15 D+20V251 F0V2 C+20V7 C+0V24 G20V22 G20V22 F+0V241 D19V16 E20V252 A20V253 A18V21 D+0V242 C+20V35 A+20V10 G1V12 A+20V12 D+0V241 A+20V223]
  [F+19 A0V235 D+19V11 E0V248 B19V28 rV253 rV7 B20V242 G20V20 B19 F0V20 E20V7 rV24 C20V5 F+20V241 E18V10 A0V224 G+20V20 B1V239 B20V24 B2V224 rV4 G20V231 E0V252 A+19V225 F0V250 G0V243 A1V244 F0V13 G0V251 A+20V253 A20V246 E20V16 F+0V226 E0V6 C21V238 D+0V253 A+0V242 C+0V10 A+0V3 A20V9 D1V245 B20V254 G0V252 C21V239 F0V5 G+20V249 rV15 D0V3 D+1V254 G+0V247 D20V11 A+20V251 A+20V248 D20V249 E20V254 C0V252 B0V248 F1V247 F+20V23 G+1V236 D+19V1 F+20V242 E19V246]

$$ALL
  [rV237 C+20V245 C1V252 D1V255 C1V8 F2V247 E19V15 A+1V237 G+19V248 C21V254 G+20V248 F+0V2 F+20V13 G0V248 E19V27 rV3 E20V7 A20V16 A+0V254 rV249 A+20V7 D+20V250 r E20V10 C+2V243 G0V33 G1V251 G+20V20 G20V248 C+20V243 B19V245 F+20V14 D+2V247 F0V22 B0V10 G+0V238 B18V250 G19V233 F+19V248 D20V255 B20V18 C0V13 A20V3 B20V238 A19V251 rV244 F20V23 D1V7 C+0V20 C2V245 A+19V5 D1V241 A20V248 B0V255 G1V1 A1V16 C2V9 B0V251 F+20V236 D20V230 A+19V233 D0V246 B0V7 F0V3]
  [D20V253 A0V248 D+0V246 G2 F2V248 F+0V248 A+0V239 F+19V7 C+20 C21V3 C+0V17 A+0V7 C+0V7 A+1V246 C+0V245 B0V244 B19V8 rV254 D+0V255 rV244 C21V244 A+0V219 G20V241 G+0V5 G+0V9 C+0V17 rV253 C20V2 F+20V240 D20V252 G19V4 rV14 D+0V14 E0V20 C+1V8 F+20V13 C+20V2 A18V1 G+0V245 rV4 B2V245 D0V16 C+1V240 F+19V1 B19V255 D0V246 rV244 E1V250 A0V245 C21V252 B20V229 D20V242 C20V244 r C21V27 G+1V255 D+20V28 B20V247 A+18V255 C+20V238 A19V26 A+0V2 C0V42 D+2V10]

$$ALL
  [E0V9 A+19V252 C21V240 G+18V252 C0V240 F+19V7 F1V250 F20V23 A0V1 B19V8 E20V13 rV14 D20V24 G1V29 G+0V4 A0V11 rV240 G+0V253 D20V255 rV245 F20V26 A1V245 B20V6 G0V226 A20V238 D20V212 A+20V247 E0V223 B20V5 rV255 C21V247 G20V251 G20V246 F20V249 F20V252 C+0V9 rV5 A+0V20 E0V255 A+0V10 D+20V5 F1V14 A0V11 A+1V6 G+0V6 A0V252 D1V237 G+20V249 rV255 C0V244 G+20V255 G+20 C0V249 D+20V246 D+20V245 F19V236 D19V249 F+19V1 D+20V251 C20V22 C+0V255 A+19V29 A+20V7 C+0V7]
  [C+1V3 C+0V246 G20V241 C21V253 G20V255 D1V2 D1V10 D+2V250 A0V249 rV247 E0V228 A+19V254 D+0V230 G+19V25 rV250 A18V15 A+20V243 G18V9 D20V252 F+20V10 G+20V9 rV17 D20V7 D20V15 F+0 rV250 B0V4 E2V1 D+1V9 F+2V254 F1V255 E1V247 A0V242 E1V244 C+0V254 C+2V241 C+0V2 G0V250 F+20V250 A19V4 C+20V248 C20 B19V11 A20V6 C20V2 G+19V12 A+20V249 C20V16 E20V7 rV12 A+19V22 C+0V25 A+0V11 D+0V22 A0V252 B0 D+1V236 B20V7 F+0V13 G0V7 D+1V255 F+20V254 G+1V243 C+20V249]

$$ALL
  [D+19V8 E0V248 G+20V247 F+1V1 C+0V8 E2V4 F+0V10 E2V236 C+0V244 B1V225 G0V236 E0V231 B0V240 G+0V246 G0V253 rV246 G19V7 F19V2 B20V239 A+19V8 D+0V239 B19V20 A+20V241 E18V25 G+20V1 A+19V21 rV12 D+0V17 C1 rV3 D20V251 A+20V255 C+0V253 G0V3 G+0V15 C1V8 A+20V10 A0V239 F20V234 G+0V233 C0V237 D+0V245 A20V15 F+0V253 rV2 A20V244 A+19V253 D+20V249 C21V251 F20V12 G1V251 A+19V11 A+0V250 F20V2 D0V254 D0V12 G+0V255 F+1V2 D+0V4 F0V7 D+0V243 G20V2 A+19V12 rV10]
  [G20V244 F+19V240 rV236 F19V1 C+1V241 F20V13 F20V246 C21V253 E20V232 D0V254 rV243 D+1V249 C0V10 C+2V13 C0V25 A+1V251 C21V20 C1V251 A0V6 D0V14 A1V16 rV252 D+0V12 D20V246 D+0V11 D+20V3 rV6 F+20V3 F0V243 B18V6 E20V240 F+18V9 C20V253 C20V12 D0V247 C+0V17 rV242 G+20V2 A20V239 C21V1 C0V255 F1V255 C+1V19 D+2V246 C+0V13 C21V253 E0V254 rV245 C+1V18 D+1V241 G+1V6 G+20V237 G+20V253 G20V235 rV255 B20V2 G0V253 A+0V253 D0V247 E0V5 F+20V243 E20V14 D20 G0V11]

$$ALL
  [D+0V14 B20V14 E0V7 D20V250 C20V246 B19V247 E20V8 D19V16 A20V8 C+20V5 D1V244 C20V253 F1V242 A20V253 C0V250 C+0V246 A0V245 F0V2 E0V247 A0V2 E0V1 G+1V248 F+0V249 G+1V243 C21V244 D+1V239 C20V3 F+0 F+20V12 D0V246 G+20V12 G+0V244 rV13 G+20 rV9 D+20V252 C+0V11 D19V7 D1V255 C20V25 G1V252 F0V10 E1V249 A20V16 rV237 F20V13 G+20V238 E0V16 C+0V250 A+0V12 E20V5 F+0V238 E19V248 F+20V239 D+20V243 rV250 D0V5 A20V252 F+0V5 rV229 rV253 G0V234 D+1V3 C+1V8]
  [B19V25 F+1V13 D+20V17 C21V255 C20V4 C0V246 F0V6 D20V3 G0V7 E20V3 E0V2 D+20V251 C1V251 C21V245 G0V239 B20V252 F0V247 C+20V8 D0V238 G20V5 G0V246 D+1V252 G+0V246 G0V2 C21V245 F0V3 C+0V1 B0V12 B20V16 F+0V2 D20V12 F1V246 D+20V11 E0V244 A20V9 rV2 D+19V16 rV244 D20V2 A+20V248 F0V254 B20V254 F+0V1 G+19V10 rV247 G19V8 F+20V5 F+20V11 C0V5 F20V23 D+0V252 A20V9 A20V241 C+20V7 F+0V249 D0V7 D+1V6 D+1V247 C+0V248 C+0V242 C21V236 E0V248 D+1V244 B0]

$$ALL
  [D+1V2 D0V10 D+0V250 rV3 rV250 F0V12 F+1V4 C2V8 A+0V246 G+0V5 A+19V234 C20V254 G19V253 D+0V14 A+0V4 rV5 C0 G+20V238 F19V240 A19V243 C+20V3 A+19V6 C+0V14 F+20V9 D0V255 C20V1 D0V248 A+20V7 G+1V2 F0V33 G0V5 rV17 rV247 r G+0V246 D1V12 G1V245 F1V252 D+0V245 G0V227 A19V243 G+20V232 C0V242 rV247 C+1V251 rV251 C21V250 A+19V239 D+19V2 D+19V255 E20V12 A20V27 D0V7 B20V15 C0V7 F20V2 D0V11 rV15 G1V10 F+0V22 A+0V4 rV7 G+0V249 rV252]
  [D1V243 F+20 G20V250 F+19V238 B19V253 rV252 D+0V15 C21V19 C0V16 D+19V7 B19V253 C19 G0V9 rV18 F0V22 rV16 C0 rV254 F+20V247 D+0V2 E0V6 C1V8 F+0V4 E1V250 rV238 G+20V226 C+20V244 C0V246 D0 G20V2 D+0V253 G18V247 A20V238 G+18V247 F0V249 G20V4 B0V2 G20V11 D+0V1 A19V7 E0V243 rV6 D1V1 G+1V10 E1V8 F1V2 C0V9 C1V245 rV1 F1V253 rV9 F0V2 F0V2 A20V236 F+20V252 G+20V227 G+19V255 C+20V247 D+20V7 B19V245 D20V249 C19V250 F20V254 F19V255]

$$ALL
  [B0V242 C0V254 F+1V247 A+20V247 A20V246 G+20V242 E20V233 C+20V242 B19V246 D+20V253 F20V252 B20V248 F20V14 G20V250 D+20V7 G20V6 G+20V1 C+20V12 D+0V18 A+0V7 C2V25 A1V4 A+0V10 F+0V3 G+0V2 G+0V247 G0V1 C1V253 F+0V6 A0V252 D0V245 rV241 D20V239 G19V241 G+19V251 F20 B19V251 D20V9 B19V250 F19V254 D+20V1 C+20V6 G+20V15 A20V15 C21V16 rV9 D+0V11 G+20V2 G+1V14 G+1V5 G+1V9 E1V11 G+0V254 rV246 B20V241 G+0V246 E0V254 A1V255 rV252 E0V243 A+19V229 G+19V226 F19V242 E20V244]
  [A+20V7 G+20V17 D+0V10 A20V27 F+0V254 rV16 C21V2 E1V11 D+1V4 G+1 F1V255 A+0V1 G+0V251 A+0V248 D0V248 G+0V237 C0V247 A+20V226 rV246 rV235 rV246 G20V243 D20V246 G19V246 B19V246 F19V255 E20V255 F+0V14 G20V14 D1V11 G20V15 D+0V10 F+20V7 C+0V15 G+0V18 A1V10 F+0V19 B0V253 G+0V251 C0V239 F+0V251 C1V251 E0V249 rV241 rV244 D20V234 C0V227 C20V249 A+20V237 G+20 F20V252 B20V247 A+19V247 B18V1 F+20V241 A20V22 F+0V4 A+0V23 E1V10 C+0V4 G0V254 C21V252 C+1 A1V8]

$$ALL
  [F20V18 D+1V4 G+20V13 A20V249 A+20V249 E19V255 G20V10 F20V24 F0V32 F+0V29 C1V17 D0V8 rV250 C+0V3 C0V254 C1V16 D1V8 D+1 rV252 F+20V246 F+20V241 A20V248 B20V249 r rV250 G19V248 A+20V245 C+20V242 D20V250 C21 rV7 rV9 G0V2 rV254 B20 B20V7 D+0V9 C1V12 A0V18 F1V2 D+0V255 D0V254 rV243 F0V251 E0V1 G0V1 B0V253 C+0V248 C0V252 G20V240 D+20 F+20V252 C+0V7 F20V5 C21V12 D+20V8 F+20V252 C20V5 G+20V1 F20V3 C+0V4 rV9 C0V253 C1V3]
  [C+2V14 D+2V6 E1V2 C+0V235 C21V242 F+20V241 rV245 D+0V252 rV11 F0 D20V247 B19V246 E19V233 B19V245 E20V4 rV9 rV15 rV6 B19V4 C+20V3 G20V5 rV11 F1V13 E0V5 C1V12 rV1 F+0V250 C0V3 G+0V250 G+0V7 A1V251 G0V254 F0V231 A20V244 D+20V233 A20V245 C0 G0V3 rV4 B20V250 C+20V250 E20V238 G20V251 rV251 E0V19 D+0V5 F0V14 C+0V7 B20V3 C0V252 A20V10 A0V2 D+0V14 A+0V6 rV4 C+0V2 A+20V1 rV250 C21V1 F+0V252 A+20V247 D+0V250 C+0V241 A+20V251]

$$ALL
  [rV254 A0V253 r C0V255 D+0 C21V254 F0V5 A0V241 rV4 rV244 E0 D+20V249 F0V250 G+20V254 r A+20V253 rV6 rV253 G+20V1 C+0V6 B20V253 E0V8 G+20V13 A+0V253 B20V2 D0V250 B20V252 E0V254 A+20V4 F0V2 E0V11 C+0V247 rV254 G+20V253 F20V249 F20V248 A+20V8 A20V4 E0V5 E20V253 C0V246 D+20V250 G20V240 D0V254 G+0V3 B0V253 F+0V249 E0V2 C0V237 E0V5 F0V253 E1V2 C0V11 B0V249 G+20V3 D+0V245 F20 A+20V249 C0V8 C+0V253 C21V8 C21V247 G+20V252 E20V247]
  [C+0V249 G20V254 rV2 rV2 rV255 E0V250 C21V4 rV1 C0V3 C0V1 C+0V3 C21V8 rV7 C+0V255 D+0V4 G+0V252 D+0 G+0 A+20V245 C+0V1 rV253 B20V7 rV8 F+0V2 F20V253 C+0V251 F+20V255 rV250 C21V8 rV255 A20V8 B20V3 D20V9 C0V4 G20 rV5 F+0V3 C+0V9 F+20V2 A0V255 F20V253 D0V246 rV252 C+0V255 E1V249 D+0V250 E0V242 B20V247 D0V244 G20V253 G0V1 rV10 G0V251 B20V11 rV253 D+20V5 F20V253 E20V14 rV7 A+0V18 r A+0V255 D+20V3 C21V249]
