
$UNKNOWN_0x83, $OPN,

!ALL

$Inst1,
$Inst2,
$Inst3,
$Inst4,
$Inst5,
$Inst6,
$Inst7,
$Inst8,
$Inst9,
$Inst10,
$Inst11,
$Inst12,
$Inst13,
$Inst14,

$$ALL
  [D+5 D+5 D+5 r r r rV6 r r r r r r r r r r r r E8V101 E8V32 G2V32 G8V68 D9 r r rV6 F+0 rV8 G+0 rV10 A0 rV11 A+0 rV12 B0 rV13 C1 rV14 C+1 rV15 D1 rV16 E1 rV17 E1 rV18 F1 rV21 A+1 rV27 E2 rV32 A2 rV36 D3 rV40 F+3 rV46 C4 rV52 F4 rV57 A+4]
  [D+5 D+5 D+5 r r r G3 r r r r r r r r r r r r G2V104 E6V54 B3V41 D8V110 A+18 C0 rV132 E2 rV14 C+15 rV178 F7 rV23 D+7 rV243 F+7 rV43 B8 rV7 G15 rV63 G10 rV27 D+17 rV70 C+8 rV131 A13 rV4 C11 rV75 A+16 rV252 A+0 rV33 D+19 rV24 B14 rV187 D5 rV103 A+10 rV145 G+10 rV94]

$$ALL
  [rV63 E5 rV67 G+5 rV71 B5 rV75 E6 rV79 G+6 rV81 G+6 D+0V5 G0 D+0 G0V1 E0V1 r r rV1 C0V1 C+0V4 E0V5 C0V3 F+0V10 C0V1 G+0V6 D0V5 A0V8 D0V1 E0V6 D+0V5 E0V1 C0V1 D0V3 r r r G+9V107 F9V115 A0V115 D9V115 G+5V115 G+8V115 G2V97 r C0 r C0 rV97 C+4V49 E3V43 G+8V111 r r D+17 C+4 C0 C+0V16 D+1V5 F+0V16 D+1V10 B0V16 D+1V15]
  [D9 rV239 C+8 rV138 r rV9 A+10 rV218 F+3 rV85 E9 rV2 F0V6 C0V3 A0V10 C+0 F0V7 C+0V4 G0V7 C0V4 F+0V8 D+0V7 G0 D+0V1 G+0 C+0V1 rV1 C0V9 r r rV1 r C0V2 D0V3 r r r rV65 C9V116 A+9V114 G2V98 G2V104 G9V97 G+9V101 G8V115 rV1 rV1 C0V1 r G8V32 D+3V80 G+5V32 C+4V48 r r r r r r r r r r r]

$$ALL
  [C0V208 D+17V4 F0V208 D+17V9 A+0V208 D+17V14 rV224 G18V3 E0V224 G18V8 A0V224 G18V13 D1V224 rV1 F0V6 rV6 F0 rV108 B3V108 F8V99 rV76 B8V99 D+8V99 C8V115 G+1 rV1 G+0V11 r A6 F6V50 rV65 C8 G2V3 D+0V6 F+2 D+5 E0V5 C+4 E5 C3V244 rV255 D1 rV18 G5 G+5V73 G19V1 D9V101 G9V70 r r A1V79 F+6 G6V192 C+6 B0V79 B5V116 r r G0V22 A1V79 G2V80 A+6V67 F6V5 E6]
  [rV255 r rV255 r rV255 r rV255 r rV255 r rV255 r C0V1 F+0V6 F0V6 B8 E5V30 A+8V101 D+8V114 G9V117 D2 E8V61 D9V101 rV68 r D+0V6 E5V73 rV65 r rV236 E4V104 C3V244 rV7 F+0 rV16 G5 G+5V73 G19V1 F+9 G2 B7V31 F+2 D+5 E0V5 C+4 E5 B5V45 rV71 D+5 rV63 G4V31 F+0 F6V78 r C+9V72 E6 F+2 D+5 rV56 D+6V7 C0V78 r G+8V107 r]

$$ALL
  [F+2 D+5 rV48 D+6V7 C0V78 r C+9V114 A+5V32 rV50 D9V19 F+2V84 rV5 F6V50 rV65 rV77 C7V31 F+2 D+5 rV77 r F+0 F6V78 r F+9 G2V85 G+6V31 F+2 D+5 C+0V255 rV68 B15V69 rV236 A+6V117 rV4 D+5 rV1 C0V31 B0V8 rV2 E0V5 C+4 E6 F+2V72 A5 rV70 D+6V7 C0V78 r C+9V116 C4 G2V85 G+6V31 F+2 D+5 E0V5 C+4 E5 E8V116 rV4 D+5 rV1 C0V31 F+0 F6V78]
  [r rV10 F+2V255 G2V80 A+6V68 F6V6 A5V37 r C2V255 F+10 rV68 B15V69 rV236 F5V97 D+20 D20 rV18 C+0V9 r C0V255 G6V192 C7 F0V78 C3V244 G0V243 G+14 rV2 E5 C0V1 rV5 F6V50 rV65 E8V70 rV42 B3V4 A0V244 G+20 C0V255 G5 G+5V73 G19V1 r rV16 D+1V14 C0V21 G2V80 A+6V76 F6V14 C9V110 C3V244 G0V243 G+14 rV2 G5 G+5V73 G19V34 F+9V114 C4V70 rV42 B3V4 A0V244 G+20 G6V192 D+6]

$$ALL
  [r G9V117 rV77 C7V31 F+2 D+5 rV76 E0V1 r rV116 E6 F+2V70 A5 rV100 D+6V7 C0V78 r B12V180 G6V84 C0 D0 C0V255 r C0V3 rV1 r rV1 D0 F6 D0 C0V3 rV1 r C1V3 rV96 C0V3 rV94 A7 C1V1 F+7 G6V84 F0 C+7V142 B14V89 B6V58 rV89 A0V129 G+10V10 A0V129 G+10V10 B14V1 r E10V96 D0V13 B14V95 D0V13 C1V3 G+10V180 C1V7 B14V96 D0V13 B14V95 C1V180 C0V3]
  [C+1V73 C+9V32 D+20 D20 rV18 C+0V9 rV32 C6V83 C0V78 G6V100 r rV15 D+1V31 F+2V7 G2V80 B6V19 rV96 rV1 r rV156 B14V100 B6V24 rV96 A11V180 G6V84 D0 D+8V142 B14V80 rV4 B14V95 G11V180 G6V84 E0 C0V3 B14V95 C0V3 A7V1 C1V180 G+7V1 rV1 r rV1 D0 C0V255 r B1V1 C0V24 B1V1 C0V24 B1V1 E5V78 rV7 B14V96 D0V13 B14V95 C1V180 C0V3 C1V180 E10V96 D0V13 B14V95 D0V13 C1V3 G+10V180]

$$ALL
  [C1V180 F6 D0 C0V3 rV1 r rV156 B14V80 rV1 C0V3 rV1 r rV1 D0 F6 D0 C0V3 E5V78 rV3 rV1 D0 F6 F+0V13 D+8 C1V1 C+8 B14V98 D0V13 B14V94 B14V80 rV6 B14V89 F11V180 G6V84 F+0 C0V3 B14V98 C0V3 C+8V1 C1V180 B7V1 C1V3 rV100 C0V3 rV98 C+8 C1V1 A7V255 rV1 B1V1 C0V24 B1V1 C0V24 B1V1 E5V78 rV3 rV1 D0 F6 F+0 B12V180 r E10V1 D0]
  [C1V80 rV10 B14V86 F11V180 G6V84 r D0 F6 F+0 G11V180 G6V84 C+0 D+8V142 B14V80 rV3 B14V91 B12V180 r G11V180 D+8V140 B14V80 rV5 D+8V1 C1V180 C+8V1 C1V98 D0V13 B14V96 D0 F6 D0 C0V3 rV1 r C1V3 rV100 C0V3 rV98 C+8 C1V1 A7 C0V3 B14V98 C0V3 C+8V1 C1V180 B7V1 B6V58 rV93 A0V129 G+10V10 A0V129 G+10V10 B14V1 r F11V180 D+8V138 B14V80 r C0V3 E5V78 rV7 F+7V140 B14V80]

$$ALL
  [F6 D0 C0V3 E5V78 rV3 rV1 rV65 C+0 D0 C0V3 E5V78 rV7 B14V93 D0V13 B14V91 C1V180 C0V3 C1V180 B12V180 r F11V180 A+7V138 B14V80 rV7 G+7V1 C1V180 F+7V1 C1V91 D0V13 B14V89 F+0V13 G+7 C1V1 F+7 B14V91 D0V13 B14V87 r rV24 B1V1 C0V24 B1V1 C0V24 rV65 C+0 D0 C0V3 E5V78 rV255 rV3 F6 rV65 D0 E5V78 rV1 F+2V9 G+0 G+0V180 F8V3 G+0V96 A+7V1 D0V9 G+0V180 B14V180]
  [rV2 B14V91 B12V180 r F11V180 A+7V156 F2 G+7V140 B14V93 G11V180 r E10V93 D0V13 B14V91 D0V13 C1V3 G+10V180 C1V3 E5V78 rV3 rV1 D0 F6 F+0V13 G+7 C1V1 F+7 B14V91 D0V13 B14V87 G+7V1 C1V180 F+7V1 C1V91 D0V13 B14V89 G6V84 G0 G+10V10 A0V129 G+10V10 A0V129 G+10V180 F2 A+7V138 B14V93 A11V180 r B6V6 rV80 rV2 A0 B1V7 r C+8 G2V180 D0V9 G+0V100 D0V9 C+8V1 C+8V3 D0V9 G+0V95 A+7V1]

$$ALL
  [C+8 C2V3 rV98 A+7V3 G+0V102 D0V9 D0V9 B14V100 G+7V3 D0V9 r G+11V10 A0V129 G+10V10 A0V129 G+10V10 G6V84 F0 A+0 B14V1 r E5V78 rV255 rV4 A0V31 F0V81 F+10 A0V31 F0V81 F+10V10 F0V90 F+10 G+7V127 C0V10 B1V6 G+7V127 C0V10 F0V89 C0V10 F+2V1 A0V24 rV91 F+2V1 A0V24 rV86 C0V24 rV89 F+10 A0V31 C0V10 F+10 A0V31 C0V24 A0V31 C0V10 C0 C0V10 B1V6 G+7V127 C0V10 B1V6 D+7V127 B1V6 F+7V127]
  [D+8V127 D+8V25 D+8V1 D0V9 D+8V3 D0V9 G+0V103 A+7V1 C0V3 E5V78 rV3 B1V1 C0V24 B1V1 C0V24 C2V10 r rV65 D0 G6V84 G0 r B6V58 rV81 F+10 A0V31 F0V81 F+10 A0V7 E7V127 A0V31 C0V10 B1V6 G+7V127 C0V10 B1V6 D+7V127 B1V6 F+7V127 rV91 F+2V1 A0V24 rV91 F+2V1 B1V6 F+2V1 A0V31 C0V10 F+10 A0V31 C0V10 F+10 F+0V1 F+10 G6V84 C+0 G+7V127 C0V10 B1V6 G+7V127 C0V10 F0V89 C0V10 F+2V1]

$$ALL
  [rV91 F+2V1 A0V24 rV91 F+2V1 B1V6 F+2V1 A0V25 rV10 F+2V1 F+6V127 rV10 F+0V1 F+10V10 F+2V1 A0V31 F0V79 F+10 A0V31 F0V79 F+10V10 F0V88 F+10 r F+10 A0V31 C0V10 F+10 A0V31 C0V24 A0V31 C0V10 F+2V1 F+6V127 rV10 F+2V1 F+6V127 A0V7 D+7V127 rV79 F+10 A0V31 F0V79 F+10 A0V7 D7V127 A0V31 C0V10 B1V6 F+7V127 C0V10 B1V6 C+7V127 B1V6 E7V127 A4 G+6V127 rV10 F+2V1 G+6V127 rV10 F+0V1 F+10V10 F+2V1]
  [A0V24 rV91 F+2V1 A0V24 rV86 C0V24 rV89 rV91 F+6V127 rV10 F+2V1 F+6V127 A0V7 D+7V127 rV79 F+10 A0V31 F0V79 F+10 A0V7 D7V127 A0V31 E5V78 rV31 C0V10 F+10 A0V31 C0V10 F+10 F+0V1 F+10 F+6V127 rV10 F+2V1 F+6V127 rV10 F+0V1 F+10V10 F+2V1 A0V31 F0V79 F+10 A0V31 F0V79 F+10V10 F0V88 F+10 F+7V127 C0V10 B1V6 F+7V127 C0V10 F0V87 C0V10 rV65 D+0 F+2V1 G+6V127 rV10 F+2V1 G+6V127 A0V7 F7V127 rV81]

$$ALL
  [A0V31 F0V81 F+10 A0V31 F0V81 F+10V10 F0V90 F+10 G+7V127 C0V10 B1V6 G+7V127 C0V10 F0V89 C0V10 F+2V1 A0V24 rV91 F+2V1 A0V24 rV86 C0V24 rV89 B6V58 rV81 F+10 A0V31 F0V81 F+10 A0V7 E7V127 A0V31 C0V10 B1V6 F+7V127 C0V10 B1V6 C+7V127 B1V6 E7V127 rV93 F+2V1 A0V24 rV93 F+2V1 B1V6 F+2V1 A0V31 C0V10 F+10 A0V31 C0V10 F+10 F+0V1 F+10 G6V84 F0 G+7V127 C0V10 B1V6 G+7V127 C0V10 F0V89 C0V10]
  [F+10 A0V31 F0V81 F+10 A0V7 E7V127 A0V31 C0V10 B1V6 G+7V127 C0V10 B1V6 D+7V127 B1V6 F+7V127 rV91 F+2V1 A0V24 rV91 F+2V1 B1V6 F+2V1 A0V255 rV4 A0V31 F0V81 F+10 A0V31 F0V81 F+10V10 F0V90 F+10 F+7V127 C0V10 B1V6 F+7V127 C0V10 F0V87 C0V10 F+2V1 A0V24 rV93 F+2V1 A0V24 rV88 C0V24 rV91 F+10 A0V31 C0V10 F+10 A0V31 C0V24 A0V31 C0V10 C0 C0V10 B1V6 G+7V127 C0V10 B1V6 D+7V127 B1V6 F+7V127]

$$ALL
  [F+2V1 A0V24 rV91 F+2V1 A0V24 rV86 C0V24 rV89 F+10 A0V31 C0V10 F+10 A0V31 C0V24 A0V31 C0V10 F+2V1 C+7V127 rV10 F+2V1 C+7V127 A0V7 A+7V127 rV80 rV7 rV93 F+2V1 A0V24 rV93 F+2V1 B1V6 F+2V1 A0V31 C0V10 F+10 A0V31 C0V10 F+10 F+0V1 F+10 G+6V127 rV10 F+2V1 G+6V127 rV10 F+0V1 F+10V10 F+2V1 A0V31 F0V79 F+10 A0V31 F0V79 F+10V10 F0V88 F+10 r C0V24 B1V1 C0V24 B1V1 C0V24 A4 F+6V127]
  [rV91 F+2V1 A0V24 rV91 F+2V1 B1V6 F+2V1 A0V31 C0V10 F+10 A0V31 C0V10 F+10 F+0V1 F+10 C+7V127 rV10 F+2V1 C+7V127 rV10 F+0V1 F+10V10 F+2V1 F6V1 F+2V1 A0V24 rV93 F+2V1 A0V24 rV88 C0V24 rV91 F+10 A0V31 C0V10 F+10 A0V31 C0V24 A0V31 C0V10 F+2V1 G+6V127 rV10 F+2V1 G+6V127 A0V7 F7V127 rV79 F+10 A0V31 F0V79 F+10 A0V7 D7V127 A0V31 E5V78 rV142 G+10V10 A0V129 G+10V10 A0V129 rV65 D+0 F+2V1]

$$ALL
  [rV10 F+2V1 F+6V127 rV10 F+0V1 F+10V10 F+2V1 A0V31 F0V79 F+10 A0V31 F0V79 F+10V10 F0V88 F+10 G+7V127 C0V10 B1V6 G+7V127 C0V10 F0V89 C0V10 F+2V1 A0V24 rV91 F+2V1 A0V24 rV86 C0V24 rV89 B6V58 rV79 F+10 A0V31 F0V79 F+10 A0V7 D7V127 A0V31 C0V10 B1V6 F+7V127 C0V10 B1V6 C+7V127 B1V6 E7V127 rV91 F+2V1 A0V24 rV91 F+2V1 B1V6 F+2V1 A0V31 C0V10 F+10 A0V31 C0V10 F+10 F+0V1 F+10 G6V84 r]
  [F+6V127 rV10 F+2V1 F+6V127 A0V7 D+7V127 rV77 F+10 A0V31 F0V79 F+10 A0V7 D7V127 A0V31 C0V10 B1V6 G+7V127 C0V10 B1V6 D+7V127 B1V6 F+7V127 rV91 F+2V1 A0V24 rV91 F+2V1 B1V6 F+2V1 A0V255 rV4 A0V31 F0V79 F+10 A0V31 F0V79 F+10V10 F0V88 F+10 F+7V127 C0V10 B1V6 F+7V127 C0V10 F0V87 C0V10 F+2V1 A0V24 rV91 F+2V1 A0V24 rV86 C0V24 rV89 F+10 A0V31 C0V10 F+10 A0V31 C0V24 A0V31 C0V10 r C+0V96]

$$ALL
  [B7 B7 B7 B7 B7 B7 B7 B7 B7 B7 B7 B7 B7 B7 B7 B7V255 rV5 rV96 rV27 C+0V27 C+0 D0 B7V2 D2V2 D2V3 rV96 rV27 C+0V27 C+0 D0 B7V2 D2V2 D2V3 rV96 rV27 C+0V27 C+0 D0 B7V2 D2V2 D2V4 D+9V3 E5V78 rV27 C+0V3 D+5V96 D+9V2 B7V2 D2V5 D0V3 B7V2 E0 D0V112 D+5V96 D+5V27 C+0V3 D+5V96 D2V5 D0V3 D+0 D+0 B7V2 D+0 D0V27]
  [C+0V96 C+0V96 C+0V96 C+0V96 C+0V96 C+0V96 C+0V96 C+0V96 C+0V96 C+0V96 C+0V96 C+0V96 C+0V96 C+0V96 C+0V96 B6V2 rV96 rV96 C+0V27 C+0 C+0 B7V2 B7V2 D2V2 rV96 rV96 C+0V27 C+0 C+0 B7V2 B7V2 D2V2 rV96 rV96 C+0V27 C+0 C+0 B7V2 B7V2 D2V2 rV112 D0V5 r C+0V27 rV112 rV96 D+9V2 D+9V2 D2V2 D+9V2 B7 C+0 D+5V112 rV112 C+0V27 rV112 rV96 D2V2 E0 C+0 D+9V2 B7 C+0 C+0V27]

$$ALL
  [C+0V3 D2V4 D2V4 D+5V96 G6V84 D0 C+0 C+0V27 D2V5 D2V2 rV112 rV96 D2V2 D+9V2 B7V27 C+0V27 C+0 C+0 C+0V27 rV112 rV96 D+9V2 D+9V2 D2V2 D+9V2 B7 C+0 D+5V112 rV112 C+0V27 C+0V27 B6V253 rV112 rV96 D2V2 E0 C+0 D+9V2 B7 C+0 C+0V27 D2V5 D2V2 rV112 rV96 D2V2 D+9V2 B7V27 C+0V27 C+0 C+0 C+0V27 rV112 rV96 D+9V2 D+9V2 D2V2 E5V78 rV27 C+0V3 D+5V96 D+9V2 B7V2 D2V5]
  [D2V5 D2V2 rV112 rV96 C0 D+0 D0V27 C+0V3 D2V4 D2V4 D+5V96 D2V4 D0V3 B7V2 C+0V27 C+0V27 E0 D0V27 C+0V3 D+5V96 D+9V2 B7V2 D2V5 D0V3 B7V2 E0 D0V112 D+5V96 D+5V27 C+0V27 C+0V255 rV5 D+5V96 D2V5 D0V3 D+0 D+0 B7V2 D+0 D0V27 C+0V3 D2V4 D2V4 D+5V96 D2V4 D0V3 B7V2 C+0V27 C+0V27 E0 D0V27 C+0V3 D+5V96 D+9V2 B7V2 D2V5 D0V3 r C+0V27 rV112 rV96 D+9V2 D+9V2 D2V2]

$$ALL
  [D0V3 B7V2 E0 D0V112 D+5V96 D+5V27 C+0V3 D+5V96 D2V5 D0V3 D+0 D+0 B7V2 D+0 D0V27 C+0V3 D2V4 D2V4 D+5V96 G6V84 F0 B7 B7 B7 B7 B7 B7 C+0 D+9V3 E0V96 rV96 rV96 rV96 rV96 rV96 rV96 rV96 rV65 E0 D+9V2 D+9V2 D+9V2 C+0V27 C+0V27 E0 D0V27 C+0V27 C+0V27 C+0V3 D2V4 D2V2 D+5V96 D2V2 D2V3 rV96 rV27 C+0V27 C+0 D0 B7V2 D2V2 D2V3 rV96 D+5V3]
  [D+9V2 B7 C+0 D+5V112 rV112 C+0V27 rV112 rV96 D2V2 E0 C+0 D+9V2 B7 C+0 C+0V27 D2V5 D2V2 rV112 rV96 r C+0V96 C+0V96 C+0V96 C+0V96 C+0V96 C+0V96 C+0 D+0 D0V5 B7V3 B7V3 B7V3 B7V3 B7V3 B7V3 B7V3 B7V3 A0 D+9V2 B7V2 B7V2 B7V27 C+0V27 C+0 C+0 C+0V27 C+0V27 C+0V27 D2V5 D2V5 rV112 rV96 D2V2 rV96 rV96 C+0V27 C+0 C+0 B7V2 B7V2 D2V2 rV96 rV112 D0V5]

$$ALL
  [E0V112 C0 E0 C+0 C+0 D0V112 D+5V112 rV27 C+0V3 D+5V112 rV112 rV112 D+9V2 D+9V2 D2V5 D0V3 D+9V2 D+9V2 D+9V2 C+0V27 C+0V27 E0 D0V27 C+0V27 C+0V27 C+0V3 D2V4 D2V2 D+5V96 G6V84 G+0 r C+0V27 rV112 rV96 D+9V2 D+9V2 D2V2 D+9V2 B7 C+0 D+5V112 rV112 C+0V27 rV112 rV96 D2V2 E0 C+0 D+9V2 B7 C+0 C+0V27 D2V5 D2V2 rV112 rV96 r E5V78 rV31 F0V10 F+2V6 A0V31 F0V10]
  [G6V84 G0 E0 E0 E0 D+5V112 D+5V96 C+0V27 rV112 D+5V96 D+5V96 D+5V96 D+9V2 B7V2 D2V2 D+9V2 B7V2 B7V2 B7V27 C+0V27 C+0 C+0 C+0V27 C+0V27 C+0V27 D2V5 D2V5 rV112 rV96 r E5V78 rV27 C+0V3 D+5V96 D+9V2 B7V2 D2V5 D0V3 B7V2 E0 D0V112 D+5V96 D+5V27 C+0V3 D+5V96 D2V5 D0V3 D+0 D+0 B7V2 D+0 D0V27 C+0V3 D2V4 D2V4 D+5V96 G6V84 r r D1V5 C+8V15 E0V93 D1V5 D+8V15]

$$ALL
  [F+2V6 A0V31 F0V10 F+2V6 A0V31 F0V10 F+2V6 A0V31 F0V10 F+2V6 A0V31 F0V10 F+2V6 A0V31 F0V10 F+2V6 A0V31 F0V10 F+2V6 A0V31 F0V10 F+2V6 A0V31 F0V10 F+2V6 A0V31 F0V10 F+2V6 A0V31 F0V10 F+2V6 A0V31 F0V10 F+2V6 F6V1 F+2V6 A0V31 F0V10 F+2V6 A0V31 F0V10 F+2V6 A0V31 F0V10 F+2V6 A0V31 F0V10 F+2V6 A0V31 F0V10 F+2V6 A0V31 F0V10 F+2V6 A0V31 F0V10 F+2V6 A0V31 F0V10 F+2V6 A0V31 F0V10 F+2V6 A0V31]
  [E0V96 D1V5 G+7V15 E0V98 D1V5 B7V15 E0V100 D1V5 C+8V15 E0V93 D1V5 D+8V15 E0V96 D1V5 F+7V15 E0V96 D1V5 G+7V15 E0V98 D1V5 B7V15 E0V91 D1V5 C+8V15 E0V93 D1V5 F+7V15 E0V96 D1V5 G+7V15 E0V98 D1V5 B7V15 E0V80 rV2 E0V96 D1V5 G+7V15 E0V98 D1V5 B7V15 E0V100 D1V5 C+8V15 E0V91 D1V5 C+8V15 E0V93 D1V5 F+7V15 E0V96 D1V5 G+7V15 E0V98 D1V5 B7V15 E0V91 D1V5 C+8V15 E0V93 D1V5 F+7V15 E0V96 D1V5]

$$ALL
  [F0V10 F+2V6 A0V31 F0V10 F+2V6 A0V31 F0V10 F+2V6 A0V31 F0V10 C0 F0V10 F+2V6 A0V31 F0V10 F+2V6 A0V31 F0V10 F+2V6 A0V31 F0V10 F+2V6 A0V31 F0V10 F+2V6 A0V31 F0V10 F+2V6 A0V31 F0V10 F+2V6 A0V31 F0V10 F+2V6 A0V31 F0V10 F+2V6 A0V31 F0V10 F+2V6 A0V31 F0V10 F+2V6 A0V31 F0V10 F+2V6 A0V31 F0V10 F+2V6 A0V255 rV6 A0V10 D+0V31 F+0V10 F+0V10 A0V7 F+0V10 A0V4 F+0 rV4 rV4 rV4 rV7 D+0V7]
  [G+7V15 E0V98 D1V5 B7V15 E0V91 D1V5 C+8V15 E0V93 D1V5 G6V84 D0 B7V15 E0V100 D1V5 C+8V15 E0V93 D1V5 D+8V15 E0V96 D1V5 F+7V15 E0V96 D1V5 G+7V15 E0V98 D1V5 B7V15 E0V91 D1V5 C+8V15 E0V93 D1V5 F+7V15 E0V96 D1V5 G+7V15 E0V98 D1V5 B7V15 E0V91 D1V5 C+8V15 E0V93 D1V5 F+7V15 E0V96 D1V5 G+7V15 E0V98 B6V227 rV180 D+8V15 D1 D+8V15 D+8V15 D1V102 B7V15 A+7V15 A+7V15 G+7V15 G+7V15 G+7V15 D1V96 D1V96]

$$ALL
  [F+0 rV7 F+0 F+0 rV4 rV4 rV7 D1V98 D+8V15 B6V238 rV180 D+8V15 D1 D+8V15 D+8V15 D1V102 B7V15 A+7V15 A+7V15 G+7V15 G+7V15 G+7V15 C+8 G0V5 rV98 G0V95 F8V15 D1V100 C+8V15 G0V107 F+8V15 A+7V15 A+7V15 A+7V15 r D1V5 C+8V15 E0V93 D1V5 D+8V15 E0V95 D1V5 F+7V15 E0V96 D1V5 G+7V15 E0V96 D1V5 A7V15 E0V89 D1V5 B7V15 E0V93 D1V5 C+7V15 E0V91 D1V5 E7V15 E0V93 D1V5 F+7V15 E0V86 D1V5 G+7V15]
  [F0V4 D1V103 F0V107 D+8V15 A+8V15 C+8V15 D1V6 F+0 rV255 rV6 A0V10 D+0V31 F+0V10 F+0V10 A0V7 F+0V10 A0V4 F+0 rV4 rV4 rV4 rV1 A0V10 A0V28 F+0V10 F+0V10 A0V7 F+0V10 F+0 F+0 F+0 F+0 F+0 E5V78 rV31 F0V10 F+2V6 A0V31 F0V10 F+2V6 A0V31 F0V10 F+2V6 A0V31 F0V10 F+2V6 A0V31 F0V10 F+2V6 A0V31 F0V10 F+2V6 A0V31 F0V10 F+2V6 A0V31 F0V10 F+2V6 A0V31 F0V10 F+2V6 A0V31 F0V10 F+2V6]

$$ALL
  [E0V89 D1V5 C+7V15 E0V91 D1V5 E7V15 E0V93 D1V5 F+7V15 E0V80 rV7 E0V93 D1V5 F+7V15 E0V96 D1V5 G+7V15 E0V98 D1V5 B7V15 E0V89 D1V5 B7V15 E0V91 D1V5 E7V15 E0V94 D1V5 F+7V15 E0V96 D1V5 C+8V15 E0V93 D1V5 D+8V15 E0V96 D1V5 G+7V15 E0V98 D1V5 G+7V15 E0V98 D1V5 B7V15 E0V91 D1V5 C+8V15 E0V93 C+0V27 B6V134 rV93 D1V5 D+8V15 E0V96 D1V5 F+7V15 E0V96 D1V5 A+7V15 E0V98 D1V5 A7V15 E0V89 D1V5]
  [A0V31 F0V10 F+2V6 A0V31 F0V10 F+2V6 A0V31 F0V10 F+2V6 F6V1 F+2V6 A0V31 F0V10 F+2V6 A0V31 F0V10 F+2V6 A0V31 F0V10 F+2V6 A0V31 F0V10 F+2V6 A0V31 F0V10 F+2V6 A0V31 F0V10 F+2V6 A0V31 F0V10 F+2V6 A0V31 F0V10 F+2V6 A0V31 F0V10 F+2V6 A0V31 F0V10 F+2V6 A0V31 F0V10 F+2V6 A0V31 F0V10 F+2V6 A0V27 C+0V255 rV6 A0V31 F0V10 F+2V6 A0V31 F0V10 F+2V6 A0V31 F0V10 F+2V6 A0V31 F0V10 F+2V6 A0V31 F0V10]

$$ALL
  [B7V15 E0V93 D1V5 E7V15 E0V94 D1V5 B7V15 E0V100 D1V5 C+8V15 E0V91 D1V5 C+8V15 E0V95 D1V5 E7V15 E0V94 D1V5 G+7V15 E0V96 D1V5 A7V15 E0V89 D1V5 B7V15 F0 G6V84 A0 G+7V15 E0V98 D1V5 B7V15 E0V91 D1V5 C+8V15 E0V93 D1V5 E7V15 E0V94 D1V5 F+7V15 E0V96 D1V5 A7V15 E0V89 D1V5 B7V15 E0V96 D1V5 G+7V15 E0V98 D1V5 B7V15 E0V100 D1V5 C+8V15 E0V91 D1V5 C+8V15 E0V93 D1V5 F+7V15 E0V96 D1V5]
  [F+2V6 A0V31 F0V10 F+2V6 A0V31 F0V10 F+2V6 A0V31 F0V10 F+2V6 A0V31 F0V10 F+2V6 A0V31 F0V10 F+2V6 A0V31 F0V10 F+2V6 A0V31 F0V10 F+2V6 A0V31 F0V10 rV65 F0 C0 F0V10 F+2V6 A0V31 F0V10 F+2V6 A0V31 F0V10 F+2V6 A0V31 F0V10 F+2V6 A0V31 F0V10 F+2V6 A0V31 F0V10 F+2V6 A0V31 F0V10 F+2V6 A0V31 F0V10 F+2V6 A0V31 F0V10 F+2V6 A0V31 F0V10 F+2V6 A0V31 F0V10 F+2V6 A0V31 F0V10 F+2V6 A0V31 F0V10]

$$ALL
  [G+7V15 E0V98 B6V134 rV91 D1V5 C+8V15 E0V93 D1V5 F+7V15 E0V96 D1V5 G+7V15 E0V98 D1V5 A7V15 E0V89 D1V5 B7V15 E0V91 D1V5 E7V15 E0V94 D1V5 G+7V15 E0V98 D1V5 B7V15 E0V91 D1V5 C+8V15 E0V93 D1V5 E7V15 E0V94 D1V5 F+7V15 E0V96 D1V5 A7V15 E0V89 D1V5 B7V15 F0 G6V84 C0 F+2V6 A0V31 F0V10 F+2V6 A0V31 F0V10 F+2V6 A0V31 F0V10 F+2V6 A0V31 F0V10 F+2V6 A0V31 F0V10 F+2V6 A0V31 F0V10 F+2V6]
  [F+2V6 A0V255 rV6 A0V31 F0V10 F+2V6 A0V31 F0V10 F+2V6 A0V31 F0V10 F+2V6 A0V31 F0V10 F+2V6 A0V31 F0V10 F+2V6 A0V31 F0V10 F+2V6 A0V31 F0V10 F+2V6 A0V31 F0V10 F+2V6 A0V31 F0V10 F+2V6 A0V31 F0V10 F+2V6 A0V31 F0V10 F+2V6 A0V31 F0V10 F+2V6 A0V31 F0V10 rV65 F+0 C0 G+7V8 D0V98 G0V3 B7V8 D0V100 G0V3 C+8V8 D0V93 G0V3 D+8V8 D0V96 G0V3 G+7V8 D0V98 G0V3 B7V8 D0V100 G0V3 C+8V8 D0V91]

$$ALL
  [A0V31 F0V10 F+2V6 A0V31 F0V10 F+2V6 A0V31 F0V10 F+2V6 A0V31 F0V10 F+2V6 A0V31 F0V10 F+2V6 A0V31 F0V10 F+2V6 F6V1 G+10V93 G0V3 D+8V8 D0V96 G0V3 F+7V8 D0V96 G0V3 A+7V8 D0V98 G0V3 A7V8 D0V89 G0V3 B7V8 D0V93 G0V3 E7V8 D0V94 G0V3 E7V8 D0V93 G0V3 F+7V8 D0V86 G0V3 G+7V8 D0V89 G0V3 C+7V8 D0V91 G0V3 E7V8 D0V93 G0V3 F+7V8 D0V86 B6V6 rV80 rV4 F+2V10 D0V4 D+0V7 D+0V7 F+0V10]
  [G0V3 C+8V8 D0V93 G0V3 F+7V8 D0V96 G0V3 G+7V8 D0V98 G0V3 B7V8 D0V91 G0V3 C+8V8 D0V93 G0V3 F+7V8 D0V80 rV2 A0V31 F0V10 F+2V6 A0V31 F0V10 F+2V6 A0V31 F0V10 F+2V6 A0V31 F0V10 F+2V6 A0V31 F0V10 F+2V6 A0V31 F0V10 F+2V6 A0V31 F0V10 F+2V6 A0V31 F0V10 F+2V6 A0V31 F0V10 F+2V6 A0V31 F0V10 F+2V6 A0V31 F0V10 F+2V6 A0V31 F0V10 F+2V6 A0V255 rV7 F6 C0V128 rV100 D+8V8 G0V100 G0V100 F+8V8]

$$ALL
  [A0V7 F+0V10 D+0V7 F+0 F+0 F+0 F+0 rV4 rV7 F+0 rV7 rV7 F+0 F+0 F+0 G10V8 B6V230 rV1 F+2V10 A0V3 F+0V10 F+0V10 A0V7 F+0V10 F+0 F+0 F+0 F+0 F+0 rV98 rV8 G0 C+0V8 G0V102 F8V8 G0V98 C+0V8 G0V103 G0V95 G0V95 D+8 F+2V6 A0V31 F0V10 F+2V6 A0V31 F0V10 F+2V6 A0V31 F0V10 F+2V6 A0V31 F0V10 F+2V6 A0V31 F0V10 F+2V6 A0V31 F0V10 D0V96 G0V3 G+7V8 D0V98 G0V3]
  [G0V96 C+0V95 G0V95 C+0V93 C+0V93 C+0V93 G+7V8 G+7V8 G0V2 D+8V8 G0V2 G0V100 C+0V107 C+0V98 A+8V8 rV255 rV7 C+8 E0V2 C+0V98 C+0V95 F8V8 G0V100 C+8V8 C+0V98 C+8V8 A+7V8 A+7V8 A+7V8 F+2V10 F+0V10 A0V7 A0V7 F+0V10 A0V7 D+0V7 rV7 D+0V7 D+0V7 rV65 F+0 D0V96 G0V3 G+7V8 D0V98 G0V3 A+7V8 D0V98 G0V3 B7V8 D0V89 G0V3 B7V8 D0V93 G0V3 E7V8 D0V94 G0V3 F+2V6 A0V31 F0V10 F+2V6 A0V31 F0V10]

$$ALL
  [A+7V8 D0V98 G0V3 B7V8 D0V89 G0V3 B7V8 D0V93 G0V3 E7V8 D0V94 G0V3 G6V84 F+0 D+8V8 D0V91 G0V3 C+8V8 D0V93 G0V3 F+7V8 D0V96 G0V3 G+7V8 D0V98 G0V3 A7V8 D0V89 G0V3 B7V8 D0V91 G0V3 E7V8 A0V31 F0V10 F+2V6 A0V31 F0V10 F+2V6 A0V31 F0V10 F+2V6 A0V31 F0V10 F+2V6 A0V31 F0V10 F+2V6 A0V31 F0V10 F+2V6 F6V1 F+2V6 A0V31 F0V10 F+2V6 A0V31 F0V10 F+2V6 A0V31 F0V10 F+2V6 A0V31 F0V10]
  [F+2V6 A0V31 F0V10 F+2V6 A0V31 F0V10 F+2V6 A0V31 F0V10 F+2V6 A0V31 F0V10 C0 F0V10 F+2V6 A0V31 F0V10 F+2V6 A0V31 F0V10 F+2V6 A0V31 F0V10 F+2V6 A0V31 F0V10 F+2V6 A0V31 F0V10 F+2V6 A0V31 F0V10 G10V93 G0V3 D+8V8 D0V96 G0V3 G+7V8 D0V98 G0V3 B7V8 D0V100 G0V3 C+8V8 D0V93 G0V3 D+8V8 D0V96 G0V3 G+7V15 E0V80 rV8 D0V100 G0V3 G+7V8 D0V98 G0V3 B7V8 D0V91 G0V3 C+8V8 D0V93 G0V3 E7V8]

$$ALL
  [F+2V6 A0V31 F0V10 F+2V6 A0V31 F0V10 F+2V6 A0V128 B7V8 D0V100 G0V3 C+8V8 D0V93 G0V3 D+8V8 D0V96 G0V3 G+7V8 D0V98 G0V3 B7V8 D0V100 G0V3 C+8V8 D0V93 G0V3 r G0V3 F+7V8 D0V93 G0V3 F+7V8 D0V96 G0V3 G+7V8 D0V98 G0V3 B7V8 D0V89 G0V3 B7V8 D0V91 G0V3 E7V8 D0V94 G0V3 C+8V8 D0V91 G0V3 B7V8 D0V91 G0V3 C+8V8 D0V93 G0V3 F+7V8 D0V96 G0V3 F+7V8 D0V96 G0V3 A7V8 D0V89 G0V3]
  [D0V94 G0V3 F+7V8 D0V96 G0V3 A7V8 D0V89 F0V10 F+2V6 A0V31 F0V10 F+2V6 A0V31 F0V10 F+2V6 A0V31 F0V10 F+2V6 A0V31 F0V10 F+2V6 A0V31 F0V10 F+2V6 A0V31 E5V78 rV31 F0V10 F+2V6 A0V31 F0V10 F+2V6 A0V31 F0V10 F+2V6 A0V31 F0V10 F+2V6 A0V31 F0V10 F+2V6 A0V31 F0V10 F+2V6 A0V31 F0V10 F+2V6 A0V31 F0V10 F+2V6 A0V31 F0V10 F+2V6 A0V31 F0V10 F+2V6 A0V31 F0V10 F+2V6 A0V31 F0V10 F+2V6 A0V31 F0V10]

$$ALL
  [B7V8 D0V80 r G+14 G+6V3 D0V6 F0V180 B14V89 F+7V3 D0V6 F0V93 D+7V1 F7V3 F0V180 B14V79 F+6V3 C0V3 F0V91 B14 B14V79 D7V1 rV65 G0 C0V3 D0V6 F0V88 B14V90 D0V6 F0V180 B14V79 D7V1 D0V6 F0V91 F+7V1 C0V3 D0V6 B14V79 F0V91 C+7V1 D+7V3 G+14 G+6V3 D0V6 F0V180 B14V89 F+7V3 D0V6 F0V91 C+7V1 D+7V3 F0V180 B14V79 F+6V3 C0V3 F0V91 B14 B14V79 D7V1 rV65 G0 C0V3 D0V6 F0V88 B14V90]
  [F+2V6 F6 rV65 G0 C0V3 D0V6 F0V88 B14V90 D0V6 F0V180 B14V81 E7V1 D0V6 F0V91 F+7V1 C0V3 D0V6 B14V79 F0V91 C+7V1 D+7V3 G+14 G+6V3 D0V6 F0V180 B14V89 F+7V3 D0V6 F0V91 C+7V1 D+7V3 F0V180 B14V79 F+6V3 C0V3 F0V91 B14 B14V79 D7V1 rV65 G0 C0V3 D0V6 F0V88 B14V90 D0V6 F0V180 B14V79 D7V1 D0V6 F0V91 F+7V1 C0V3 D0V6 B14V79 F0V91 C+7V1 D+7V3 A14 G+6V3 D0V6 F0V180 B14V89 F+7V3]

$$ALL
  [D0V6 F0V180 B14V81 E7V1 D0V6 F0V93 G+7V1 C0V3 D0V6 B14V81 G+6V3 D0V6 D0V6 F6 D0V6 F0V93 G+7V1 C0V3 D0V6 B14V79 F+6V3 D0V6 D0V6 G+7V1 C0V3 D0V6 F0V180 F+6V3 D0V6 F0V180 B14V87 E7V255 rV8 G+7V1 C0V3 D0V6 F0V180 F+6V3 D0V6 F0V180 B14V87 E7V3 D0V6 F0V98 G+7V1 A+7V3 F0V180 B14V86 C+7V3 C0V3 E5V78 rV3 D0V6 F0V91 C+7V1 D+7V3 F0V180 B14V77 E6V3 C0V3 F0V93 G+7V1 C0V3 D0V6]
  [D0V6 F0V93 D+7V1 F7V3 F0V180 B14V81 G+6V3 C0V3 F0V93 G+7V1 C0V3 D0V6 F0V80 rV5 F0V180 B14V81 G+6V3 C0V3 F0V91 F+7V1 C0V3 D0V6 F0V81 G+6V3 D0V6 F0V180 F0V91 C0V3 D0V6 F0V86 B14V88 B6V178 rV81 G+6V3 D0V6 F0V180 F0V91 C0V3 D0V6 F0V86 B14V88 D0V6 F0V180 B14V86 A7V1 D0V6 F0V98 C+8V1 C0V3 D0V6 r D0V6 F0V180 B14V79 D7V1 D0V6 F0V89 E7V1 C0V3 D0V6 B14V81 G+6V3 D0V6 D0V6]

$$ALL
  [F0V79 F+6V3 D0V6 F0V180 E5V78 rV3 D0V6 F0V93 D+7V1 F7V3 F0V180 B14V79 F+6V3 C0V3 F0V93 G+7V1 C0V3 D0V6 F0V79 F+6V3 D0V6 F0V180 F0V89 r F0V91 F+7V1 C0V3 D0V6 F0V77 E6V3 D0V6 F0V180 F0V87 C0V3 D0V6 F0V86 B14V88 D0V6 F0V180 B14V77 C7V1 rV65 G0 C0V3 D0V6 F0V86 B14V88 D0V6 F0V180 B14V77 C7V1 D0V6 F0V93 G+7V1 C0V3 D0V6 B14V79 F+6V3 D0V6 D0V6 F6 D0V6 F6V1 F+2V7]
  [F+7V1 C0V3 D0V6 F0V180 r D0V6 F0V180 B14V81 E7V1 D0V6 F0V91 F+7V1 C0V3 D0V6 B14V81 G+6V3 D0V6 D0V6 F+7V1 C0V3 D0V6 F0V180 G6V84 G+0 B14V79 F+6V3 D0V6 D0V6 E7V1 C0V3 D0V6 F0V180 F+6V3 D0V6 F0V180 B14V87 E7V3 D0V6 F0V89 B6V1 C+7V3 A14 F+6V3 D0V6 F0V180 B14V87 E7V3 D0V6 F0V89 B6V1 C+7V3 F0V180 B14V81 G+6V3 C0V3 F0V91 F+7V1 C0V3 D0V6 F0V80 rV11 B14V80 r F+0V119]

$$ALL
  [A0V31 A+9V7 F+0V119 F+0V10 F+2V7 F+0V7 A+9V7 A0V31 F+0V10 F+0V119 F+0V2 F+2V7 A0 A+9V7 C+0V31 F+0V10 rV119 F+0V7 F+2V7 A0V31 A+9V7 F+0V119 F+0V10 F+2V7 F+0V7 A+9V7 A0V31 F+0V10 F+0V119 F+0V2 r F+0V7 A+9V7 A0V31 F+0V10 F+0V119 F+0V2 F+2V7 A0 A+9V7 C+0V31 F+0V10 rV119 F+0V7 F+2V7 A0V31 A+9V7 F+0V119 F+0V10 F+2V7 F+0V7 A+9V7 A0V31 F+0V10 F+0V119 F+0V2 F+2V7 A0 A+9V7 C+0V31 F+0V10 rV65 G+0 F+2V7]
  [F+0V2 F+2V7 A0 A+9V7 C+0V31 F+0V10 rV119 F+0V7 F+2V7 A0V31 A+9V7 F+0V119 F+0V10 F+2V7 F+0V7 A+9V7 A0V31 F+0V10 F+0V119 F+0V2 F+2V7 A0 A+9V7 C+0V31 F+0V10 rV119 F+0V7 F+2V7 A0V31 E5V78 rV31 F+0V10 rV119 F+0V7 F+2V7 A0V31 A+9V7 F+0V119 F+0V10 F+2V7 F+0V7 A+9V7 A0V31 F+0V10 F+0V119 F+0V2 F+2V7 A0 A+9V7 C+0V31 F+0V10 rV119 F+0V7 F+2V7 A0V31 A+9V7 F+0V119 F+0V10 F+2V7 F+0V7 A+9V7 E4 A+9V7 F+0V119]

$$ALL
  [A0 A+9V7 C+0V31 F+0V10 rV119 F+0V7 F+2V7 A0V31 A+9V7 F+0V119 F+0V10 F+2V7 F+0V7 A+9V7 A0V31 F+0V10 F+0V119 F+0V2 F+2V7 A0 A+9V7 C+0V31 F+0V10 rV119 F+0V7 F+2V7 A0V31 A+9V7 F+0V119 B6V53 rV119 F+0V7 F+2V7 A0V31 A+9V7 F+0V119 F+0V10 F+2V7 F+0V7 A+9V7 A0V31 F+0V10 F+0V119 F+0V2 F+2V7 A0 A+9V7 C+0V31 F+0V10 rV119 F+0V7 F+2V7 A0V31 A+9V7 F+0V119 F+0V10 F+2V7 F+0V7 A+9V7 A0V31 F+0V10 C0 F+0V10 rV119]
  [F+0V10 F+2V7 F+0V7 A+9V7 A0V31 F+0V10 F+0V119 F+0V2 F+2V7 A0 A+9V7 C+0V31 F+0V10 rV119 F+0V7 F+2V7 A0V31 A+9V7 F+0V119 F+0V10 F+2V7 F+0V7 A+9V7 A0V31 F+0V10 F+0V119 F+0V2 F+2V7 A0V255 rV9 A0V31 F+0V10 F+0V119 F+0V2 F+2V7 A0 A+9V7 C+0V31 F+0V10 rV119 F+0V7 F+2V7 A0V31 A+9V7 F+0V119 F+0V10 F+2V7 F+0V7 A+9V7 A0V31 F+0V10 F+0V119 F+0V2 F+2V7 A0 A+9V7 C+0V31 F+0V10 rV119 F+0V7 G6V84 D+0 A+9V10 A0]

$$ALL
  [F+0V10 C+0V119 F+0V10 rV119 F+0V10 rV119 F+0V10 C+0V119 F+0V10 rV119 F+0V10 F+2V7 F+0V7 A+9V7 A0V31 F+0V10 F+0V119 F+0V2 F+2V7 A0 A+9V7 C+0V31 F+0V10 rV119 F+0V7 G6V84 E0 A+9V10 A0 F+2V7 A0 A+9V10 A0 A+9V10 A0 F+2V7 A0 A+9V10 A0 A+9V10 A0 F+2V7 A0 A+9V10 A0 A+9V10 A0 F+2V7 A0 A+9V10 A0V255 rV9 A0V255 rV9 A0V31 F+0V10 F+0V119 F+0V2 F+2V7 A0 A+9V7 C+0V31 F+0V10 rV119]
  [F+2V7 A0 A+9V10 A0 A+9V10 A0 F+2V7 A0 A+9V10 A0 A+9V7 C+0V31 F+0V10 rV119 F+0V7 F+2V7 A0V31 A+9V7 F+0V119 F+0V10 F+2V7 F+0V7 A+9V7 A0V31 F+0V10 r F+0V10 rV119 F+0V10 C+0V119 F+0V10 rV119 F+0V10 rV119 F+0V10 C+0V119 F+0V10 rV119 F+0V10 rV119 F+0V10 C+0V119 F+0V10 rV119 F+0V10 rV119 F+0V10 C+0V119 F+0V10 rV119 B6V12 rV119 B6V53 rV119 F+0V7 F+2V7 A0V31 A+9V7 F+0V119 F+0V10 F+2V7 F+0V7 A+9V7 A0V31]
