
$OPN, $UNKNOWN_0x9D,

!ALL

$Inst1,
$Inst2,
$Inst3,
$Inst4,
$Inst5,
$Inst6,
$Inst7,
$Inst8,
$Inst9,
$Inst10,
$Inst11,
$Inst12,
$Inst13,
$Inst14,

$$ALL
  [D+5 D+5 D+5 r r r r r r r r r r r r r r r r C10V101 F5V112 E8V52 C+0 r rV210 C+2 rV254 D+12 rV75 F+0 rV205 G18 rV189 C21 rV204 D11 rV191 G12 rV87 D6 rV235 C+11 rV3 r rV147 D5 rV121 D11 rV171 F+19 rV7 D+16 rV33 F+15 rV157 B7 rV189 D10 rV148 A+17 rV142 C5 rV44 B6 rV203 D20 rV55 C8 rV142 D+0 r G0V1 rV2 C0V3 C+0V4 D0V5 D+0V6 E0V7 F0V8 F+0 G0V2 C0V3 D0V3 r r r D5 C0 r r C8V105 G8V75 A6V55 C+8V63 rV249 r r r r r r r r r r r r r r rV255 r rV255 r rV255 r rV255 r rV255 r rV255 r rV255 rV1 F0V6 A+5 rV65 C0 D0V6]
  [D+5 D+5 D+5 r r r r r r r r r r r r r r r r G+8V101 D9V101 rV67 rV1 rV1 rV6 G+0 rV10 A0 rV11 B0 rV18 F+1 rV21 A1 rV22 A+1 rV26 C+2 rV27 D+2 rV30 F2 rV33 A+2 rV38 C+3 rV40 E3 rV41 F3 rV43 F+3 rV44 G+3 rV46 A3 rV47 A+3 rV48 B3 rV49 C+4 rV51 D4 rV51 D+4 rV52 D+4 rV52 E4 D0V5 D+0V6 E0V7 F0V8 F+0 G0V1 rV2 C0V3 C+0V4 D0V5 C0V1 D0V3 r r r rV164 rV1 rV1 C0 r C9V119 C8V105 r r r r C+0 rV5 F+0 rV10 B0 rV15 C0V16 D+1V4 F0V16 D+1V9 A+0V16 D+1V14 rV208 D+17V3 E0V208 D+17V8 A0V208 D+17V13 D1V208 G18V2 D+0V224 G18V7 G+0V224 G18V12 C+1V224 r F0V6 F0V6 E0 A6 C+1 G+0V4]

$$ALL
  [C1V68 r r C+0V78 r F+9V32 B2V244 D+5V8 G0V1 C0V31 F+0 F6V78 r F+9 G+1V255 B0V9 C+0V1 r A+6V4 C0 C+0 rV80 rV3 r rV255 r rV255 r rV255 r rV255 r rV255 r rV255 r rV255 r rV255 r rV255 r rV255 r rV255 r rV255 r rV255 r rV255 r rV255 r rV255 r rV255 r rV255 r rV255 rV97 D8V255 rV102 G8V255 rV107 C9V255 rV112 F9V255 rV117 A+9V255 rV255 rV255 rV255 rV255 rV255 rV255 rV255 rV255 rV255 rV255 rV255 rV255 rV255 rV255 rV255 rV255 rV255 rV255 rV255 rV255 rV255 rV255 rV255 rV255 F6V78 r G+8V110 A5V36 B0 D+5 rV1 D+6V7 C0V78 r C+9V116 C4 G+0V40 rV1 A0V244 G+20 G6V192 F+4 B0V72 D+8V108 rV255 G0 rV78 F6V50 rV65 G2V110 r C0V12 D+0V255 rV5 B18V3 rV31 C6V83]
  [D+0 C6V10 r B5 A+0V66 C8 C+0V26 rV1 A0V244 G+20 G6V192 D+6 F0V67 F+3V8 rV15 E0V4 C+0V1 C0V8 rV31 C6V83 A2V78 rV77 rV255 r rV255 r rV255 r rV255 r rV255 r rV255 r rV255 r rV255 r rV255 r rV255 r rV255 r rV255 r rV255 r rV255 r rV255 r rV255 r rV255 r rV255 r rV255 r rV255 r rV255 r rV255 r rV255 r rV255 r G+5 r r r r r r r D1 r r r r r r r r r r r D1V15 D1V15 D1V15 D1V15 D1V15 C+6 C1V69 A+6V102 r r F1V10 G+0V249 G2V80 A+6V75 F6V14 C9V110 B2V244 D+5V8 G0V1 C0V31 F+0 F6V78 r C8V32 E5 rV1 E6 rV69 rV214 F6V105 E8V77 r G0V7 r C0 A+6V4 C0 r]

$$ALL
  [A2V78 E8V76 r C0V2 rV78 F6V50 rV65 E6V13 C0 rV255 G+5V73 A17V34 F+9 E1V255 G0V7 C+0V2 r rV31 C6V83 A2V78 rV65 r rV255 G+5V73 A17V34 G9V118 E5 G+0V10 C0 r rV1 D+20 r rV226 rV255 r rV117 D+8V83 E5 C0V1 r rV31 C6V83 A2V78 A+8V101 rV255 D+0V1 C0V1 A+6V80 D8V111 B3V48 rV120 C0V1 rV255 rV255 F12V163 G+12V102 D+2V60 F+2V3 F+19V147 D15V243 F8V106 B9V106 C12V90 A1V171 G+12V105 D18V114 C14V204 A6V82 E7V102 E8V153 B6V89 G+12V168 G+13V44 D+12V42 C7V56 D14V172 C15V170 C7V181 C7V85 F8V170 C+0 A+9V95 C9 rV129 rV255 rV255 rV255 A+10V249 B3 F+2V253 rV3 rV79 D1V10 rV159 D+9V7 B19V231 G20V151 D0V232 D16V224 F16V48 F+10V15 F10V193 F+2V31 A7V127 B0V136 C+1V252 D11V7 C16V7 C20V225 B1V28 C9V59 G+18V110 D+20V56 C+13V225 F+13V28 D+10V150 A+3V213 A3V67 G+18V171 G4V205 A0V90 C14V122 C6V193 C11V85 C15V120 A1V74 G19V92]
  [rV117 D+8V77 r E6 rV69 rV214 B6V109 rV1 rV83 F6V1 C+4 E5 C+3V8 rV15 E0V4 C+0V255 A+6V4 C0 r rV97 G0V2 C0V83 F6V1 C+4 E5 E5V112 rV255 F0V2 r r rV133 r r r C6V83 A2V78 E8V76 G9V114 rV255 C+0V255 A+6V4 C0 r rV112 E5 C0V4 C+0V255 C0V255 C0 A+9V95 C9 rV129 rV255 rV255 rV255 G+12V136 G14V68 rV248 D11V95 B18V249 G+20V165 G5V193 D4V70 C+3V204 D+2V153 F4V203 F6V167 F7V57 E7V229 C7V153 G3V147 A16V212 C+14V83 C14V149 G+8V203 F17V170 E4V170 E4V170 A12V101 C7V85 A+6V80 D8V111 C4V48 rV120 C0V1 rV255 rV255 C+14V196 C2 A+15V252 C16V16 A+18V248 B20V15 B11V248 D1V97 D+3V132 rV55 G7V208 D+15V251 G18V63 B19V31 C+5V221 C2V224 D1V232 D14V15 D1V129 G+20V31 C+1V136 D+9V14 E17V14 A+10V240 G+18V206 D+17V120 A18V143 A4V171 A6V228 F+16V240 G+14V232 D+4V104 D12V28 A+1V56 C+17V147 E19V37 C+11V174 C+17V79 D+16V168 C8V178 D+4V201]

$$ALL
  [G+8V58 A+5V70 C7V210 D+3V90 E4V220 C7V25 F+7V227 D+19V92 F15V120 A11V205 A8V106 B18 A3V109 G+10 rV255 rV255 rV255 C0V252 G+10V6 r rV255 B19 rV34 C0V255 F+0V1 B4V118 D9V3 B5V5 F16V57 C+5V114 C+0V128 F19 C+9V172 F+10V121 B20V4 A+3V248 A+12V36 C+18V169 G7V178 A+4V112 C+12V166 C+14V193 C2V114 A20V40 F1V150 F+7V170 E14V90 B19V166 A18V182 C+7V42 C+14V142 C+14V102 C+14V170 F14V170 A13V155 C+14V74 A14V169 A14V170 A13V170 C+14V170 F3V150 C+14V170 C+14V170 C+14V170 C+14V170 C+14V169 C+14V170 C+14V170 C+14V170 C+14V170 C+14V170 C+14V170 C+14V170 C+14V170 C+14V170 C+14V170 C+14V170 C+14V170 C+14V170 C+14V170 C+14V170 C+14V170 C+14V170 C+14V170 C+14V170 C+14V170 r F+2V7 G0V7 G+19V255 r D+0V129 E0V4 G+10V180 A+10V15 D2V7 F+9V4 F+0V1 B8V4 B1V101 A8V8 rV109 G10V106 G+10V7 C0V255 r E9V6 D2V7 D0V7 F+0 F+0V3 D0V7 G9V237 A+2V114 E8V7 D+0V129 C0V1 rV7 G0V109 B6V174 rV110 G+10V6 D+0V129 B8V8 G0V15 G10V12 rV180 G+10V118]
  [G3V234 F+9V58 B6V71 B14V172 G+8V163 G12V29 F14V209 F7V150 C7V165 F15V167 G+1V77 G+8V116 D+11 rV1 rV255 rV255 A+4V15 rV128 G18V255 G10V14 F+10V255 rV248 B0V36 rV248 D+2V227 F+10V9 rV224 D1V239 C+0V141 A+19V192 E0V184 B7V39 C+1V9 G4V220 F1V38 D+3V138 E3V221 C+5V162 C4V164 C+12V27 A+12V252 G+13V189 B4V90 G+4V26 A14V87 A13V154 A11V216 F8V171 F14V226 F12V178 A8V138 A+14V170 C+14V44 C+14V170 F3V170 G13V170 C+14V178 C+14V172 C+14V170 C+14V170 C+14V178 C+14V170 C+14V170 C+14V170 C+14V170 C+14V170 C+14V170 C+14V170 C+14V170 C+14V170 C+14V170 C+14V170 C+14V170 C+14V170 C+14V170 C+14V170 C+14V170 C+14V170 C+14V170 C+14V170 C+14V170 C+14V170 C+14V170 C+14V170 C+14V170 E5V78 rV1 rV7 G0V109 B6V142 rV110 G+10V6 D+0V129 B8V8 D+0V3 rV180 C0V131 F+0V7 F+0V4 F+8V8 G10V110 D11V108 G10V108 F0V4 B6V137 rV180 G2V225 G+10V108 D+0V131 C+9 G10V4 A+8V128 A9V4 D0V116 F0V4 G+10V2 F+2V7 G0V7 G+19V255 r D+0V129 E0V4 G+10V180 A+10V12 B8V8 G+19V3 F+9 D+0V128]

$$ALL
  [E8V7 D+0V129 B14V31 D9V1 G9V237 B1V101 F+0V3 E8V27 F+0V101 G6V84 D+0 F+0V15 rV111 D1V35 B8 A+2V108 rV12 D9V3 B0V7 D0 A+8V128 D+0V128 D+0 G+19V27 E8V27 E8V7 C+9V135 B8V143 A+8V129 rV24 A8 B14V7 rV108 B8V130 D0V7 D0V7 F+0V3 A+2V119 E11V12 F+0V3 G2V2 G6V84 F0 D+0V128 D+0 D0V115 G10V4 G10V4 G10V4 rV3 D+0V128 E11V114 D2V7 E5V78 rV254 r F+0V4 rV111 D+0 C+0V129 B0V244 G+10V1 F6 C0V255 rV1 G0V101 B9V27 D+0V4 A+0V7 G+0V106 F+0V11 E9V4 A+0V128 D+0V7 B10V102 F+0V11 C9V9 A+0V7 G+0V109 F+0V11 G8V4 r B0V3 D10V3 C+10V3 C+0V1 E8V1 B14V3 E0V4 G+10V5 D+0V129 F+0V4 rV65 C0 F+0V13 F+0V13 E10 A+10V120 F+10V129 rV118 A9 rV114 F0V7 G10V107 F+0V11 F9V9 A+0V7 G+0V107 F+0V11 D8V4 A+0V128 D+0V7 G10V106 F+0V11 D8V9 B6V216 rV123 rV123 C+10 rV116 B9 rV123 F+10 G10V4 G10V4 B14V7 D0V7 D0V7]
  [F0V4 G+10V2 G0 D0V7 A9V4 G9 A+10V115 D+0 D9V4 r F+0V35 B0V7 A+2V113 F+0V15 C+9V3 D1V3 D0 D0V7 rV12 F+0 E8V27 E8V27 E8V12 D+0V128 D+0V128 F0V111 F+0V110 F+0V108 A9V3 rV65 r G0V3 D0V7 F+9V3 B14V111 D9V143 A+10V110 G2V3 D0V129 G+10V111 G2V2 r F+0 F+0 E9V4 D2V7 D2V7 D2V7 A+4V113 F+0V27 E8V3 rV1 rV180 r E5V78 rV63 D+15V3 B1V66 G5V2 G+10V5 C+0V129 B14V80 r B6V163 rV31 C10V4 D+0V4 C0V162 D+0V7 G10V110 F+0V11 C+9V9 A+0V7 G+0V103 F+0V11 A8V4 A+0V128 D+0V7 G10V113 F+0V11 E5V78 rV148 D0V12 D0V12 D0V12 F+2V12 D0V12 rV8 D+0 F0V4 G+10V8 D+0V129 D18 F+0V13 F+0V13 D0V13 C1V3 D0V13 B0V3 D0V12 B0V3 rV7 G+0V102 F+0V11 D9V4 A+0V128 D+0V7 G10V102 F+0V11 F+8V9 A+0V7 G+0V109 F+0V11 F+8V4 A+0V255 rV1 rV3 D0V12 B0V3 D0V12 B0V3 D0V12 B0V3 D2V12 D0V12 F0V7 F0V7 F0V7]

$$ALL
  [D0V7 D0V7 D0V7 D0V7 D0V7 D0V7 D0V7 D0V7 D0V7 D0V80 rV5 B0V4 D10V4 G+10V180 B0V3 D0V12 B0V59 C12V12 G+10V125 B1V32 rV80 rV6 rV24 rV24 B0V7 rV24 rV24 rV24 D2V7 D0V12 B14V3 E5V78 rV254 r B0V4 rV115 D+0 C+0V129 B0V244 G+10V1 F6 F+0V10 A0V3 D0V10 A0V3 D0V10 A0V3 D0V10 A0V3 D2V10 G6V84 C0 C0V3 B14V94 A7V3 G10V97 D0V10 A0V180 A+10V91 D0V10 F+7V131 A0V3 B1V8 A0V1 D0V10 r A+10V91 D0V10 F+7V1 A0V3 B14V90 F+6V128 G10V86 D7V129 G11V180 r A+10V87 D0V10 D7 D8V1 E7V1 A0V180 C0V3 D0V10 A0V3 D0V10 A0V3 D0V10 A0V3 D0V10 rV92 E7V131 F6 D0V10 A0V3 D0V10 A0V3 D0V10 A0V3 D0V10 D0V10 A0V3 D0V8 G0V1 r A0V3 A+10V84 D0V10 A0V3 B14V79 D0V10 A0 A0V3 C0 D0V10 A0V24 G6V84 F0 C0V3 B14V93 D0V10 A0V180 C0V3 B7V129 C0V135 G6V84 F+0 G0V1]
  [F0V7 F0V7 F0V7 F0V7 F0V7 F0V7 F0V7 F0V7 F0V7 F6 C0V141 D0V12 D2V12 C+10 rV116 G9 B0V101 D0 A+2V127 C0V32 F6 F+2V7 G10V103 rV4 G+10V105 F11V99 G10V103 G10V108 G10V4 A9V9 rV180 r E5V78 rV63 D+15V3 B1V66 G5V2 G+10V5 C+0V129 B14V80 r G+18V130 A+10V91 F+8V129 A+10V94 C+7V129 A+10V97 E7V131 G+10V100 G11V2 r A0V3 A+10V94 D0V10 D0V10 D0V10 C8 A7 D0V10 F+7V1 A0V180 G+10V89 B14 D7V132 E5V78 rV3 B14V91 D0V10 F+7V129 A+10V90 D0V10 A0V3 D0V10 A0V3 E5V78 rV3 B14V87 D0V10 A0V32 D0V10 E7V131 A0V3 G+10V95 D7 rV90 D7 rV89 D7 rV80 B14V3 D0V10 A0V80 rV4 F+7V131 A+10V98 A+6V131 G+10V82 A7V129 G+10V89 A0V87 F+7V129 rV120 A+7V129 G6V84 E0 C0V3 B14V84 D7V129 A+10V79 D0V10 C+0V137 F+6V131 C11V89 A0V1 B6V129 F11V2 r A0V3 A+10V93 D0V10 G7V131 A0V3 rV180 C11V95 A0V1 r D+10 D0V8]

$$ALL
  [C+10 D0V8 rV180 G0V1 r G6V84 r E0 E0 E0 E0 E0 E0 E0 E0 E0 E0 E0 E0 E0 E0 E0 E0V7 rV129 rV134 rV129 rV129 rV134 rV129 rV129 rV129 rV129 rV134 rV129 rV129 D+11V10 D+11V10 D+11V10 r C+0V7 F+0V7 C+0V7 C+0V7 C+0V7 C+0V7 F+0V7 C+0V7 C+0V7 F+0V7 C+0V7 C+0V7 A0V7 A0V7 C+0V7 F+0V7 C+0V7 C+0V7 F+0V7 C+0V7 C+0V7 C+0V7 C+0V7 F+0V7 C+0V7 C+0V7 F+0V7 C+0V7 C+0V80 rV2 F+0V5 F+0V5 F+0V5 F+0V5 F+0V5 F+0V5 F+0V5 F+0V5 F+0V5 F+0V5 F+0V5 F+0V5 C0V131 C0V131 C0V131 C0V131 C0V131 C0V131 C0V129 B6V39 rV129 rV134 rV129 rV129 rV129 rV129 rV134 rV129 rV129 rV134 rV129 rV129 rV136 G+10V136 G+10V137 rV129 rV129 rV134 rV129 rV129 rV129 rV129 rV134 rV129 rV129 rV134 rV129 rV129 rV136 rV65 D0 G+10V2 C+11V7 G+10V2 G+10V2 C+11V7 G+10V2 G+10V2 E0V7]
  [rV112 B14V3 F+9 G6V84 G0 C0 E0 E0 E0 E0 E0 E0 E0 E0 E0 E0 E0 E0 E0 E0 E0 E0 C+0V134 rV129 rV129 rV134 rV129 rV129 rV129 rV129 rV134 rV129 rV129 rV134 F+0V5 D+11V10 D+11V6 E5V78 rV7 C+0V7 C+0V7 F+0V7 C+0V7 C+0V7 C+0V7 C+0V7 F+0V7 C+0V7 C+0V7 F+0V7 C+0V7 A0V7 F+0V7 C+0V7 C+0V7 F+0V7 C+0V7 C+0V7 C+0V7 C+0V7 F+0V7 C+0V7 C+0V7 F+0V7 C+0V7 C+0V7 C+0V7 F6 F+0V5 F+0V5 F+0V5 F+0V5 F+0V5 F+0V5 F+0V5 F+0V5 F+0V5 F+0V5 F+0V5 F+0V5 G+10V2 C0V131 C0V131 C0V131 C0V133 C0V131 C0V129 C0V255 rV3 rV129 rV129 rV134 rV129 rV129 rV129 rV129 rV134 rV129 rV129 rV134 rV129 rV136 rV136 D11V129 rV134 rV129 rV129 rV134 rV129 rV129 rV129 rV129 rV134 rV129 rV129 rV134 rV129 rV136 C16 C+11V7 G+10V2 G+10V2 C+11V7 G+10V2 G+10V2 G+10V2 G+10V2 C+0V7]

$$ALL
  [F+0V129 F+0V5 E0 E0 E0V7 A+10V129 D+11V10 E0V7 F+0V7 G0V7 G0V80 rV5 F+0V5 F+0V5 F+0V5 F+0V5 F+0V5 F+0V5 F+0V5 F+0V5 F+0V5 F+0V5 F+0V5 F+0V5 F+0V1 F+0V1 F+0V5 F+0V5 F+0V5 F+0V5 F+0V5 G+10V2 E0 C0 E0 E0 E0 E0 E0 E0 C0 B6V144 rV129 rV134 rV129 rV129 rV134 rV129 rV129 rV134 rV129 rV129 rV134 rV129 C11V136 E11V136 G6V84 F+0 C+11V7 E0V7 D0V7 D+0V7 F+0V7 D0V7 D+0V7 F+0V7 F+0V7 F+0V31 B10V10 A0V133 B1 r C+0V7 F0V80 r B7V3 G6V84 C0 rV98 B7V131 A+10V96 B7 rV96 B7V129 rV98 B7V131 A+10V96 B7 rV96 C+8 rV96 E5V78 rV3 D0V2 C+0V3 D0V2 C+0V3 D0V2 C+0V3 D0V2 C+0V3 D0V2 C+0V3 D0V2 C+0V3 C12 B7V131 A+10V96 B7 rV96 C+8V131 rV96 B7V129 rV98 B7V131 A+10V96 B7 rV96 C+8 rV98 E5V78 rV3 D0V2 C+0V3 D0V2 C+0V3 D0V2 C+0V3]
  [F+0V5 G+10V2 E0 E0 C+0V136 F+0V5 G+10V2 F+0V7 F+0V7 G0V7 F6V1 F+0V5 F+0V5 F+0V5 F+0V5 F+0V5 F+0V5 F+0V5 F+0V5 F+0V5 F+0V5 F+0V2 F+0V5 F+0V1 F+0V1 F+0V9 F+0V5 F+0V5 F+0V5 F+0V5 F+0V5 E0 E0 E0 E0 E0 E0 E0 E0 E0 C0V255 rV3 rV129 rV129 rV134 rV129 rV129 rV134 rV129 G+10V129 rV134 rV129 rV129 rV136 E11V136 C11V13 r G+10V3 G+10V3 D+0V7 F+0V7 D0V7 D+0V7 F+0V7 D0V7 D0V7 D0V7 D1V1 C11V132 G+0V10 E5V78 rV7 D+0V7 F6 G20V96 rV96 r C+0V3 D0V2 C+0V3 D0V2 C+0V3 D0V2 C+0V3 D0V2 C+0V3 D0V2 C+0V3 D0V2 C+0V3 D0V2 r A+10V96 B7 rV98 B7 A+10V96 C+8V131 rV96 B7 G+10V98 C+8 G+10V96 B7 rV65 D+0 C+0V3 D0V2 C+0V3 D0V2 C+0V3 D0V2 C+0V3 D0V2 C+0V3 D0V2 C+0V3 D0V2 C+0V3 D0V2 r A+10V96 B7 rV98 B7 A+10V96 C+8V133 rV98]

$$ALL
  [D0V2 C+0V3 D0V2 C+0V3 E12 B7V131 A+10V96 B7 rV96 C+8V131 rV96 B7V129 rV98 B7V129 G+10V98 C+8V131 A+10V96 B7 rV98 B7V255 rV4 D0V2 C+0V3 D0V2 C+0V3 G6V84 F+0 D0V2 C+0V3 D0V2 D0V2 C+0V3 D0V2 B6V7 rV255 rV5 D0V3 F+0V7 A+0V11 D1V80 rV1 B14V3 A9V1 B14V3 B9 C0V135 F+9V131 B14V3 C9V1 E10V133 F6 F+0V3 C11V5 B0V4 C0V129 D0V3 D+0V145 G+10V114 B14V80 rV3 C0V130 G+10V111 D0V131 C0V137 F9V131 B14V3 C11V13 D+0V129 D3 G9V14 D0V1 F+0V3 A+9V255 rV5 B8V15 B0V1 C0V129 G+10V108 C9V15 B0V1 C0V129 G+10V109 D0V3 D0V1 B8 C0V129 D+11V2 r D0V3 C0V129 D0V3 A+10V180 r E5V78 rV162 A10V244 B6V41 rV7 D+0V4 D+0V4 D+0V4 F6 A10V122 A+10V180 D0V3 rV180 A+10V116 D0V180 G+10V120 A+10V180 D0V3 D0V80 rV2 D+0V129 C+10V15 F+0V3 D0V1 B0V4 D0 D0V3 F6 A10V115 D0V131 C0V130 G+10V116 D0V180 G+10V116 A+10V118]
  [C+8 rV96 B7V129 rV65 D+0 C+0V3 D0V2 C+0V3 D0V2 C+0V3 D0V2 C+0V3 D0V2 C+0V3 D0V2 C+0V3 D0V2 C+0V3 D0V2 B6V49 rV96 C+8V149 rV98 C+8 rV96 r B7V3 C+8 rV98 C+0V96 C+8 rV96 C+8V255 rV4 B6V41 rV7 D+0V4 D+0V4 D+0V4 F6 A10V118 A+10V180 D0V3 rV180 A+10V113 D0V180 G+10V115 A+10V180 D0V3 D0V80 rV2 D+0V129 A+9V15 F+0V3 D0V1 B0V4 D0 D0V3 F6 A10V111 D0V131 C0V130 rV113 D0V180 G+10V114 A+10V115 F+0V4 rV65 E0 F+9V141 F+0V3 D0V3 B6V134 rV180 B14V7 F+0V3 D0 rV180 B14V7 F+0V3 D0 rV180 E10V131 D0V3 G+10V108 D0V24 G6V84 F0 G+11V111 D0V1 B14V3 E5V78 rV254 r D0V3 C0V255 rV6 D0V3 F+0V7 A+0V11 D1V80 rV1 B14V3 C+10V1 B14V3 E10 C0V135 B9V131 B14V3 E9V1 G10V133 F6 F+0V3 C11V5 B0V4 C0V129 D0V3 D+0V145 G+10V116 B14V80 rV3 C0V130 G+10V115 D0V131 C0V137 G9V131 B14V3 C11V13]

$$ALL
  [F+0V4 rV65 F0 A+9V141 F+0V3 D0V3 B6V136 rV180 B14V129 D0V7 G+10V112 F+0V3 D0 rV180 B14V7 F+0V3 F+9V151 D2V3 C0V129 D0V3 rV80 rV6 C13V115 B14V3 F9V131 C0V255 rV6 B6V21 rV3 B1V11 F6 A19V123 E0V6 G+0V10 C1V14 C8 D0V3 C0V129 D10V137 C0 D0V3 C0V130 D0V3 C0V129 G9V131 rV65 F+0 B0V4 D0V133 A+9V15 rV180 G+10V9 D1V1 A9V140 C+7 F+0V3 D1V1 B14V7 D0V3 C0V130 D0V3 F+0V3 G+10V6 G6V84 D+0 D0V3 C+10V14 E10V137 F6 C0V129 G+10V115 F+9V9 rV180 B14V7 F+0V3 D0 rV180 B14V15 D0V1 G+10V115 D0V1 C+0V136 F6 C0 F+11V117 D0V1 B14V3 E5V78 rV254 r D0V3 C0V255 rV8 D0V3 F+0V7 A+0V11 D1V80 rV1 B14V3 F+10V1 B14V3 G10 C0V135 D10V131 B14V3 C10V1 C11V133 F6 F+0V3 C11V5 B0V4 C0V129 D0V3 D+0V145 D0V3 B6V86 rV7 C+10V15 D1V180 B14V3 D10V1 B14V3 D0V7 D+0V129 B14V80 rV4 D0V3 A+10V124]
  [D+0V129 D3 B9V14 D0V1 F+0V3 C10V255 rV6 D+9V15 D0 G+0V3 rV180 C0V131 G+10V111 D9V9 F0V1 C0V4 D0V1 G+10V111 D0V1 C+0V136 F6 C0V3 D0V3 G+10V180 A+10V113 B6V7 rV255 rV6 A+10V141 B14V80 r D+0V4 D+0V4 D+0V4 rV65 F+0 A10V123 D0V180 A+10V118 D0V1 B14V3 D0V1 A10V118 D0V180 D0V3 E6 F+10V15 D+0V137 G+10V9 B14V3 A9V133 E0V7 D0V3 rV65 F+0 B14V7 F+0V3 D1V1 B14V3 D0V1 A10V119 D+0V133 D+0V1 r D0V157 rV180 D10V14 D0V80 rV5 D0 rV180 B14V3 F+9V2 D1V1 C0V129 G+10V114 F9V2 A+9V147 D2V3 C0V129 D0V3 rV80 rV6 D0V3 C0V129 D0V3 A+10V180 r E5V78 rV165 A+10V244 B6V41 rV7 D+0V4 D+0V4 D+0V4 F6 A10V127 A+10V180 D0V3 rV180 A+10V125 D0V180 G+10V123 A+10V180 D0V3 D0V80 rV2 D+0V129 G+10V15 F+0V3 D0V1 B0V4 D0V1 C+10V255 rV8 D1V180 B14V7 C+10V15 G+11V180 D0V3 C0V130 D1V4 G+10V4 F6 F+0V3 E10 F+0V3]
