
$OPN, $UNKNOWN_0x9D,

!ALL

@T50.00

$Inst1,
$Inst2,
$Inst3,
$Inst4,
$Inst5,
$Inst6,
$Inst7,
$Inst8,
$Inst9,
$Inst10,
$Inst11,
$Inst12,
$Inst13,
$Inst14,
$Inst15,
$Inst16,
$Inst17,
$Inst18,
$Inst19,
$Inst20,
$Inst21,
$Inst22,

$$ALL
  [D+5 D+5 D+5 r r r rV10 r r r r r r r r r r r r C8V97 E8V82 D8V98 C+0 r rV30 C+12 rV140 A+0 rV191 F+11 rV176 C1 rV35 A15 rV17 B11 rV222 G+7 rV253 G12 rV113 C12 rV193 D+13 rV143 F+1 rV19 B19 rV30 D+5 rV171 D0 rV222 E16 rV229 C8 rV67 B11 rV235 B5 rV164 D16 rV51 D+20]
  [D+5 D+5 D+5 r r r D+4 r r r r r r r r r r r r E13 C+8V110 rV67 rV1 rV1 rV11 A+0 rV12 C1 rV17 E1 rV18 F+1 rV20 B1 rV62 E5 rV65 F5 rV67 G5 rV68 G5 rV69 A5 rV70 A+5 rV72 B5 rV73 C6 rV73 C+6 rV76 E6 rV78 G6 rV80 A6 rV83 A+6 rV83 B6 rV84 C7]

$$ALL
  [rV77 D+19 rV225 F8 rV147 C21 rV230 B5 rV165 A+20 rV40 C11 rV157 E17 rV19 D5 rV112 B11 rV206 G3 rV108 C14 rV242 C2 rV79 C9 rV154 A+17 rV43 C+8 rV179 G6 rV138 E14 rV215 C9 rV120 A+0 rV194 E19 rV83 D9 rV156 F+17 rV25 B6 rV54 A7 rV138 E15 rV255 A3 rV37 D+6 rV123 r rV3 E0V5 E0V8 E0V11 D+0V4 D+1 r D0V3]
  [rV86 C+7 rV88 D+7 rV88 E7 rV90 F7 rV90 F+7 rV91 F+7 rV92 G7 rV93 G+7 rV93 G+7 rV93 A7 rV94 A7 rV95 A+7 rV95 A+7 rV95 B7 rV96 B7 rV97 C8 rV97 C8 rV97 C+8 rV99 D+8 rV100 E8 rV101 E8 rV101 E8 rV102 F8 rV103 F+8 rV103 F+8 rV104 G8 rV105 G+8 rV1 rV1 D0V4 F0V4 D+0V4 B0V12 C+1V5 C0V1 C0V1 D+0V4]

$$ALL
  [E0V7 A0V5 B0V12 D+0V4 r D+0V6 D0V3 E1V19 A+1V23 C2V17 D2V29 rV3 D0V3 D0V4 G0V4 G+0V11 D0V3 r C+0V2 D0V2 E0V2 r A0V10 C+0V2 r rV4 F0V6 F0V9 F0V12 F0V6 E1V1 r D+0V4 G0V10 C1V1 D1V15 E1V17 r r F+0V8 F+0V8 G0V8 D1V7 E1V19 C0V1 D+0V4 F0V6 E0V11 B0V13 E0V15 r C0V1 D0V4 F+0V8 r G0V8 A0V10 r C0V3 E0V5 G0V9 rV8 G0V8 C+1V1]
  [D+0V8 D+0V4 C1V5 D1V17 C+0V3 G+0V10 C1V15 E1V22 C2V25 F+1V27 C0V1 D0V3 D0V3 F+0V3 G+0V9 A0V4 D0V13 rV1 C+0V2 C+0V2 F+0V2 rV9 C+0V3 C1V1 r E0V6 F+0V6 C0V6 C1V13 D1V15 C+0V2 C+0V2 F+0V7 F+0V11 F+0V7 D+1V8 F1V20 D0 E0V6 F+0V9 B0V1 D1V15 G0V17 r D0V3 E0V5 E0V5 rV5 E0V14 D1V16 r C+0V3 D+0V4 G+0V10 G0V8 G0V8 D1 C0V2 D0V4 F0V8 r G0V8 G0V10 C0V1]

$$ALL
  [C0V1 D0V3 C0V1 r r A8V115 F+8V116 F+9V115 E8V58 G2V32 G2V104 E8V108 E8V32 C+9V32 G2V115 rV128 C0 C0 rV150 rV70 A+9V116 G+8V86 r r r r rV3 E0 rV8 A0 rV13 D1 D+1V2 D+0V16 D+1V7 G+0V16 D+1V12 C+1V16 D+17V1 D0V208 D+17V6 G0V208 D+17V11 C1V208 D+17 C+0V224 G18V5 F+0V224 G18V10 B0V224 G18V15 r F0V6 F0 rV10 r B8V49 F+5V111 D8V77 E8 rV108 C4V99 D9V107 D+8V108]
  [D0V3 C0V1 r r rV105 G8V112 F+9V103 E8V104 A0V104 C8V116 G3V105 G2V97 C+10V112 G2V104 D9V108 r rV4 r r G+8V111 D6V110 F+4 D5 rV63 r r r r r r r r r r r r r r r rV255 r rV255 r rV255 r rV255 r rV255 r rV255 r C0V6 F0V6 rV156 A5V65 D9V107 G+9V116 C5V10 E8V116 E5V59 A+8V101 G9V109 A0V105 G9V117]

$$ALL
  [C+9V84 E8V61 E5V73 r E0V7 D1V17 A6 G5V82 rV6 C6V83 A2V78 F9V109 E6V61 r rV20 C0 G+20V2 C+0V2 C0V1 C+4 E5 E8V116 F6V50 rV65 G+9V101 E6 A+3 D+5V8 rV1 D+6V7 C0V78 r C+9V116 G2 C1V85 G+6V15 F+2 D+5 E0V5 C+4 E5 E8V116 r C0V15 r C6V83 A2V78 F9V109 E6V67 r r C0V255 r A0 rV10 rV78 r C+9V116 F4V70 rV40 rV1 A0V244 G+20 G6V192]
  [B5V116 B8V101 r rV2 A0V12 G1V65 r rV1 C0V3 r rV110 G9V32 rV16 D1 r E5V2 rV1 C0 G+5V73 D+19V34 F+9V114 C4V69 rV232 C6V115 D9V50 C0 r F1V10 G+0V249 G2V80 A+6V76 F6V14 C9V110 C3V244 E0V51 C+15 rV2 G5 G+5V73 D+19V34 F+9V114 D+4V77 r G+4 rV255 r rV110 G9V32 rV16 D1 r C16V1 D+5 r D+5 A+6V75 F6V13 C9V110 rV7 D+5V8 G0V1 C0V31 F+0 F6V78]

$$ALL
  [B2 C1V73 C+9V32 rV31 C6V83 C1V78 F9V109 E6 C3 D+5V8 rV1 D+6V7 C0V78 r C+9V116 G+4V83 rV255 rV3 E0V255 rV8 A0V255 rV13 D1V255 rV18 G1V255 rV23 C2V255 rV28 F2V255 rV33 A+2V255 D0V60 D+3V255 rV43 G+3V255 rV48 C+4V255 rV53 F+4V255 rV58 B4V255 rV63 E5V255 rV68 A5V255 rV73 D6V255 rV78 G6V255 rV83 C7V255 rV88 F7V255 rV93 A+7V255 rV98 D+8V255 rV103 G+8V255 rV108 C+9V255 rV113 F+9V255 rV118]
  [r G9V117 A+6V4 C0 r rV110 G9V56 C0 r F1V10 G+0V249 G2V80 A+6V244 F6V13 C9V110 C0 rV255 r rV255 r rV255 r rV255 r rV255 r rV255 r rV255 r r r rV255 r rV255 r rV255 r rV255 r rV255 r rV255 r rV255 r rV255 r rV255 r rV255 r rV255 r rV255 r rV255 r rV255 r rV255 r rV255 r]

$$ALL
  [F6V241 rV255 rV255 rV255 rV255 rV255 rV255 rV255 rV255 rV255 rV255 rV255 rV255 rV255 rV255 rV255 rV255 rV255 rV255 rV255 rV255 rV255 rV255 rV255 rV255 C+4 E5 E8V116 rV7 D+5V8 G0V1 C0V31 C1V8 rV206 G2V80 A+6V93 F6V14 C9V110 C3V244 A0V95 r rV2 E5 G+10V1 rV5 F6V50 rV65 G+9V101 E5 D0V1 r G0V255 D+5 r D+5 G+5V73 D+19V13 F+9V114 D4V70 r rV8 A0V244 G+20 G6V192]
  [D1V15 D1V15 D1V15 D1V15 D1V15 D1V15 D1V15 D1V15 D1V15 D1V15 D1V15 D1V15 D1V15 D1V15 D1V15 D1V15 D1V15 D1V15 D1V15 D1V15 D1V15 D1V15 D1V15 D1V15 G+5V73 D+19V13 F+9V114 B3V70 r rV3 A0V244 G+20 C0V255 D+6V7 C0V78 r C+9V116 C4 rV82 G+6V15 F+2 D+5 D+0 rV68 B15V69 rV232 C6V115 D9V49 rV255 rV5 r rV9 G+0 rV12 B0 C+4 E5 E8V116 rV7 D+5 rV1 C0V31 F+0 F6V78]

$$ALL
  [G+9 C+1V73 C+9V32 D+20 r rV18 C+0V9 r C0V253 F0V255 F0 F+0 F6V78 r G9V117 rV77 C7V47 D1 D+5 rV76 E0V1 r rV110 G9V49 rV31 C6V83 A2V78 F9V109 E6V12 r A+6 F6V14 C9V110 B2V8 r D2 r C6V83 A2V78 F9V109 E6V67 r r C0V255 rV4 A0 rV12 rV78 r C+9V116 G2 D+1V255 r r C0 r D+5 r E10 C+1V73 C+9V32 D+20 D1 rV18]
  [r G9V117 rV77 A6V15 D1 D+5 rV77 rV1 C4 C0V1 rV255 G6V192 D+6 C+1V73 C+9V32 D+20V1 D4 rV18 C+0V9 rV32 C6V83 D+0V78 F9V109 A+6V4 C0 r rV110 G9V49 rV1 rV78 r C+9V116 C4 D+1V255 rV107 r C0V255 r rV110 G9V32 rV16 D1 r C16V1 D+5 r D+5 A+6V95 F6V14 C9V110 F+5V8 r r r F0 rV12 B0 F6V78 r G9V117 rV77 G6V42 D1 D+5]

$$ALL
  [C+0V9 r C0 r F0V255 r rV5 E6V50 A+8V8 C+7 rV255 rV255 rV205 A+12V231 rV2 A+19V255 C0 D+0V185 F18V239 E3V66 D+1V32 F+18V222 F+19V229 F3V85 C3V50 E17V83 A+8V237 D18V181 C7V36 G13V148 C7V86 E14V85 B6V85 C7V85 C7V85 C+4V2 rV93 r rV255 rV255 G20V24 rV4 r D5V3 rV248 F+10 C21 D0 B15V18 B15V192 F10V255 C+1V14 r B16V163 G4V255 D+5V238 F+17V151 F+18V71 D0V249 B15V51 C+3V228 C11V255 G+11V62 A+15V124]
  [rV77 r r C4 C0V1 rV68 B15V69 rV107 rV65 r rV255 rV255 D16V224 C+17V1 E15V254 C21V26 G0 A+19V127 E10V239 D+1V129 F5V90 G+15V247 C7V84 F11V138 F3V168 C7V182 C+15V219 C+14V170 C+12V36 C+6V169 D14V106 F7V85 C7V170 C7V85 C7V83 E9V8 B15 rV255 rV255 rV187 A14 D13V128 rV224 D11V192 D+20 C14V28 rV127 F+2V96 G20V255 C0V154 B17V24 E15 A+10V224 F+12V49 B20V243 C16V63 D13V180 G3V39 F+6V188 F4V118 D11V65 F+6V39 F2V56 B4V142]

$$ALL
  [D5V7 D+11V238 C2V57 G+15V134 A+19V143 F11V134 G+18V40 G12V38 D+20V15 E1V112 B16V51 rV63 G16V199 G10V163 D0V5 B3V139 B3V48 G+9V89 A+5V223 C+12V70 D5V185 G3V143 B12V94 D+15V71 F+6V217 rV130 D+9V115 B15V187 B19V7 A18V154 E10V235 E6V113 D1V156 E0V25 F12V140 F0V176 B4V77 C+18V98 A18V163 A16V155 B12V68 D11V168 A9V98 C1V25 G7V212 D14V170 C+14V83 A6V99 D+3V55 F+15 rV255 rV255 rV255 C+14V181 C14V18 C7V118 A8V42 C7V171 C7V82 C9V170 G5V20 A+9V238 C6V146 G+17V171]
  [G10V252 E2V254 C16V1 G10V172 G+18V135 D+9V195 G+20V241 F+16V15 F+16V247 C5V252 F+2V28 B15V143 D4V250 F+20V203 D0V155 A+20V143 rV176 A14V227 F12V135 rV244 F+2V62 C5V126 F+15V156 D0V95 A3V225 F+9V226 G+20V231 F+14V227 G19V241 B13V51 F+8V230 C+3V178 B9V24 B17V155 A+5V227 C+10V88 A11V217 A5V164 C16V163 G20V236 D+14V30 D7V98 D+20V10 G+11V86 A+6V22 C+14V170 C+4V11 D+8V110 D+11 rV1 rV255 rV255 B6V170 A8V82 G13V149 F+15V173 C+12V82 F7V90 C14V149 G+8V21 G+13V181 E14V85 C14V170 C+14V74]

$$ALL
  [A6V86 E12V72 E18V123 D+12V37 C+7V181 E3V170 G+13V148 A17V219 C+14V74 G+17V213 F3V74 C7V74 C+14V213 C+18V170 C+14V170 C+7V42 C+14V85 E1V84 F+15V182 C6V169 A17V86 C+14V106 C+12V34 F+20V187 C6V41 A+8V86 C7V170 C6V34 F19V247 A6V73 C15V91 C6V83 C+12V84 C15V235 C15V74 C+14V181 F3V74 C7V146 C6V214 C+15V172 G+13V171 C7V170 C7V85 B2V72 D9V182 F13V73 C15V171 C+7V85 C+12V73 F10V251 C6V37 A+8V85 A8V218 E12V82 E14V122 C7V164 C+14V181 A6V82 C+14V210 C14V90 C9V86 C+12V165 C7V170 C+14V169]
  [C+14V82 C7V214 A+8V170 B6V170 C+14V84 C+15V86 A2V36 F+15V109 C6V82 E14V171 D14V170 B5V36 F+20V119 C+12V73 G+17V107 E3V42 G13V36 E18V191 G+13V36 C+14V90 B6V165 C+14V41 A8V221 C+7V149 C+14V170 C14V148 C7V166 D+12V170 D18V77 C6V82 C+14V170 C7V85 G+0V20 G+15V219 C12V68 E14V171 C+7V85 A6V9 C21V190 E11V137 F7V181 C7V84 E12V82 C9V125 D14V74 C+14V213 F3V170 C7V170 C6V93 D18V84 A6V170 C+14V42 E6V165 C6V148 F18V182 C+12V37 C15V173 C+14V85 C+6V146 F19V238 B6V164 A17V181 C+14V37 D+3V82]

$$ALL
  [C6V73 A+9V221 B2V41 D14V170 B6V85 C+14V148 C+7V189 C+6V36 C+14V173 C14V149 C+12V82 G+17V182 C+7V85 C7V170 C7V170 G+13V73 G+13V202 C9V182 A6V74 A8V170 C+14V149 C14V74 F+20V221 G13V164 D14V171 E14V170 B6V85 C+18V221 C+14V73 C+14V85 C+14V182 A6V74 E14V107 C+7V170 C+6V170 D14V170 C7V165 G5V212 rV128 C0V74 F1V74 r C9 D0V255 G+1V17 C6V214 G+17V63 G10V63 rV127 C15V91 B2V170 C+12V109 E5 A6V255 C7V182 C9V41 C15V42 B15V87 B15 rV170 A6V109 E12V221 F+2 F+1V192]
  [A+8V86 C+14V82 C+14V90 C7V170 F3V37 G+6V165 D18V109 A6V74 G+17V85 C+14V82 C+6V41 E18V109 C6V74 F7V90 C+14V170 C+6V149 A+8V123 E12V73 C+14V181 C+14V85 C+6V42 G+13V109 E14V170 A6V170 C+14V170 E12V42 B6V85 F+15V109 E3V165 E14V173 C+14V84 C+14V42 F+15V109 G+13V148 C15V85 C+7V170 C+6V164 rV255 G+19V221 E18V173 A17V245 A14 F19V255 C7V169 A+19V77 C15V169 B3V181 C0V144 rV173 B6V219 C7V85 r A+6 C+0V255 F1V82 C7V85 C+15V127 G10V255 rV31 G+15V86 B6V105 G+13V117 r G+13V255]

$$ALL
  [G1V255 C+12V84 C7V165 G+19V31 rV7 rV148 A+15V34 G+17V84 C7V254 rV215 rV255 B17V191 G+6V170 F13V118 rV192 C+15V255 B2V255 F3V181 G+13V213 rV128 G10V255 rV255 F1V237 D+12V22 rV133 B15V255 rV255 G0V123 F3V255 C0V255 rV1 rV31 C+18V42 r r F+0V255 D5V168 F3V146 rV7 rV15 rV255 C3V221 A2V253 D1 E0V224 D5 A+15 rV3 rV62 rV1 rV15 G20V171 rV255 rV255 rV255 G3V123 G+2V255 rV96 rV255 rV254 E0V208 C0V224 A+14 B19V255]
  [E12V123 C15V164 D14V18 G20V3 G14V144 F+10V130 A17V86 A6V53 rV207 rV60 G+17V73 G13V181 C6V182 rV192 G+0 rV191 B5V182 C3V181 D0V128 D0V48 rV173 B5V218 C3V173 rV248 G1V32 rV207 B5V221 G+6V85 B15V224 rV10 rV75 C+18V111 C14V187 G10 rV192 D5 E10 rV254 A3V143 B19V255 rV255 G10V183 F+2 F+0 D0V255 D5V73 C+14V66 F+2 B4 rV127 C9V222 A14V255 rV255 B15V255 rV255 rV255 rV224 D0V192 rV255 G10V250 G+1V253 r rV255 C0V248]

$$ALL
  [rV85 F5V253 D0V192 rV255 rV255 E0V224 rV254 rV248 rV255 C+0V254 C14V255 G10V254 rV31 G10V255 rV214 r r rV15 F+20V255 F+10 r rV255 A+11 C+15V255 rV255 B15V255 rV255 rV170 B19 F+0 rV1 B20V47 rV255 B7V31 rV255 A3 r rV128 rV252 rV187 E14V255 rV254 B15V255 rV255 D1V212 F7V128 rV192 r B20V63 C5V103 r rV255 rV252 rV15 rV7 D+13V255 F+0 rV131 C0V120 F+2V255 r rV248 F+2 rV80]
  [A+0V192 rV224 C0 rV255 rV222 D+0V246 A10V240 G10V255 rV255 C0V252 B15V192 rV1 rV255 rV255 A+20 D+20V1 rV248 rV34 C+9V127 D+1V48 rV248 r r G18V248 rV3 rV255 rV248 r rV240 rV254 rV94 A+6V255 rV255 rV255 rV254 F+0V216 r D+0 rV3 B19V255 rV255 rV7 rV255 D0 A+5 r F+2V255 rV7 A+19 B20V31 rV63 G18V250 G+17 B19V124 B20V255 rV255 rV31 rV127 rV255 F+2V240 rV255 rV254 rV255 r]

$$ALL
  [rV127 r r r A+20V255 r C+5 rV3 rV255 D+0 F2V6 rV7 rV191 rV210 A0 rV1 C0V246 D+0V161 r rV209 D16V128 A+13V170 C+14V83 A6V99 D+3V55 F+15 rV255 rV255 rV255 F2V124 A11V1 B3V30 G20V227 B20V56 F2V192 B11V128 D+2V56 G15V255 D1V60 B19V225 F2V30 G+18V131 G20V225 B19V135 B19V112 F2V240 F2V124 D1V31 F2V240 G20V248 F+16V241 G18V129 D+2V240 F10V60 F+2V62 F+0V60 D1V30 F+0V31 B19V7 F+0V62 C+5V248 B9V198 C20V124 D1V120]
  [G20V255 r rV255 rV15 D+5V255 C+0V145 rV255 rV255 F+4V7 G10 rV255 rV255 r G18V249 G18V255 rV255 E20 G17V138 rV255 B20V54 D+9V135 C+14V170 C+4V9 D+8V110 D+11 rV1 rV255 rV255 rV1 F+10V248 F2V28 B9V124 A+11V31 B19V14 G4V112 D11V193 A11V195 A+18V143 B9V248 D11V143 D+2V224 D1V30 A+1V14 D11V15 F2V30 B9V135 B19V225 G18V195 A+10V15 A+11V159 D1V30 D0V60 C16V7 A+18V135 B19V195 G18V195 G20V195 D1V62 D+2V195 B19V240 B19V143 D1V62 A+10V231 B4V240]

$$ALL
  [D16V17 B9V225 F+9V248 D5V60 B19V225 G+18V225 F+0V240 B4V240 A+11V31 C+5V112 B19V131 C+19V135 B9V224 D5V254 F2V124 D+10V192 G20V224 D+10V240 C+5V240 C+5V224 B9V224 G20V224 B19V225 G18V195 B19V195 B19V24 G18V56 A+18V199 C+1V30 F+16V136 B19V193 B9V224 B4V120 C20V224 G+18V135 D16V3 A+20V231 C+5V156 rV135 rV255 B4V252 C7V255 D+1 rV255 rV255 rV255 r r rV54 r rV255 rV255 G1 r rV255 rV255 B20V255 r rV255 r D+12V169 r rV255 B15V255]
  [G18V195 G18V25 A+10V207 F10V120 D+9V120 D1V60 F+16V195 A+18V223 A11V1 B9V28 D+9V240 D20V252 A+18V195 D16V1 D16V193 D1V30 D11V31 D16V15 D16V135 D11V15 D11V15 F+0V30 D1V62 D1V62 D1V30 D+9V240 G18V225 B19V99 D1V120 F+2V60 D1V30 F+16V135 F2V248 F2V60 B4V241 C+5V252 B19V225 E10V192 r rV1 G+3V135 G6V129 rV255 rV13 F0 r rV255 rV255 rV255 r rV255 rV255 rV255 r r F+0 D6 rV255 G10V255 F5V255 E12 rV255 rV20 F3V82]

$$ALL
  [G+13V149 rV255 rV82 E12 r r rV248 rV82 rV240 G20V255 rV192 B19V240 rV63 D5V252 rV255 r G10V1 F+2V255 C+6 r rV255 r B15V5 rV255 r rV255 r rV15 rV255 rV254 r F+0V255 rV255 G18V255 r rV255 r G20V255 r rV255 rV240 E15 rV255 r B15V255 rV255 rV31 rV255 r r D5V240 rV31 rV255 r B19V255 F+2V7 rV7 r rV255 F+2 F+0 rV240 rV1 rV255]
  [r D1 rV255 C14V169 G10V255 rV255 D6V4 rV5 rV15 F10 G20V255 r rV255 rV127 rV255 rV255 rV7 rV255 B6 rV1 rV255 rV255 r B15V1 rV255 D5 r B19V255 r rV3 rV252 rV1 rV255 r G20V255 C0V224 r r r G18V255 rV255 r rV255 rV255 rV255 r rV255 r D5V7 r rV31 rV255 rV240 rV255 D5 rV15 G20V7 rV1 rV255 D5V240 D5 D0V255 rV192 G18V255]

$$ALL
  [rV255 G10V255 F+0V192 rV1 r r rV255 D1V252 r F+0V252 rV1 G10V255 r G18V255 F+2 rV7 G10 rV255 G4V161 F+10 r rV255 rV255 rV254 rV255 r rV255 G10V63 rV127 rV255 r F+0 rV224 rV127 rV255 r G20V255 F+2V94 r r rV255 A+1V243 G20 G10V255 F+10 rV31 rV128 D5V128 G20V255 C0V252 C+1 G20V255 r B15V255 rV255 rV63 rV240 rV48 rV255 r E12V72 rV32 D18V255 F+18V106]
  [rV32 B20V255 D0 r r rV255 D0V248 C0V128 rV192 rV3 G14V255 rV255 rV255 D5 rV15 r rV31 rV255 r A+7 rV128 G20V127 rV255 rV128 rV255 rV28 rV255 r rV243 B4V4 F+10 r A+18V255 rV255 rV181 G10V255 F+2V128 r G20 r G18V255 rV255 r B19V255 r rV192 rV128 rV255 B11V255 r rV255 F+2 rV255 r rV252 B20V255 r r F+0V231 A+15V240 C14V16 D+1V234 A15V86 D14V181]

$$ALL
  [D15V86 F14V18 F3V82 C7V170 C+14V106 F3V107 G+17V86 G+17V173 C9V73 C7V85 C+14V170 F7V37 C6V235 E12V170 E14V170 F3V170 C+14V170 C+14V170 rV82 F+8V40 rV187 r rV255 rV255 G+15V222 C+14V42 D+1V8 G+15V222 D10V34 C6V21 A+19V155 A+19V123 D+12V85 A+19V123 D10V189 C+6V74 G6V189 F20V123 D6V74 G0V222 A18V123 A+19V247 G0V222 G+2V239 G+15V222 B10V189 F5V222 G+15V222 G+2V168 D+1V123 F+20V123 D+1V136 G+2V236 A19V247 B10V66 G0V132 G+15V239 G0V132 G+2V8 G+15V238 F5V33 G0V66 G0V189 C14V8]
  [G+19V169 C7V146 C14V170 D14V170 D+3V181 C+14V173 G+13V106 C14V82 C9V169 F12V170 C7V74 E14V218 C+14V82 C15V173 C7V106 C7V42 B6V170 E6V50 D9V100 E3V8 G10 rV255 rV255 rV123 C+6V165 E12V90 D+1V220 G+2V189 F18V239 G+2V8 B10V226 D15V165 G0V66 G0V132 G+15V222 G+2V16 D+1V132 F+5V247 E1V8 B10V33 G+0V239 G+1V8 F5V16 F5V189 A16V66 C11V34 F11V178 C+12V16 C5V16 A+4V132 D3V10 F+20V33 A19V16 A+19V170 F18V8 F+15V34 F18V37 G+15V30 F+20V33 F18V239 F18V239 D10V94 G+15V222 D+1V222]

$$ALL
  [F5V33 F5V239 C6V66 G+1V8 G+2V8 G+15V169 G+15V8 A19V8 F+20V123 G+15V94 D10V30 D10V189 F5V222 E9V189 D10V189 G0V244 D+1V239 D+19V123 G0V132 D+11V66 D9V247 G0V132 F5V16 C+16V245 D+1V8 B10V33 B10V226 G+0V132 D+11V66 G0V213 F5V33 G+2V16 G0V239 F5V16 G+2V16 G+2V189 G0V132 G+2V16 B19V123 G0V132 G0V230 F18V239 G0V188 B13V189 D10V189 F5V189 F+20V123 F+20V187 F+20V11 G+15V16 G+15V136 A+0V132 D+1V8 A2V16 G+2V16 G0V189 D+1V8 D+1V222 A+19V247 C+16V239 F+20V123 G+15V238 F+20V16 F+20V66]
  [C18V239 A+19V247 B10V222 G0V239 F+15V222 B10V66 G0V196 A+19V123 D+1V8 D+1V132 D+1V123 C+12V33 F5V33 F5V113 D10V138 A+3V16 A+5V16 F+20V123 D10V132 A19V136 F+20V123 G+15V38 G+15V71 F+20V123 F+20V123 F18V239 A+19V123 A19V123 F+20V123 G+15V239 G+15V238 F+20V123 F18V247 F18V111 D10V189 D10V222 D10V21 G+15V10 F+20V29 F18V132 F18V33 A19V136 A+0V132 F+5V33 C11V33 G0V132 F5V123 D+1V8 D+1V168 G+15V222 G0V188 B13V239 F18V239 E20V123 D10V189 D10V30 F18V8 C5V16 D11V33 F5V33 G+2V222 G0V132 G+2V122 D10V189]

$$ALL
  [E2V66 D+1V8 B10V189 B10V66 B10V234 A+19V247 G17V239 G+15V222 F+20V189 G+15V33 A+4V8 D11V34 G+2V16 B19V123 G0V244 F5V123 A+19V123 A19V247 F+20V11 A+19V33 E1V8 A2V222 G+2V16 F5V16 A+19V149 F18V239 F19V247 C14V132 C11V66 A+19V123 B10V66 D+11V66 F+20V146 A+19V226 G+15V222 G0V132 D+1V8 F18V239 D+1V247 B10V239 A+19V8 D19V16 A+19V123 G+2V16 G+2V16 C7V42 A+19V123 G+15V222 G0V132 D10V66 D10V73 D+11V247 B10V178 B2V33 A+19V123 F18V239 G0V132 A+19V66 F+15V74 D+1V220 G+2V208 B6V9 G+15V238 D10V189]
  [D+16V247 F+20V123 D10V222 A+19V66 A7V132 F+4V66 D+1V8 B10V123 D+1V136 F5V189 A+19V247 C+10V189 F+20V123 D10V29 F+20V34 A+2V240 B10V66 G+2V8 F18V247 F5V189 G0V123 G+15V94 F18V33 A19V247 F+5V33 B10V34 F+20V123 G0V247 F5V245 F+20V164 A+19V140 A+19V123 D+1V8 D+11V66 F18V239 B9V189 B13V238 G+8V8 A+0V132 A19V247 D+1V200 D+1V200 F+20V25 A+19V43 A+19V247 B10V66 A+9V16 C7V170 B10V187 B10V189 D+4V132 F+20V123 D10V85 F5V16 A+2V16 C14V84 G17V239 D+8V189 G+2V16 F18V239 G+15V78 D+1V132 A7V132 C+6V85]

$$ALL
  [G0V132 F+20V123 C+14V82 D+1V8 D11V66 C7V42 C18V239 F+20V123 G+2V16 F18V247 F+3V85 D+1V8 F+20V123 A6V137 B10V247 F+20V149 B10V34 F18V239 G+13V164 G+2V16 F18V247 A6V105 F5V189 G+15V94 G0V132 G+15V222 G+13V170 F5V33 D10V222 D+12V85 B10V194 F18V239 G+2V16 F+20V123 D10V146 A2V16 A+19V247 C+14V74 G0V132 D10V189 C7V16 D+1V239 A+19V87 G0V66 G+15V222 C7V169 G0V132 F18V239 C+14V17 D+1V8 D10V189 G0V132 G15V222 F18V83 A2V16 G+15V222 A6V148 F5V33 G+15V238 B6V8 G0V173 G+15V222 D+1V136 G+19V247]
  [B10V247 D+11V239 F3V16 A+19V123 D10V189 F5V16 A+19V9 G13V37 D+1V156 G6V189 C+6V16 A+19V247 B6V164 D+11V66 A+19V123 D+12V85 F5V33 A+19V247 F3V33 C18V239 A+19V148 B10V33 D10V189 C+14V82 B10V66 F18V239 C7V66 F5V189 G+15V37 G0V66 G+15V222 G+13V164 D+1V8 F+20V189 C+6V33 G+2V247 F+20V123 D+1V136 F+20V123 C7V169 D+1V8 F18V239 C+14V82 B10V66 F18V239 F+1V8 D+11V239 A+19V87 G+2V8 F+20V123 B6V164 B10V66 G+15V238 C+14V33 G+2V208 F18V239 B10V34 E15V222 F18V87 G0V132 D10V189 B2V41 G0V132 A+19V123]

$$ALL
  [F+20V75 G0V132 G+15V222 C+14V85 D+1V8 F18V239 B6V9 G0V132 G+15V239 G11V66 F5V170 G+15V222 G+2V16 B14V239 A+19V247 F5V16 G+15V222 F18V42 G0V132 G+15V222 F12V41 G0V132 A+19V247 C+12V133 B10V66 A+19V123 B6V132 B10V170 F+15V222 C11V66 F5V182 F+20V123 D+1V8 B13V86 D10V189 G+2V16 C+18V213 F18V239 F5V33 C9V182 G+15V222 D+1V136 C+15V235 F+20V123 F5V33 C9V54 F18V239 F5V33 C9V182 A+19V215 D+12V66 C+18V109 F18V235 G+2V20 G1V85 A+19V91 C+14V66 F13V97 G+15V238 C3V138 G0V132 A+8V189 G+15V149 F11V162]
  [C+4V8 G0V173 F18V239 G+2V16 D+14V239 A+19V247 D+1V132 G+15V222 F18V146 F5V33 D10V189 C+14V85 D+1V8 F18V239 A6V34 G+2V16 G+15V239 F3V8 G0V170 F18V239 D+1V8 B13V247 F+20V123 G0V66 E14V247 F+20V91 D+11V66 D10V189 G+15V170 F5V33 A+19V247 D6V146 G0V132 F+20V123 G13V73 D+1V8 G+15V222 C14V84 G+2V16 D10V189 C14V82 G0V132 A+19V247 G13V202 G+2V40 G+15V222 E12V164 E3V16 F18V238 C7V170 C+6V33 G+15V222 F18V73 B11V8 A17V247 F+20V169 B10V37 E14V91 F18V237 D+1V136 C7V170 E14V222 G1V132 C+6V106]

$$ALL
  [A+8V189 C15V174 B10V34 C9V170 C15V218 F1V10 G0V86 G+15V238 A6V169 G6V20 G+17V111 D9V74 D+12V33 C7V90 F14V235 B5V138 G13V219 F18V245 C7V42 G+2V20 C15V222 A17V36 G13V161 C7V86 G+15V221 G1V164 D+12V213 A+17V107 C+14V42 C12V137 C+14V214 F14V175 G+6V40 G+17V170 C+18V237 C7V138 D+3V148 G+9V189 F15V169 E3V138 D14V85 F15V173 G13V41 F13V106 A+17V117 C14V85 G+5V81 C+14V181 A+17V182 E3V82 G1V85 F7V87 C+14V165 G+6V74 C+14V86 C9V107 G+13V148 E3V170 F+7V93 G13V84 G+1V148 C+14V213 C15V181 F3V20]
  [D10V94 C7V66 C+6V41 D10V189 G+15V82 B5V164 C+18V85 E18V238 E13V40 A8V170 A19V183 C14V69 F5V97 G+15V222 C+14V149 B10V162 C7V238 A19V215 F5V37 C7V170 A17V111 C+14V66 C+6V209 C+10V173 C7V37 G5V69 A8V245 D15V123 G+6V145 C9V181 E14V215 E12V41 D+3V40 C15V214 E18V170 C+12V164 C9V170 E14V214 F3V81 G+6V212 C+15V107 C7V84 F13V40 C+14V170 G+9V91 D+12V69 G+13V170 G+7V87 C7V85 G+6V138 C7V171 F+19V215 G+6V146 A6V173 C+18V87 F3V170 G+6V73 A+8V85 C15V214 A6V74 C+6V86 C15V186 D14V84 A6V20]

$$ALL
  [A6V85 C7V173 E14V84 C+6V85 F7V181 F7V214 C+6V165 G+13V41 C7V173 A+8V214 B6V165 G+13V173 A8V86 D14V169 B6V85 C+7V85 E14V85 C+14V149 C7V84 C+14V85 C7V85 C+14V85 C+6V42 C7V170 A8V171 C+14V170 G+13V85 C+14V170 C7V170 A6V165 C+14V85 C7V213 C7V170 C7V42 C7V170 C7V170 C+14V85 C+14V82 F3V85 C+14V170 D14V170 C7V85 C+14V170 F7V85 C7V85 C7V85 C7V83 A6V99 D+3V41 rV34 rV255 rV255 rV255 C+14V170 C+5V128 rV241 rV127 C+0V32 rV127 B3 F+0V255 rV16 G11V255 B10]
  [C+14V85 E14V214 C+6V165 G+13V82 C7V173 A17V107 D+12V165 C+7V213 C+14V86 C7V170 C7V149 C+14V85 D14V106 C7V149 F3V74 C+14V85 A8V106 C+6V42 C14V85 C7V90 D14V85 B6V74 C+14V170 C+7V106 C+14V84 C+6V85 C7V85 A8V85 C7V170 C7V170 C+14V90 C7V181 F3V85 C7V170 C7V85 C7V85 C7V170 C7V169 C15V170 C7V85 C+14V170 C7V85 C+14V170 C7V85 C7V85 C7V85 C+4V2 D+8V110 E1 r rV255 rV255 C7V85 C+14V165 F+2V159 G16V4 A+18V199 G10V49 G+4V227 C+1V28 D17V22 C0V120 B20V243 B1V240]

$$ALL
  [C+16V119 F+8V198 D20V6 F+10V31 C2V156 C20V128 C20V142 E9V241 D0V196 A7V3 C+20V7 E2V120 A+10V143 C0V249 D13V28 D12V252 B4V65 C+5V96 F+2V206 B19V222 G19V16 C16V159 D+10V208 C16V197 F8V250 D11V188 G0V63 C16V13 D1V102 F+2V56 G11V143 G18V15 D11V28 D16V204 D8V121 D8V60 C+10V143 A20V113 C19V216 C+1V184 G+7V232 G+13V83 C8V170 E5V78 rV7 D0 rV182 rV112 rV1 C+15V3 D+9V129 C0 D0 rV182 rV65 r rV112 rV1 C+15V3 C+9 C0 D0 rV182 rV110]
  [B17V255 F1V32 A+18V36 C16V126 C+2V157 B4V200 G+2V240 D11V252 C+5V203 B8V147 D+1V3 D17V144 B1V3 B9V240 C+11V124 D+2V103 G18V240 A+4V166 D16V239 E2V1 F+9V3 G20V1 D+9V125 G+18V120 A+10V111 E2V59 D+2V99 G+18V25 C10V143 B4V195 B4V139 G11V124 C16V46 F+0V56 D4V46 C0V198 D+7V193 C+10V195 F+16V232 F+11V101 A3V232 D16V23 C+14V170 r F0V1 C+15V3 D+9 C0 D0 G+10V182 rV112 rV1 C+15V3 E9 F+8 D+9V129 C0 D0 rV182 rV110 rV1 C+15V3 C+9 C0]

$$ALL
  [rV1 C+15V80 rV2 C0 D0 F0V1 C+15V3 D+9V6 rV112 D+9 rV129 r rV255 r E5V78 rV3 E9V129 C0 D0 rV182 rV113 rV1 C+15V3 E9 C0 G6V84 E0 D0 rV182 rV113 rV1 C+15V3 C9V129 C0 D0 rV182 rV65 r rV80 rV7 B14V3 G6V84 G0 r rV106 A9 rV111 D10 rV123 D9 rV99 D9 rV106 A9 rV118 D+8 rV124 r F1V3 D0V18 F1V3 D0V18 F1V3 D0V18]
  [D0 F6 F+0 rV1 C+15V7 D0 rV182 C+15V3 G+10V182 rV129 r r B6V8 rV180 r G+10V182 rV113 rV1 C+15V3 D9 C0 D0 rV182 rV114 rV1 r rV1 C+15V3 E9 C0 D0 G+10V182 rV109 rV1 C+15V3 E9 C1 E9V173 F6 D0 C11V104 r E5V78 rV3 D0V18 F1V3 D0V18 F1V3 D0V18 F1V3 D0V18 F1V3 D0V18 F1V3 D0V18 F1V3 G6V84 A0 rV111 D9 rV118 D9 rV106 A9]

$$ALL
  [F1V3 D0V18 F1V3 D0V18 F1V3 D0V18 F1V3 F4 E9V129 C0 D0 rV182 rV111 B6V6 rV80 rV13 G6V84 C+1 r G+11V182 r B6V6 rV80 r C0 D0 rV182 rV103 rV1 C+15V3 G+8 C0 D0 rV182 r G+10V182 rV105 rV1 C+15V3 F+8 C0 D0 rV182 rV106 rV1 r rV129 C0 F+0 rV1 C+15V7 D0 C+15V3 G+10V105 rV105 rV105 G0 B14V80 rV4 C0 D0 rV182 rV104 rV1]
  [rV102 F8 rV107 C8 rV97 A+8 rV65 r rV113 rV1 C+15V3 D9 C0V255 r F6 C+13V106 r E5V78 rV3 E5V78 rV255 r F6 F+0 rV1 C+15V3 G+8 C0 D0 G+10V182 rV105 rV1 C+15V3 E5V78 rV3 G+8V129 C0 D0 rV182 rV101 rV1 C+15V3 F+8 C0 G6V84 C+0 rV105 rV1 C0 D0 F0V1 G+8V6 rV105 G+10V105 rV105 rV65 C0 F6 F+0 rV1 C+15V3 A8 C0 D0]

$$ALL
  [C+15V3 A8 C0 D0 rV182 r G+10V182 rV106 rV1 C+15V3 G8 C0 D0 rV182 rV107 rV1 r rV3 D6 A8V157 F+0V1 C0V7 F+0V1 C0V7 F+0V1 C0V3 E5V78 rV255 rV1 C0V3 E1V1 D0V17 D0V17 D0V17 D0V17 D0V17 D0V17 D0V17 D0V17 D0V17 D0V17 D0V17 D0V17 E1V80 rV10 B14V75 G10V180 D6V1 D6V1 D7V1 D6V1 A+5V1 A+5V1 A+6V1 A+5V1 C6V1 C7V1 D+6V1 D+7V1 rV65 C0 rV106 rV1 C+15V3]
  [G+10V182 rV106 rV1 C+15V3 E5V78 rV3 A8V129 C0 D0 rV182 rV102 rV1 C+15V3 G8 C0 G6V84 F0 rV65 C0 G+11V96 C+8V3 E0V101 F+8V8 A0V106 B8V13 D0V1 r B6V151 rV75 G10V180 D6V128 D0V17 D0V17 D0V17 D0V17 D0V17 D0V17 D0V17 D0V17 D0V17 D0V17 D0V17 D0V17 F6 D0V17 C0V3 E1V1 D6V1 D6V1 D7V1 D6V1 A+5V1 A+5V1 A+6V1 A+5V1 C6V1 C6V1 D+6V1 D+6V3 F4 A8V129 C0 D0 rV182]

$$ALL
  [G8 C0V255 rV1 F6 C+13V113 r E5V78 rV3 E5V78 rV255 rV1 F6 D0V1 G+10V180 r G+10V180 C0V3 B14V77 C0V129 C0V180 G6V84 C+0 D0V1 G+10V180 G+10V86 G10V180 C0V180 C0V180 r B6V136 rV110 B14V3 C0 rV180 C0V1 B9 rV110 B14V3 C0V1 C0V122 D0V1 rV111 D9V3 C0V80 rV5 C+10 C+9V3 C0V138 C+10V3 C0V122 rV130 C0V3 G+9 D0V1 rV123 C+11 F6 D0V1 G+9V3 C0V101 D0V1 C+9V3 C0V125 D0V1]
  [rV104 B6V6 rV80 rV13 G6V84 C+1 r G+11V182 r B6V6 rV80 r B14V3 E5V78 rV3 E6V129 G+10V89 B14V79 C0V180 C0V1 r C0V1 B14V3 C+7V129 C0V3 C0V180 C0V180 E5V78 rV255 rV2 D0V1 rV122 C0V3 C+9 D0V1 C0V3 D0V1 D0V1 D0V1 C+10V1 C+10 D0V1 D0V1 F6 D0V1 rV110 D0V1 C0V129 D0V1 G+9V3 C0 rV180 C0V1 F+10 D0V1 C0V80 rV6 C0V122 D0V1 G+10V3 C0V113 D0V1 C+10V3 C0V122]

$$ALL
  [G+9V3 C0V117 D0V1 E10V3 C0V110 D0V1 G+9V3 C0V101 D0V1 E10V3 C0V127 D0V1 F+8V255 rV2 E10V3 C0V110 D0V1 C+9V3 C0V117 D0V1 C+9V3 C0V117 D0V1 G+9V3 D0V1 C0V1 B14V3 C0 rV130 B14V80 rV8 B14V86 B10V180 C+7V132 B14V86 B10V180 r B10V180 D7V132 B14V87 B10V180 D7V132 F4 D+7V132 B14V88 B10V180 D+7V132 B14V88 B6V156 rV99 B14V99 B14V106 C0V3 D0V1 C0V180 C0V1 D0V1 D0V1 D0V1 D0V1 D0V1 D0V1 B14V124 B14V124]
  [D0V1 E9V3 C0V129 D0V1 G+8V3 C0V122 D0V1 G+10V3 C0V129 D0V1 C+10V3 C0V106 B6V161 rV129 D0V1 G+10V3 C0V113 D0V1 G+10V3 C0V113 D0V1 E9V3 C0V122 rV125 E10 D0V1 rV127 C0V3 D0V1 F6 D0V1 C0V3 C0V1 D0V1 C0V3 E5V78 rV3 C0V1 D0V1 C0V3 C0V1 rV65 C+0 D0V1 C0V3 C0V1 D0V1 C0V255 rV2 B14V99 B14V99 C0V3 C0V3 C0V180 C0V180 D8V128 D0V1 D0V1 D0V1 D0V1 D0V1 C0V130 B14V131 B14V131]

$$ALL
  [B14V80 rV12 D0V1 D0V1 D0V1 D0V1 D0V1 D0V1 D0V1 D0V1 D0V1 D0V1 D0V1 D0V1 D0V1 D0V1 D0V1 D0V1 F16 D11V3 C0V111 D0V1 D10V3 C0V135 D0V1 D9V3 C0V135 D0V1 D8V3 C0V123 D0V1 D10V3 C0V135 D0V1 D10V3 C0V123 D0V1 D+11V3 C0V80 rV14 C0V123 D0V1 D10V3 C0V135 D0V1 D10V3 C0V135 D0V1 D11V3 C0V114 B14V114 B14V126 B14V121 B14V116 B14V128 B14V131 B14V130 B14V80 rV15 C+1 D0V1 B6V151 rV87 G10V180]
  [F6 D0V1 D0V1 D0V1 D0V1 D0V1 D0V1 D0V1 D0V1 D0V1 D0V1 D0V1 D0V1 D0V1 D0V1 D0V1 D0V1 rV65 C+0 D0V1 A8V3 C0V130 D0V1 A10V3 C0V118 D0V1 A10V3 C0V106 D0V1 A9V3 C0V130 D0V1 A10V3 C0V130 D0V1 A9V3 C0V119 D0V1 F6 D0V1 A9V3 C0V130 D0V1 A10V3 C0V130 D0V1 A10V3 C0V106 D0V1 B14V126 B14V121 B14V133 B14V114 B14V123 B14V123 B14V126 B14V125 F6 rV65 C+0 C9V255 rV2 C0V3 C0V1]

$$ALL
  [D7V128 D0V1 D0V1 D0V1 D0V1 D0V1 D0V1 D0V1 D0V1 D0V1 D0V1 D0V1 D0V1 F6 D0V1 D0V1 D0V1 D0V1 D0V1 D0V1 D0V1 D0V1 D0V1 D0V1 D0V1 D0V1 D0V1 D0V1 D0V1 D0V1 rV65 C+0 A9V1 A10V1 A10V1 A10V1 A9V1 A9V1 D9V1 G9V1 C10V1 C11V1 C10V1 C10V1 D10V1 D10V1 F10V1 F10V1 r E5V78 rV3 C0V1 D0V1 B14V87 B14V87 B14V99 B14V87 B14V83 B14V83 B14V95 B14V83 B14V85 B14V85 B14V88]
  [D0V1 D0V1 D0V1 D0V1 D0V1 D0V1 D0V1 D0V1 D0V1 D0V1 D0V1 D0V1 C0V80 rV18 D0V1 D0V1 D0V1 D0V1 D0V1 D0V1 D0V1 D0V1 D0V1 D0V1 D0V1 D0V1 D0V1 D0V1 D0V1 D0V1 A13 D9V1 D10V1 D10V1 D11V1 D10V1 D9V1 D10V1 G9V1 F9V1 F10V1 F10V1 F9V1 G10V1 G9V1 A+10V1 A+9V1 G6V84 G1 r G10V180 D8V128 B14V87 B14V87 B14V99 B14V87 B14V83 B14V83 B14V95 B14V83 B14V85 B14V97 B14V88 B14V100]

$$ALL
  [B14V88 B6V19 rV87 C0V1 r C0V1 F7V129 C0V3 G+10V180 A+7V1 rV65 C+0 G+12V180 r B6V47 rV3 C0V3 C0V3 C0V3 C0V255 rV2 F6 D0V1 r rV84 A6 rV79 E6 rV74 B5 rV69 B6V6 rV80 rV1 C7 E7V5 E7V5 E7V5 E7V5 E7V5 E7V5 E7V5 E7V5 E5V78 rV7 A0V7 A0V7 A0V7 A0V7 A0V7 A0V7 E0V7 rV89 E5V78 rV3 D0V4 E0V3 D0V4 D+0V3 D0V4 D+0V3 D0V4 D+0V3 D0V4]
  [B14V255 rV2 C0V177 G6V84 A+1 D0V1 C0V3 C0V3 A+6V1 C7V128 D1 D7V129 E5V78 rV255 rV2 C0V3 C0V3 C0V3 C0V3 B6V6 rV80 rV28 E5V78 rV3 D0V1 C0V3 D0V1 C0V3 D0V1 C0V3 C0V255 rV2 F6 rV65 D0 E7V10 E7V10 E7V10 E7V10 E7V10 E7V10 E7V10 E7V10 r E0V7 E0V7 E0V7 E0V7 E0V7 E0V7 E0V7 A0V3 D0V5 r rV105 G+8 rV105 G+8 rV105 G+8 rV105 G+8V129 rV105 G+8]

$$ALL
  [D+0V3 D0V4 r rV105 G+8 rV105 G+8 rV105 G+8 rV105 G+8V129 rV117 G+9V3 G+9 rV65 D0 D+0V3 D0V4 E0V3 D0V4 E0V3 D0V4 E0V3 D0V4 r E0V3 D0V5 E0V80 rV7 G+8 rV105 G+8 rV105 G+8 rV105 G+8V129 rV105 G+8 G+10V105 E5V78 rV255 rV3 G+10V137 E11V129 rV137 E11 rV137 E11 G+10V137 E11V129 rV137 rV137 rV65 D0 D+0V3 D0V19 D+0V3 D0V4 D+0V3 D0V4 D+0V3 D0V4 D+0V3 D0V4]
  [G+10V105 E5V78 rV3 D0V4 E0V3 D0V4 D+0V3 D0V4 D+0V3 D0V4 D+0V3 D0V5 D0V5 E0V3 C7 D+11V129 G+10V136 D+11V129 rV136 D+11V129 G+10V136 D+11 rV136 E5V78 rV174 G10V115 F+9V128 F6 D0V12 E0V3 D0V4 D+0V3 D0V4 D+0V3 D0V4 D+0V3 D0V4 D+0V3 D0V4 r B6V110 rV137 D0V4 D+0V3 D0V4 D+0V3 D0V4 D+0V3 D0V4 D+0V3 rV137 rV137 C9 F+7V129 rV137 E11 rV137 F+7V129 rV91 F+7 rV137 F+7 rV91 E11V255]

$$ALL
  [B6V111 rV91 F+7 rV137 F+7 rV91 E11 rV91 F+7 G10V139 F+1V3 E11 F6 rV65 D0 B6V6 rV80 rV15 C3 G+8V133 C11V105 G+8V133 rV65 D+0 rV3 D0 rV3 D0 rV80 rV2 G+9 G+10V105 G+8V129 A+10V117 G+9V129 G+10V117 G+9V255 rV4 D0V7 F+0V3 D0 rV3 D0V7 F+0V3 D0V7 B6V59 rV105 G+8V133 C11V105 G+10 G+10 rV129 r rV3 D0 rV3 G6V84 F0 A+10V117 G+9V129 G+10V117 G+9V255 rV4 F6]
  [rV3 D0V4 D+0V3 D0V4 D+0V3 D0V4 F+1V3 D0V4 D+0V3 E11 G10V139 F+1V80 rV12 G+0 D+10V255 rV3 F6 rV65 D+0 rV3 D0 rV3 E4 G+8V133 C11V105 G+8V133 G+10V105 G+8 F6 D0 rV3 D0V7 F+0V3 D0 rV3 D0 B6V77 rV105 G+8V129 A+10V117 G+9V129 rV105 G+9V129 rV117 G+9V255 rV4 D0 rV3 D0 F+0V129 F+0V3 G6V84 E0 C11V105 G+8V133 C+11V97 r G+0V3 D0 rV3 D0 B6V6 rV80 rV8]

$$ALL
  [C+15V127 F+10V255 rV4 D0V16 D+1V3 D0V16 D+1V3 C5 F+10V131 A+10V127 F+10V131 G+10V127 F+10 G10V127 r rV80 rV12 F0 G6V84 C0 F6 F+0V2 F+8V133 F6 F+0V2 F+0V2 F+0V2 F+0V2 F+0V2 G6V84 D+0 C+0V3 D0V2 C+0V3 D0V2 C+0V3 D0V2 C+0V3 D0V2 r G+10V87 D7V129 G+10V75 D6 G+10V87 D7V129 G+10V75 D6 F6 D0V2 C+0V3 D0V2 C+0V3 D0V2 C+0V3 D0V2 C+0V3 G6V84 F0 C+0V3 G6V84 F+0 G0V80 rV8]
  [D0V16 B6V45 rV127 F+10V131 C11V127 F+10V131 rV65 D+0 D+1V3 D0V16 D+1V3 D0V16 D+1V3 G6V84 A+0 F6 rV65 D+0 r B14V80 r D0V2 C+0V80 rV3 F+0V2 F+0V2 F+0V2 F+0V2 F+0V2 r C+0V129 rV86 C+7V129 G+10V74 C+6V129 rV86 C+7V129 G+10V74 E5V78 rV3 D0V2 C+0V3 D0V2 C+0V3 D0V2 C+0V3 D0V2 C+0V80 rV5 D+7V129 G+10V76 D+6 rV88 D+7V129 G+10V76 D+6 rV88 r C+0V157 C11V107 r G0V173 F6 D0V8]

$$ALL
  [B14V7 rV65 E0 C+0V80 rV10 B6V15 rV7 rV65 E0 B14V80 rV13 A+0 F+0V2 r rV65 E0 E5V78 rV255 rV5 F6 E11V180 r C+0V158 A+10V111 r E9V158 A+10V111 r E9V9 E9V9 E9V9 E9V9 E9V9 E5V78 rV1 r A8V10 E5V78 rV158 C+0V255 rV6 A+0V3 D0V2 r C+0V3 D0V2 r A0V3 G+1 A7V157 C11V85 r D9V181 F6 C0V255 rV6 A0V3 C1 D0V2 F6 rV65 F0 G6V84 E1]
  [C+1V3 C1 A9V181 F6 C0V255 rV5 A0V3 C1 D9V11 F6 rV65 E0 G6V84 D1 A0 F+13V15 r B6V6 rV80 rV1 E5V78 r C+0V3 G6V84 C+0 C+0V3 G6V84 D0 E9V9 E9V9 E9V9 E9V9 E9V9 r G6V84 E0 D9V10 r C+0V141 B6V23 rV7 A+11V116 E5V78 r A+11V116 E5V78 rV7 rV65 F0 G+11V87 G6V84 A+0 C+0V80 rV12 B6V15 rV7 rV65 F0 B14V80 rV15 A+0 F+0V2 r rV65]

$$ALL
  [F0 G6V84 F+1 r B6V9 rV1 r G+9V9 C+0V3 A1 D0V2 C+0V3 B2 F+0V2 F+0V2 F+0V2 G6V84 D+0 D+1 F+0V2 G6V84 F0 A+9V10 r C+0V156 D11V119 r A9V156 D11V119 r G0V173 F6 D0V8 C+1V3 C11 D9 rV130 A9 rV135 A10 rV123 D11 rV123 D10 rV130 D10 rV112 A+10 F6 C0V255 rV7 A0V3 C1 D0V2 F6 rV65 F+0 G6V84 E1 F0 G6V84 F+1 r B6V9]
  [F0 r E5V78 rV255 rV7 G6V84 r G+8V142 rV65 F+0 B8V142 rV65 F+0 F+0V2 F+0V2 F+0V2 r rV65 F+0 F+0V2 r D+9V10 E5V78 rV128 C+0V3 G6V84 G0 C+0V3 G6V84 G+0 G0V80 rV10 B14V7 rV65 F+0 D1V3 D0V15 D1V3 D0V15 D1V3 D0V15 D1V3 D0V15 D1V3 D0V15 D1V3 D0V15 D1V80 rV12 B6V15 rV7 rV65 F+0 B14V80 rV15 A+0 F+0V2 r rV65 F+0 r E5V78 rV255 rV8]

$$ALL
  [rV1 r D0V128 C+6V1 D0V180 C0V3 D0V3 D0V180 D0V1 D0V180 C0V3 B14V86 B14V3 C0V3 B6V124 rV74 G+10V74 D0V3 C+6V1 C+6V3 D0V3 D0V3 D0V3 E6V1 D0V180 D0V180 B6V1 G6V84 C+0 D0V3 C+7V129 D0V128 C+6V1 D0V180 D0V3 B14V86 C0V7 C+6V12 C+6V12 E5V78 rV1 r E5V78 rV7 D7V129 D0V3 G+10V75 B14V75 C0V3 C0V3 D0V3 G+10V75 D0V3 D0V3 B14V76 B14V80 rV6 B14V87 D0V3 D7V129 D0V180 D7V1 D7V1 D0V3]
  [G6V84 C0 D0V3 C+7V129 D0V3 C0V3 D0V180 D0V180 C+7V129 D0V3 G+10V74 B14V75 C0V3 C0V255 rV8 C0V3 B14V86 D0V3 C+7V1 D0V3 D0V3 B14V89 D0V3 F+7V129 D0V180 A7V1 B7V1 r D0V128 C+6V1 D0V180 D0V3 C+7V129 D0V128 C+6V12 F+0V3 B0V1 C+6V12 C+6V12 r G6V84 F+0 r D1V1 D0V180 C0V3 B14V87 B14V3 C0V3 G10V180 C0V3 B14V87 D0V3 D0V88 B14V88 F6 D0V3 D0V3 D6V1 D0V180 D0V180 D6V1 F6V128 F6V1]

$$ALL
  [F7V129 D0V3 C0V3 D0V180 D0V180 r A0V3 G+1 A8V157 C11V82 r rV65 G0 D0V2 r G10V180 C0V3 B14V87 D0V3 D0V87 B14V87 E5V78 rV255 rV8 G6V84 D1 r B6V6 rV80 rV18 G+0 C0V255 rV9 E12V115 D9V255 rV9 D0V6 B6V8 rV180 r E12V116 D+9V255 rV9 D0V6 B6V14 rV111 G6V84 F+0 F+0V8 F8V129 F6 F+0V10 D8V129 C1V3 D0V11 D+10 G+10V99 D0V11 A+0V80 rV9 A+10 rV113 A+10 rV131]
  [D0V180 C0V3 D0V3 D0V180 E5V78 rV7 rV65 G0 G+11V80 G6V84 A0 D1 F+0V2 E5V78 rV3 D0V3 G+10V75 D0V3 D0V3 B14V75 B14V180 r B6V9 rV87 r E5V78 rV255 rV8 F6 rV65 G+0 B6V22 rV117 D0V6 B6V17 rV110 A9V255 rV9 E5V78 rV3 D0V6 B6V17 rV111 A+9V255 rV9 E14V112 r G0V1 D0V8 G0V80 rV8 D0V11 A+0V7 rV99 D8V13 A0V3 rV112 D8V129 F6 D0V10 C1V3 D0V11 A0V3 D0V11]

$$ALL
  [E9V129 rV99 A+10 G+10V124 D8 rV124 D+10 F6 C0V255 rV9 A0V3 G+0 A7V255 rV9 E5V78 rV255 rV9 F6 D11V180 r B0V3 D0V6 r C13V115 E5V78 rV1 r F0V3 D0V6 r C13V116 E5V78 rV7 rV65 A0 G+11V106 D0V8 B6V77 rV87 D0V10 A0V131 G+10V112 D0V11 A+0V7 G+10V112 D+9V255 rV10 D0V13 A+0V3 D0V13 C1V3 D0V14 C1V3 D0V13 C+1V3 D0V10 C1V3 D0V11 B6V8 rV180 r C+0V141 F6 D0V3]
  [A+0V3 D0V13 A+0V3 D0V13 A+0V3 D0V14 C1V80 rV10 B6V15 rV7 rV65 G+0 B6V8 rV180 r B6V6 rV80 r E5V78 rV7 C11V117 E5V78 rV3 D0V6 r G6V84 D+0 C11V118 E5V78 rV3 D0V6 r A0V3 E2 A9V157 G+10V118 A+9V255 rV10 A+10V112 D+9V129 A+0V3 F+0V10 D7V129 C1V3 D0V10 B6V117 rV87 A+10 G+10V112 D7 rV112 D+9 rV131 D+9 rV131 D+10 rV113 A+10V255 rV10 E5V78 rV163 C+0V80 rV12 E5V78]
