
$OPN, $UNKNOWN_0x8B,

!ALL

$Inst1,
$Inst2,
$Inst3,
$Inst4,
$Inst5,
$Inst6,
$Inst7,
$Inst8,
$Inst9,
$Inst10,
$Inst11,
$Inst12,
$Inst13,

$$ALL
  [D+5 D+5 D+5 r r r rV5 r r r r r r r r r r r r C+9V32 D9V101 A+8 C0 r rV6 F0 rV7 F+0 rV8 G0 rV17 F1 rV18 F+1 rV19 G1 rV21 G+1 rV22 A+1 rV23 B1 rV25 C2 rV26 C+2 rV27 D2]
  [D+5 D+5 D+5 r r r r r r r r r r r r r r r r D+8V100 E8V112 F18 C0 C0V36 F+7 rV37 B13 rV49 F+15 rV37 C17 rV162 G20 rV82 B11 rV61 C17 rV100 E20 rV50 C+19 rV226 F9 rV248 G+8 rV48 F16 rV132]

$$ALL
  [rV28 E2 rV30 F2 rV31 G2 rV33 G+2 rV34 A+2 rV36 B2 rV37 r A+0V5 C0V3 rV12 r A0V11 D+0V2 r D1V1 C0V3 F+0V7 C0V3 B0 D+0V2 D0V4 D0V2 D0V4 C0V1 C0V1 C0V1 C0V1 C+0V2 C+0V2 C+0V2 D0V3 C+0V2 C0V2 C0V1 D0V3 D0V2 D+0V5 C+0V4 F+0V8 C0V1 C0V1]
  [D+20 rV219 E10 rV81 C1 rV227 F+12 rV139 G+7 rV236 F+8 rV29 C+13 C+0V4 G0V2 A0V11 D1V13 C0V3 F+0V1 G+0V11 C+1V12 D+0V7 E0V6 F+0V9 B0V12 C+0V1 C0V2 C0V1 C0V1 C0V2 C+0V1 C+0V3 D+0V2 C0V1 C0V1 C+0V2 C0V3 rV2 C+0V2 C+0V2 C+0V4 D0V1 C0V1 C0V1 C0V1 F0V1 C0V1 r]

$$ALL
  [r r A+2 r r F12V150 D+8V100 r C9V119 E4 D5 rV63 r r r r r r r r r r r r r r r rV255 r rV255 r rV255 r rV255 r rV255 r rV255 r C+0V5 F0V6 rV6 A5V65 D9V107 D+9V109 B8V101 r rV2]
  [r r rV1 D+0 r C+9V32 D9V101 C8V105 G8V77 r r r r rV3 E0 rV8 A0 rV13 D1 D+1V2 D+0V16 D+1V7 G+0V16 D+1V12 C+1V16 D+17V1 D0V208 D+17V6 G0V208 D+17V11 C1V208 D+17 C+0V224 G18V5 F+0V224 G18V10 B0V224 G18V15 r F0V6 F0 rV6 r B8V48 D+8V61 E5V73 r E0V7]

$$ALL
  [A0V12 r r rV2 r G+8V107 B1 F0V115 D+0V1 A+6V23 F6V5 E6 F6V50 rV65 G2V110 r C0V10 F+0V6 C+0V1 E5V1 D0V255 r rV114 C+8V108 rV255 A0V10 F+0V6 C+0V1 E5V1 C6V83 A2V78 E8V104 A2V8 rV9 C+0 C0V4 A+6V55 F6V11 G+8V97 rV7 F+0V9 r F6V78 r C8V103 A+6V44 F6V15 B8V32]
  [C6V4 E5V73 r A+6V15 F6V5 F6V78 r F9 F+2V78 r C8V115 rV69 rV165 C+9V105 E8V77 r G+0V8 D+0V3 C0V255 r C6V83 A2V78 G8V99 E5 C0V1 A0V9 E0V4 C0V255 rV255 r rV108 C8 A+0V255 F+0V5 r rV78 r D+9V110 E6V30 r E0V4 C+0V4 F+1 G+0V116 rV78 r F9V97 G+8V101]

$$ALL
  [E5 E5V1 C6V83 A2V78 G2V101 G0 C1V6 C+0V1 A+6V58 F6V19 G2V32 B8 E0V255 F+0V2 C+0V69 rV165 C8V99 E8V77 r D0V4 G0V10 r G3 G+0V97 rV65 rV1 r G6V251 F9V108 C+4V48 rV120 rV255 rV255 rV255 D1V255 rV123 r C7V85 rV255 C+14V170 r G6V85 rV255 rV171 G0 rV72 A13V247 C+14V170]
  [C0V255 rV255 r rV97 rV65 rV1 r rV78 r G8V114 G+8V32 C2V8 rV10 rV1 F6V50 rV65 D+8V116 r C0V2 F0V6 C0V255 F6V78 r G2V111 G0 A0V1 rV78 rV111 E8V95 F0 r rV255 rV255 rV63 rV255 G10 r rV255 rV255 r r C7V255 rV255 C+14V170 r G+1V82 C15V85 B6V89]

$$ALL
  [C7V173 E14V191 A17V183 C+14V73 B2V72 C+4V2 F5V97 B3 rV129 rV255 rV255 rV255 rV255 r rV255 r rV255 r rV191 C0 E13V170 A+15V192 rV193 rV221 G10V1 A+20V254 C+14V37 rV128 A20V170 D+5 C+14V255 G+1V32 G10V165 C21V175 D+3V32 C+18V237 C+14V141 E0V173 C+14V234 F3 G+17V213 C+14V85 rV82 E18V237 C3V80 G+3V210 E18V85 G+13V18]
  [C+14V247 D18V174 C+14V169 G5V160 C+0V83 G6V119 C+4V36 rV120 C0V1 rV255 rV255 G+13V240 D5 A+7V255 r F7V253 rV162 D+1V188 rV251 G+6 rV255 G3V5 rV215 C+14V250 rV24 D15V255 C3V164 A+15V255 C+14V85 F3V160 C21V170 G10V82 B13V255 A6V129 E18V210 rV122 D+3V160 C+18V173 A3V170 rV170 rV255 G+1V40 A15V239 C+14V210 C+0V82 G+17V173 C+0V82 F3V133]

$$ALL
  [G6V223 A6V170 E1V168 F14V250 G13V90 F14V170 C+14V95 C7V210 G+17V173 C+14V170 C7V170 C7V170 G+17 A+6V80 F+9 rV41 E0 rV255 rV255 r G+0V16 G17V214 D6V86 D+20V236 C0V8 rV238 C+14V179 G+15V226 F7V90 F+0V227 C21V19 C+2V28 E4 B1V17 A15V183 G+14V193 E3V72 G0V218 C+19V248 B1V28 B1V39 C2V8 C17V193 C+14V176 A1V53 B2V248 D+18V239 G1V27]
  [A+15V234 A+3V34 A+15V218 C+14V82 G+13V85 G+17V170 C3V42 C+14V170 C+14V165 C+14V173 D+13V170 C+14V170 r E0 rV104 G0V1 rV255 rV255 rV255 C+0V4 G+0V252 B20V4 C4V36 G19V236 A1V13 F16V205 A13V181 F0V42 G+6V66 B19V234 G1V28 C3V40 D5V73 C18V211 G+14V182 D+18V239 E6V60 C17V206 C1V17 B1V36 B1V25 A+20V223 D+14V188 C17V216 A6V73 B17V215 G+0V17 G0V17]

$$ALL
  [B1V22 C+4V40 F17V210 F+14V166 C21V29 G+4V24 D+17V227 G1V17 E3V39 G3V48 F+18V220 C+15V166 D19V8 F5V46 C17V210 D+2V31 D+2V33 D+3V37 B19V231 C+16V171 C+17V242 C6V63 C+18V214 E0V24 G1V27 B3V33 D+0V251 C16V176 A15V217 C6V80 A18V212 A+20V12 D2V27 B3V38 F1V9 F16V184 D15V203 F+4V74 B19V217 G+20V3 F+2V29 D3V40 A2V16 C+17V199 G+14V190 F+2V55 F0V237 G19V252]
  [C+4V45 B0V249 D+14V187 B15V198 E6V84 G+18V219 C21V5 A2V29 A3V52 E1V7 F+15V184 F+15V189 E4V81 G+19V217 D+20V1 A2V34 F2V39 F2V18 B16V184 D15V188 D2 C1V236 C+19V252 A1V30 E2V27 D+3V31 F18V196 G14V178 D0V41 G+3V12 G17V229 G1V27 A2V26 A3V49 D+19V207 A14V179 A19V16 G+4V31 A17V218 G1V28 C3V27 D3V48 rV228 C15V187 F+17V241 C+6V53 A+17V216 C1V25]

$$ALL
  [G+2V29 D+2V31 B3V33 A+17V207 G14V179 C1V40 E2V3 F18V238 C+2V27 D2V29 G3V41 A+18V214 F15V178 D+20V20 C4V20 A+17V225 A1V28 C2V26 D+3V41 F+20V229 G+15V181 D18V252 F5V39 B17V219 C+1V24 C2V26 E3V45 D0V244 C16V183 G+16V227 G+5V55 C18V219 F0V14 C+2V28 B2V41 F1 A+16V192 A15V208 B4V63 A+18V222 rV6 B1V27 E2V31 B2V14 F+17V203 D+15V195 D3V57 F+20V232]
  [F+2V24 D+3V46 C1V249 D15V187 F+16V217 C6V72 D18V214 C0V17 F2V19 B2V44 F+1V4 D16V189 B15V203 F+4V73 G+19V215 G+20V7 F2V26 F2V38 D+2V17 D17V196 C+15V190 A2V58 D0V226 A+19V3 D+2V25 D+2V36 D3V33 C+18V204 A+14V182 C1V39 D2V249 A18V247 D+2V27 C2V33 D3V34 F19V214 D+15V183 G+20V19 E3V13 C+18V234 B1V28 F+1V26 E3V33 B20V231 G15V184 A+18V254 E4V36 B17V226]

$$ALL
  [F+20 C2V26 D2V28 E3V28 C+18V210 C15V184 F1V42 G0V248 G19V247 D2V28 C2V27 D3V36 B6V12 rV180 B6V61 rV105 C1V3 D0V9 D8V4 rV102 F8V129 F6 D0V9 F8V129 rV97 D+0V143 D+0V3 G6V84 D0 C1V3 D0V9 D8V4 G+10V4 G+0V4 rV99 rV65 r D8V4 G+10V4 G+0V4 rV100 A+10V10 r G0V129 F6 A+0V11 E5V78 rV11]
  [D1V24 A1V22 E3V37 D+0V247 C16V187 F17V232 A4V51 C+18V219 G0V18 C+2V24 A2V38 D+1V2 r G0V255 r D+0V107 G+10V104 G8V129 D1V9 D0V9 G+0V80 rV2 G+0V13 G+0V3 D0V9 rV100 G+10V100 r G+0V107 G+10V104 G8V129 D1V9 D+0 D+0 D+0V3 F+4 A+7V129 D1V9 D+0 D+0V131 D+0V24 E5V78 rV15 D+8V80 rV6 B1V100 r D+0V24]

$$ALL
  [A+10V100 A+0V11 E5V78 rV11 A+10V104 F6 D1V12 B0V92 D0V12 A+7V3 B0V102 D0V12 G+8V3 B0V112 D0V12 G9V3 B0V116 D0V12 A+9V3 B0V126 D0V12 F6 D0V12 F10V3 B0V119 D0V12 G9V3 B0V107 D0V12 G8V3 B0V104 D0V12 D+8V3 B0V93 D0V12 F7V3 B0V83 r B0V4 B0V129 D+0V24 C5 B8V15 D0V9 G+0V3 D+0 G+8V129 G+10V103]
  [G+10V4 B1V100 r D+0V24 rV80 rV9 D0V12 G+7V3 B0V100 D0V12 G8V3 B0V104 D0V12 A+8V3 B0V114 D0V12 G+9V3 B0V124 D0V12 G10V3 B0V80 rV10 B0V124 D0V12 G+9V3 B0V117 D0V12 D+9V3 B0V105 D0V12 F8V3 B0V95 D0V12 G7V3 B0V92 D0V12 G6V84 A+0 D+0V131 D+8V11 rV65 r C+9V3 A+8 G+10V4 G+0V4 G+0V3 G6V84]

$$ALL
  [r G+0V107 G+10V103 D+8V129 A+11V10 D0V9 B6V73 rV108 D0V9 G+0V3 D+0 D+0V131 D+0V24 F8V15 E5V78 rV3 D+0 D+0V131 D+0V24 F+8V15 A0V80 r D+0V80 rV1 G+0V4 G+8V129 rV104 C+0V15 G+0V3 G6V84 C+0 D2V9 D0V9 G+0V3 D+0 F8V255 rV1 D0V9 G+8V129 rV104 D0V15 D8V4 G+10V4 G+0V4 r rV95 D0V15 D8V4]
  [C1 C1V3 D0V9 G+0V24 F+8V15 F+8V255 r C+9V3 A+8 G+10V4 G+0V4 rV103 rV10 D0V9 r G+10V4 G+0V4 rV105 A+10V10 B1V99 F6 C2V229 F6 D+0 G+0V13 G+0V3 B1V99 D+0 rV102 r G+0V3 G10V102 G8 G+10V4 G+0V4 B6V73 rV100 G+0V13 G+0V3 B1V99 D+0V129 D1V9 D+0 E5V78 rV3 B1V99 D+0V129 D1V9]

$$ALL
  [G+10V4 G+0V4 B6V11 rV100 F6 D0V11 r D11V100 E5V78 rV3 rV80 rV9 B0V4 G7V3 B0V95 D0V12 F8V3 B0V105 D0V12 D+9V3 B0V112 D0V12 G9V3 B0V119 D0V12 F10V3 E5V78 rV3 B0V126 D0V12 A+9V3 B0V116 D0V12 A+8V3 B0V107 D0V12 G8V3 B0V100 D0V12 G+7V3 B0V90 D0V12 F6 F+0V12 G7V255 rV1 B8V4 D0V9]
  [D+0 D+0V255 rV1 D+0V80 rV6 E5V78 rV3 D0V11 r D11V104 F6 D+0 B0V93 D0V12 D+8V3 B0V100 D0V12 G8V3 B0V107 D0V12 F9V3 B0V117 D0V12 D+10V3 B0V124 D0V12 r D0V12 D+10V3 B0V124 D0V12 G+9V3 B0V112 D0V12 G+8V3 B0V102 D0V12 A+7V3 B0V95 D0V12 G7V3 B0V80 rV11 D0V12 B6V60 rV3 C+9V3 A+8]

$$ALL
  [G+0V3 D+0 G+8V129 rV65 C0 G+0V107 G+10V103 D+8V129 A+11V3 D0V9 r rV108 D0V9 G+0V3 D+0 D+0V131 D+0V24 F8V4 r G+0V3 D+0 D+0V131 D+0V24 F+8V4 E5V78 rV1 r F+0V128 D+0V116 G10V4 G9V3 E5V78 rV3 A+0V7 D0V7 F+0 G+10V112 r F+0V24 D2V7 B1V99 F+0V13 F+0V80 rV4 D+0V128 D0V128 D+11V105 D0V7]
  [G+10V4 G+0V4 G+0V3 F+4 F+8 C1V3 D0V9 G+0V24 F+8V4 E5V78 rV3 C+9V3 A+8 G+10V4 G+0V4 rV103 rV3 G6V84 D1 G+10V4 G+0V4 rV105 A+10V3 B1V99 r G6V84 C0 D8V11 C1V3 A+0V7 D0V7 r G10V4 G9V3 D+0V150 F+0V3 G6V84 D0 G10V115 G10V109 F+9V4 F9V129 F6 D0V7 F+0V27 F+0V24 G+10V104 G8V129]

$$ALL
  [F+0V3 G+4 F9V128 D+0V116 D2V7 A+0V7 D+9 rV65 C+0 D8V11 C1V24 G+10V116 D0V7 D8V11 rV65 C+0 G8 C0V129 D0V8 G+10V104 G0V1 B14V3 E5V78 rV11 G10V115 G10V109 D+9V4 D+0V134 D8V11 rV65 C+0 D8V11 B10V104 A+0 E5V78 rV3 A+0 G8V4 rV128 D+0V24 E6 F8V4 rV27 D8V11 A+0 rV128 G10V4 D+9]
  [rV65 C+0 D8V11 C1V3 rV4 D0V7 F+0V3 C+5 F9V128 D+0V116 D11V114 A+0V7 F9V128 D+0V24 A5 F8V4 G+10V104 G0V1 B14V3 C0V129 D0V8 rV180 r D+0V24 D2V7 B1V99 rV13 rV128 D+0V3 D+3 A+8V128 D+0V24 G10V4 D0 r G10V4 B1V99 D+0V128 D8V11 rV65 C+0 D+0V132 D0 D+0V24 B1V99 D8V109 D9V4 rV3]

$$ALL
  [rV65 C+0 A+8 C0V129 D0V8 G+10V107 G0V1 B14V3 E5V78 rV1 F8 G0V255 rV3 D0V6 E0V3 D0V3 E0V3 D0V5 F0V3 G6V84 C+0 rV102 F8V129 G+10V102 F8 rV102 F8V129 F6 D0V5 D0V3 D0V6 E0V3 D0V3 E0V3 D0V3 r G+10V102 F8 rV102 F8V129 G+10V102 F8 rV102 r E0V3 D0V5 F0V3 D0V5]
  [A5 G+8V4 G+10V107 G0V1 B14V3 C0V129 D0V8 rV180 r D0V3 D0V3 B6V69 rV99 F8V129 G+10V102 F8 rV102 F8V129 G+10V102 r E0V3 D0V5 F0V3 D0V5 D0V3 D0V6 E0V80 rV3 F8 rV102 F8V129 G+10V102 F8 rV102 E5V78 rV3 D0V3 E0V3 D0V5 F0V3 D0V3 D0V3 G6V84 E0 rV102 F8V129 G+10V102 F8]

$$ALL
  [D0V3 D0V6 D0V3 D+4 B14V1 D2V1 A+3V27 C0V47 D2V1 E5 B8V17 G+10V108 E1V131 B8V17 G+10V108 E1V131 E5V78 rV27 C0V47 D2 A+3V27 C0V47 D2 A+3V27 B6V89 rV108 E1V129 B8V17 A+10V108 E1V129 B8V17 rV108 E1 B8V17 r rV47 D2 A+3V27 rV47 D2 A+3V27 C0V47 D2V1 G+2 B14V136 E0V4 rV9 F6]
  [rV102 F8 rV65 D+0 B8V17 rV108 E1 B8V17 rV65 D+0 D2V1 A+3V27 C0V47 D2V1 A+3V27 C0V47 r E1V131 B8V17 A+10V108 E1V131 B8V17 A+10V108 E1V255 rV4 A+3V27 rV47 D2V1 A+3V27 rV47 D2 A+3V27 C0V47 G6V84 D+0 B8V17 rV108 E1V131 B8V17 rV108 E1 B8V17 rV65 E0 D+8V4 D+0 A0V80 rV1]

$$ALL
  [F+0V10 G0V4 D+0 C+0V1 D0V10 F+0V10 rV4 G6V84 C+0 A0V4 A0 D+0V4 A0V129 D+0 rV6 G0V7 G6V84 D0 A0V4 A0 D+0V4 A0V129 D+0 rV6 G0V7 G6V84 D+0 A0V4 A0 D+0V4 A0V129 D+0 rV6 G0V7 G6V84 r A0 F+0V4 rV65 F0 G8 G8V15 F+0V10 D+0V7 A0V4 G8 G8V15 D+0]
  [D0V10 F+0V10 rV4 F+0V10 G0V4 D+0 C+0V1 r A0V129 D+0 rV6 C0V129 A0V4 A0 D+8V15 D1V4 r A0V129 D+0 rV6 C0V129 A0V4 A0 F+8V15 D1V4 r A0V129 D+0 rV6 C0V129 A0V4 A0 D+8V15 D1V4 r C19 rV6 D+0 F7 F8V15 rV6 G0V4 D0V140 F0V3 F8V15 rV6 G0V4 rV180]

$$ALL
  [E5V78 rV7 rV8 D1V4 A0V4 F+0V10 D+0V7 rV8 D1V4 A0 rV8 r D1V3 F0V7 D+0 A+11V6 D0V143 D1V3 F0V7 D+0 rV107 E5V78 rV7 rV8 D1V4 A0V4 F+0V10 D+0V7 rV8 D1V4 A0 rV8 r D0V2 G+10V226 r C+0V1 D0V2 rV93 C+0V180 rV65 F+0 G+10V88 C0V129 A+10V180 D+7V131 F6 D0V2]
  [r D1V3 F0V7 D+0 G11V6 D0V140 D1V3 F0V7 D+0 rV104 E5V78 rV7 rV8 D1V4 A0V4 F+0V10 D+0V7 rV8 D1V4 A0 rV8 r D1V3 F0V7 D+0 G11V6 D0V140 D1V3 F0V7 D+0 rV107 E5V78 rV1 D2V2 G6V84 C0 D0V2 B14V3 C0V129 C+0V3 B3 D+7V131 B14V88 C+0V3 D+7V1 C+0V80 rV3 B14V3]

$$ALL
  [C0V3 F7 D0V2 C+0V3 G6V84 D+0 D0V2 B14V3 C0V129 C+0V3 G6V84 E0 D0V2 B14V3 C0V129 C+0V140 C+0V3 G6V84 F0 D0V2 B14V3 C0V129 C+0V3 B3 F+7V131 B14V91 C+0V3 F+7V1 C+0V80 rV8 B14V3 A+10V180 C+0V1 D2V2 D0V2 C+0V80 rV9 B14V3 A+10V180 C+0V1 D+7V129 rV65 F+0 G+10V91 C0V129 A+10V180 F+7V225 D+8]
  [A+10V180 C+0V1 D+8V129 G+10V95 r C+0V1 D0V2 rV100 C+0V180 G+10V104 r C+0V1 D0V2 rV88 C+0V180 A18 rV104 r C+0V1 D0V2 rV96 C+0V180 rV65 F+0 G+10V91 C0V129 A+10V180 F+7V131 F6 D0V2 C0V3 G+7 D0V2 G+10V226 F+8 F6 D0V2 C0V3 F7 D0V2 C+0V3 E5 F+7V131 B14V91 C+0V3 F+7V1 B1V204 C+0V3]
