
$OPN,

!ALL

@T128.00

$Inst1,
$Inst2,
$Inst3,
$Inst4,
$Inst5,
$Inst6,
$Inst7,
$Inst8,
$Inst9,
$Inst10,
$Inst11,
$Inst12,
$Inst13,
$Inst14,
$Inst15,
$Inst16,
$Inst17,
$Inst18,

$$ALL
  [r D+5 D+5 D+5 D+5 D+5 D+5 D+5 r r r r r r r r r r r r r r r r r r r r r r r r r r r r r r r rV117 F9V99 B8V97 G2V119 D9V101 C8V117 G+8V66 B8V109 G2V99 C+9V115 r rV2 r r r B7 F+0 rV74 rV8 G+2 G+0 rV29 rV10 C15 A+0]

$$ALL
  [rV220 rV12 C+8 B0 rV79 rV17 C13 C2 rV26 rV38 F+13 D3 rV183 rV40 C6 D+3 rV18 rV41 F9 E3 rV53 rV42 G+16 F+3 rV202 rV44 B6 G3 rV63 rV45 C18 A3 rV200 rV46 C+6 A+3 rV2 C+0V2 D0V3 D0V3 D+0V4 E0V3 C0V1 E0V5 F0V9 D+1V8 F1V18 rV1 C+0V2 D0 r E0V5 D+0 C0V2 C+0V2 r rV2 C+0V2 r C0V1 C0 r C+0V2 D0V3]

$$ALL
  [C0V1 D0V3 r r r rV63 r rV1 C0 C0 C+0V1 r r rV69 r rV128 r rV48 r C0 r rV4 r F0 r rV9 r A+0 r rV14 r rV208 rV255 D+17V3 r E0V208 rV255 D+17V8 r A0V208 rV255 D+17V13 r D1V208 rV255 G18V2 r D+0V224 rV255 G18V7 r G+0V224 rV255 G18V12 r C+1V224 rV255 r rV1 F0V6 F0V6 F0V6 F2 D+0]

$$ALL
  [rV65 A6 C0 F1 D0V5 G0V10 C1V15 E5V73 r rV65 A6 C0 F0 D0V5 A+6V10 r F6V9 C8V32 A+6 A1V8 C+0V255 rV1 C0V255 r E6V1 C0 r C+0V255 rV255 rV5 r F+0V255 rV255 rV10 r B0V255 rV255 rV15 r E1V255 rV255 rV20 r A1 r rV25 r D2 r rV30 r G2V3 r D+0V35 r C3V4 r D0V40 r F3V3 r D+0V45 r A+3V3]

$$ALL
  [r D+0V50 r D+4V255 rV255 rV55 r G+4V255 rV255 rV60 r C+5V255 rV255 rV65 r F+5V255 rV255 rV70 r B5V255 rV255 rV75 r E6V255 rV255 rV80 r A6V255 rV255 rV85 r D7V255 rV255 rV90 r G7V255 rV255 rV95 r C8V255 rV255 rV100 r F8V255 rV255 rV105 r A+8V255 rV255 rV110 r D+9V255 rV255 rV115 r G+9V255 rV255 rV78 rV255 rV255 rV255 rV255 rV255 rV255]

$$ALL
  [rV255 rV255 rV6 rV255 G0V8 rV255 A0V10 rV255 A+0V11 rV255 C1V13 rV255 C+1V14 rV255 D1V15 rV255 rV255 rV255 rV255 rV255 rV255 rV255 rV255 rV255 rV255 rV255 rV255 rV255 rV255 rV255 rV255 rV255 rV255 rV255 rV255 rV255 rV255 rV255 rV255 rV255 rV255 rV255 rV69 F6V50 rV197 rV65 C+9V115 D9V115 A+8V99 D8V111 E6V47 rV13 r D1V13 G0V6 C+0V1 rV1 E0V2 rV1 r rV77 r G+5 F6V78]

$$ALL
  [A8 r D2V83 G+5V32 C6V32 A+6V78 A+6V32 E5V69 E5 rV255 C0V1 D1V15 C+1V13 B0V11 A0V9 F+0V5 C+0 r C0 D0 r rV255 C6V83 r A2V78 rV114 C+9V108 A+8V99 E6V56 rV9 r r rV44 D+5 D+3 r rV8 r C+0V255 C0V1 A+6V4 rV31 C0 C6V83 r A2V78 rV114 C+9V108 F+9V97 rV65 G0V1 rV193 A+4 r rV46 D+5 G3 r rV26 D+5 C+0V255 C0V1 A+6V4 rV31]

$$ALL
  [C0 C6V83 r A2V78 rV97 B8V116 E6V57 rV23 r A0V13 C1V13 B0V12 A+0V11 A0V1 rV65 C0V255 rV1 r rV78 A+6V85 r F6V14 C8V102 G9V32 G8 G+4V8 A+1V255 rV6 G+0V10 A0V9 G+0V8 F+0V7 C0V255 E5V1 r C0V255 rV2 F6V78 D5 r A+0V110 G2V105 C8 C+3V8 F+0V255 rV12 G+0V4 D0V255 rV12 D+5 A+0 G+5V73 C+4 E16V34 E5 G9V108 C+8V98 F8V117 rV65 G0 rV1 F+0V4 C+0V4 r]

$$ALL
  [C0V255 C6V83 r A2V78 rV69 D9V101 E6V53 rV14 r F+0V8 A0V11 B0V14 r C0V253 r rV2 rV1 rV69 F6V50 rV197 rV65 B5V84 A3V46 A3V46 A3V46 A3V46 rV65 G0 rV1 D1V15 D1V14 C1V12 G+0V7 D0V1 D0 C0V244 rV244 C+0V255 C0V1 C0 rV78 A+6V88 r F6V27 G9V97 E8V108 G9V101 F9V46 A3V46 rV65 G0 rV1 A+0V13 B0V11 G+0V8 F+0V7 C0V2 C0V1 B0V12 rV69 F6V50 rV197 rV65 D+6V65]

$$ALL
  [B8V115 E6V53 rV14 r F+0V8 A0V11 B0V14 r C0V253 r rV2 rV1 C0V69 F6V50 rV197 rV65 E5V65 E5V121 G8V77 r r C0V1 rV65 A20V254 C0V255 r F6V78 A+4 r B0V85 C7V85 C+9V104 E5 r C0V1 D+0V255 rV250 rV1 r rV78 A+6V59 r F6V12 F+6V79 F+9V110 rV65 G0 rV1 F+0V4 r B20 r C0V255 C6V83 r A2V78 rV101 A9V111 C+9V103 C+9V32 rV65 G0 rV1 C0V3]

$$ALL
  [G0V14 E0V255 rV250 rV2 rV1 rV69 F6V50 rV197 rV65 C+9V115 G+8V108 G2V111 F+8V68 F6V77 r r C0V2 F0V11 C0V255 C0V1 D0 r C0V255 A+6V80 D+0 G+9V110 A+7V67 B3V8 rV129 B9 r rV255 rV255 rV255 rV255 rV221 A7V255 rV255 rV15 D+17V15 A+3V15 F+14V30 D1V255 C0V15 F+2V95 r rV80 C+20V16 rV90 rV254 rV37 rV250 rV80 rV14 rV240 E13V245 G2V255 B19V18 G2V255 B19 rV161 rV218 rV31 rV2]

$$ALL
  [r rV13 F+18 D1V255 A3V255 D1V16 E1V32 rV160 C0V16 C+0V16 rV255 G+2V255 rV245 F17V253 rV255 F1V250 A20V229 rV255 G+6V175 G+2V175 C+18V174 G+7V255 rV94 F+14V85 rV18 A20V42 F19V34 G+3V165 C+0V255 rV18 A0V170 rV1 rV34 rV34 C7V170 A2V173 E17V17 G+6V173 G+2 rV210 rV213 C+14V213 C+14V42 C21V16 C7V90 F17V16 F+14V238 A3V221 C7V173 E14V37 rV162 C3V85 C+14V17 G+1V239 C3V221 F3V82 F7V85 E18V237 E1V82 E14V162 D+1V238 F17V218 F17V85 C7V213]

$$ALL
  [F7V238 G+6V82 C+14V90 C0V90 C+18V173 C+18V170 C7V170 G+13V174 G+6V82 C7V173 A2V5 G+19V170 C+18V170 C7V85 F3V174 C+14V18 F3V170 G+6V16 E18V173 G+19V85 C7V85 A6V170 G+17V82 C3V170 F3V16 E14V173 E14V173 C7V85 C+14V170 F14V85 G+6V82 C+14V18 C7V218 E14V213 C7V85 C+14V170 E14V173 C3V37 C+14V82 A2V173 E14V218 C7V85 F7V170 G+17V218 C7V37 C+14V165 C3V42 C+18V218 E14V85 C7V170 C+14V218 G+13V85 A6V170 G+6V37 E14V218 C+18V85 C7V170 C+14V90 C+14V42 C3V170 A6V18 C+14V170 E14V173 C7V85]

$$ALL
  [C+14V213 G+17V82 C7V82 C3V18 C+14V213 E14V90 C7V85 C+14V170 C+14V85 F3V165 C7V18 C+14V173 C+18V173 C7V85 C+14V170 E14V213 C7V82 G+13V82 A6V173 C+18V218 E14V85 C+14V170 F7V170 G+13V165 A6V42 C3V85 E14V170 C+14V85 F7V170 G+17V213 C+14V42 C7V85 C3V85 F7V173 G+17V173 C7V170 E14V173 C+14V85 F3V42 A6V37 C7V218 E14V170 A+6V80 D+0 G+9V110 A+7V67 B3V136 rV129 B9 r rV255 rV255 rV255 rV255 rV221 C+18V240 r rV255 D1V242 C21V175 B19V239 rV32 A0V47 r]

$$ALL
  [G+13V95 rV254 A6 r rV15 C20 rV10 r C0V80 C1V255 F3V255 A20V240 rV255 C+0V255 A+3V13 rV15 B19V170 rV250 r E13V13 C+14V223 G+19V255 rV241 C+0 A+3 rV208 rV208 E13V237 rV255 rV26 A+19V173 rV255 D+1V255 E0V81 G+7 r E17V254 G2 rV2 C21V42 E14V174 F18V255 A2V162 C+14V16 C1V255 A+7V234 C+18V173 G+13V174 G+2V34 G+3V90 rV47 G+6V175 A2V90 F7V82 rV80 G+17V85 F13 rV37 A19V162 C+14V90 C7V255 D+1V82 C+14V81 C0V254]

$$ALL
  [F3V238 C+14V170 G+17V85 C+18V16 C7V170 G2V2 G+19V45 G+17V42 G+17V213 E18V173 F1V85 G+17V16 F14V221 E18V173 C+14V213 C3V238 A6V34 C7V170 C0V218 E14V173 C+14V170 C+14V170 A20V37 A6V85 A2V1 F14V173 G+17V170 E14V170 E14V174 C3V82 C+14V17 F3V218 F14V213 C+14V173 C+14V218 C+14V85 G+13V85 C+0V85 G+17V218 C+14V170 F7V170 G+19V165 A6V165 C3V33 E14V213 C+18V170 C+14V90 C+14V237 F3V82 C7V37 C3V213 C+18V218 C+14V173 C+14V173 E14V165 A6V85 C3V37 C+14V218 G+17V170 C7V170 E14V170 F3V82 A6V34 C7V170]

$$ALL
  [E14V213 C+14V85 C+14V173 C+14V37 C+14V37 C3V170 E14V173 C+14V170 C+14V170 E14V165 F3V170 A2V37 C+14V173 C+14V170 C7V170 F7V173 A6V42 A6V82 F3V170 C+18V173 C+14V85 C+14V90 C7V42 A6V82 C3V82 F7V218 C7V170 F7V170 C+18V85 A6V82 G+6V18 F3V170 C+18V85 G+17V90 G+17V90 A6V82 G+13V37 G+13V85 E14V218 C+14V213 C+14V213 E14V42 C7V85 A6V165 F7V173 E14V170 C7V170 E14V170 C7V85 A6V82 C7V90 E14V213 E14V90 E14V173 C+14V85 F3V82 A6V85 C+18V173 F7V173 C+14V213 C+14V170 G+13V165 C3V82 F7V90]

$$ALL
  [G+13V77 D3 D9V114 C10V36 B3 rV120 rV129 C0V1 rV255 rV255 rV255 rV255 rV255 A0V255 C+20V240 rV253 rV208 rV160 A+7V255 D+1 A20 rV80 rV223 G+13 r rV240 rV15 G6V255 D1V13 B19V255 G6V15 D+13V241 rV250 rV237 D+1V161 D1V255 G2 F+18 rV32 C21V95 C19V240 rV16 B19V253 rV13 E1V255 A0V10 rV31 G2V34 rV170 rV255 F+18V242 F13V210 A0V255 E1V32 C+14 rV16 rV45 E14V242 r A18V237 r F13V223 E0V85 C+18V90]

$$ALL
  [D+17V5 F14V165 rV255 A3V250 E14V170 F3V255 C0V165 G+17 A+19V162 A19V82 C+14V213 A+19V81 C3V213 D+1 G+17V93 G+13V85 E14V85 F19V34 E14V170 rV238 F7V237 C7V170 C7V223 A2V37 C+14V32 F14V218 A19V85 C+14V170 F18V170 A2V173 E1V16 G+19V173 G+17V85 C+18V85 E14V82 A6V85 C0V173 E14V218 C7V170 G+13V174 C3V34 C7V34 C7V170 G+19V213 C+14V90 E18V234 A6V85 G+6V33 G+17V173 C+14V85 G+17V170 E14V82 C3V82 C0V42 C+18V173 C7V170 C+14V237 C7V82 C7V34 C7V90 C+18V170 C+14V85 C+18V173 A6V37]

$$ALL
  [G+6V17 C7V221 C+14V85 G+17V170 C+18V82 A6V82 E1V165 C+18V218 G+17V170 C+14V221 C+14V82 C7V34 F3V170 E14V170 F7V213 C+18V218 C7V42 G+6V37 C+14V90 C+18V85 G+17V170 E14V170 A6V82 A2V82 C+18V218 G+17V170 F7V218 C+14V82 C7V34 G+13V170 E14V90 F7V213 G+17V173 A6V82 G+6V81 F3V170 G+17V213 E14V170 F7V85 C7V82 A2V165 F7V218 E14V170 F7V218 C7V42 C7V37 F3V85 E14V218 F7V213 G+17V170 A6V82 G+6V18 C7V173 G+17V213 G+17V170 C+18V213 C7V82 C3V42 C+14V213 E14V170 F7V218 E14V170 C7V37 A6V85]

$$ALL
  [E14V213 F7V213 G+17V90 C+14V82 G+6V34 C7V173 G+17V173 G+17V170 G+17V170 A6V82 C3V82 E14V218 E14V170 C+14V218 C+14V165 C7V34 C7V170 E14V213 F7V213 G+17V213 G+13V42 C3V37 G+13V83 C+4V4 C+6V117 E8V95 F+5V48 F+2 rV120 r rV255 rV255 rV255 rV255 rV255 G6V95 rV255 r rV80 C20V16 E0V209 C+0V239 A0V15 A+3V245 rV15 C+0V15 B19V255 C+20V255 rV255 A6V240 C+0V160 rV255 rV255 C0V80 A+3V160 rV80 A20V10 r rV242 rV238 rV222 B19V95 B19V21 rV255]

$$ALL
  [r rV81 r C+0V210 rV255 r D1V10 rV2 E20V45 F13V94 C+18V95 A+19V255 E0V253 C+20V165 rV255 E1V255 C0V165 G+13V80 rV16 A3V1 F7 A+3V255 A+7V238 E18V173 G+19V10 rV1 A6V174 G6 rV17 rV33 C+14V165 G+6V223 C0V5 C+2V173 rV5 F19V21 F19V42 G+17V173 F3V255 G+2V170 C+18V82 C0V239 G+6V238 C3V170 F7V165 F18V170 F1V42 E14V17 C+2V239 C7V221 A6V170 G+17V85 A19V17 C3V173 C3V16 F18V234 F14V170 F3V85 A6V173 C+14V17 F3V213 G+2V2 A19V170 G+19V85]

$$ALL
  [G+17V170 F7V238 A2V37 C+14V165 E1V90 G+17V218 C7V85 C7V213 C+18V234 C3V37 C7V34 A6V173 E14V173 C7V85 C+14V170 C+18V165 C3V82 A6V17 G+17V173 E14V170 C7V85 C+14V173 C+18V37 C3V173 A2V37 C+18V173 G+17V173 C7V90 C+14V174 A6V37 C7V82 A2V42 G+17V174 C+14V85 C7V170 C+18V218 A6V37 C7V82 C3V85 C+18V218 E14V85 C+14V170 C+18V170 A6V37 G+13V34 C7V173 C+18V213 C7V85 C+14V173 C+18V85 C7V85 C3V37 C+14V90 C+14V170 C7V90 C+14V173 C7V37 C3V42 G+6V42 G+17V173 F7V173 C7V170 G+17V173 A6V42]

$$ALL
  [C7V82 C3V170 E14V173 C+14V85 C+14V170 E14V85 C7V82 C3V37 A6V213 C+18V173 E14V85 C+14V173 C+14V82 G+13V165 C3V82 C7V170 C+18V90 C7V90 C+14V170 C+14V165 A6V82 A6V85 C7V173 G+17V170 C7V170 G+17V218 C+14V42 C7V82 A6V85 E14V173 F7V173 C+14V170 E14V170 C7V85 C3V37 G+13V85 G+17V170 C+14V85 C+14V173 F7V170 G+13V170 C3V37 C7V173 G+17V85 G+13V170 G6V23 rV111 C+9V121 G5V48 G0 G+10 rV1 rV255 rV255 rV255 rV255 rV255 F14V10 rV255 r C20V13 B19V253 F13 r]

$$ALL
  [B19V255 r C20V10 B19V255 F3 r B19V255 r F17V1 D+17V255 C+14V240 rV80 G6V255 r C+20V1 C+18V239 C+14V240 r rV95 G6 E20V1 A20V175 F19V253 rV80 F+14V15 D+13 rV16 A20V175 C+18V253 rV208 F+14V15 G+6 rV33 A20V46 C+18V238 rV240 F+14V29 G+6 rV16 rV26 E14V221 A+19V242 A3V13 A6 rV2 C21V10 E14V218 F+18V242 C7V21 F17 rV33 rV18 E14V174 F18V250 G+1V21 F17 rV162 A19V37 C+14V173 E18V253 F1V37 C+14 rV165 C21V42]

$$ALL
  [C+14V173 F7V253 C3V37 C+14V16 F+14V213 A19V170 C+14V218 F7V238 F1V42 C7V1 F14V234 G+19V170 C+14V218 F7V239 C3V82 G+17V16 F7V218 E18V90 C+14V218 F7V221 C3V34 E14V17 C+14V173 E18V85 C+14V213 C+14V218 A6V37 C+14V33 C7V218 C+18V213 C+14V213 C+14V238 A6V82 C+14V34 F3V218 C+18V213 C+14V213 C+14V221 A6V82 C+14V34 A6V90 F14V173 C+14V173 C+14V218 A6V37 C+14V34 G+1V90 E14V173 C+14V173 C+14V174 F3V37 C+14V37 C3V90 G+19V170 C+14V173 C+14V173 C+14V37 F3V37 A6V170 E18V90 C+14V173 C+14V173 C+14V42 F3V37]

$$ALL
  [F1V170 C+18V218 C+14V173 C+14V173 C+14V42 A6V37 C3V170 C+18V218 C+14V173 C+14V90 C7V42 A6V37 C3V170 C+18V213 F7V173 C+14V90 C7V42 A6V81 A6V82 C+18V173 F7V170 C+14V90 C7V42 C7V82 A6V85 C+18V173 F7V170 C+14V218 G+17V42 C7V82 A6V85 E14V173 C7V170 C+14V218 E14V42 C7V82 C3V85 E14V173 C7V170 C+14V213 C+14V170 C7V82 C3V85 E14V173 C7V170 C+14V213 C+14V170 C7V82 C3V165 G+17V170 C7V170 C+14V213 C+14V170 G+13V82 F3V170 G+17V170 G+17V170 C+14V213 C+14V170 G+13V82 A6V170 G+17V170 G+17V170 C+14V213]

$$ALL
  [G6V23 rV111 C+9V121 F+5V48 G0 G+10 rV1 rV255 rV255 rV255 rV255 rV255 E18V10 rV255 r D1V255 D1V255 D1V16 F2 r D1 A+7V18 rV255 G6V255 D+1V234 F7V240 rV241 C3V240 A20V242 G6V255 C+1V255 B19V255 E20V250 rV255 F1V250 rV15 rV15 E13V10 C+18V5 F+2V80 C+0V255 rV32 C1V160 r rV80 rV16 D+1V218 G2V255 D+13V10 D+1V255 D+1 rV165 rV165 E20V174 C21V14 r A20V175 C19 rV254 F+14V253 F+14V42 F14 r A7V17]

$$ALL
  [C7V16 F1V255 F3V255 A2V85 G+13V81 rV241 F1V165 C+14V81 C0V255 A2V223 A2V173 C+14V237 E14V254 E1V218 E14V213 rV47 F17V90 G+17V42 G+17V173 F3V239 D+1V21 F7V170 D+1V17 A19V37 E18V37 E14V90 C3V174 F13V17 C7V173 E1V16 A+19V85 E18V85 A6V85 C7V85 G+19V17 A6V170 F13V16 A19V218 C+18V218 C7V85 G+17V165 A19V82 A6V85 F7V17 F7V221 E14V218 C+14V85 C+14V82 F14V213 A6V42 E14V34 E0V174 C+14V218 C+14V85 C7V85 F14V218 F1V81 C+14V82 D+1V90 E14V218 C7V85 C7V173 C+14V237 A6V82]

$$ALL
  [C+14V173 D+1V82 E14V173 E14V85 C7V170 C+14V173 C7V42 A6V170 F1V34 C+18V173 G+17V85 C7V85 C+14V173 E14V165 C3V170 A6V17 E14V213 C+18V173 C7V85 C+14V170 C+18V170 C3V82 G+13V34 F3V170 C+18V218 C7V85 C+14V170 C+18V170 C7V37 C+14V34 C3V90 C+18V218 C7V85 C+14V170 F7V213 F3V165 C+14V82 F1V85 C+14V173 E14V85 C7V170 G+17V90 A6V82 A6V165 F1V170 G+17V173 F7V85 C7V170 C+14V173 C7V165 G+13V170 F1V82 E14V213 E14V173 C7V170 C+14V90 G+17V170 A6V82 A6V42 E14V170 C+18V170 C7V85 C+14V213 C+14V42]

$$ALL
  [G+13V85 F3V37 C7V85 C+14V213 C7V85 C+14V170 G+17V170 F3V42 C7V37 C7V85 E14V170 E14V85 C+14V170 E14V170 C7V85 F3V82 C3V85 C+18V173 C+14V85 B6V98 r rV27 D+0 F0V3 rV108 D0V5 F+9 E0V3 A+11V105 D0V5 B8 F0V3 rV112 D0V5 C+9 E0V3 D0V5 E0V3 rV103 D0V6 E5V78 r rV130 E0 G+8 E0V3 rV115 D0V6 F9 F0V3 rV114 D0V5 F9 E0V3 rV117 D0V6 D+9 E0V112 B8 F0V3 rV105 G6V84 r C+0]

$$ALL
  [G0V3 G+10V103 D0V8 B7V129 G0V3 G+10V96 D0V8 B7V129 G0V3 G+10V96 D0V8 B7V129 G0V80 F6 rV3 D2V13 G+10V81 D2V14 G+10V81 D2V15 G+10V81 D2V14 G+10V81 D2V15 G+10V81 D2V14 G+10V81 D2V13 G+10V81 D2V14 G+10V81 G6V84 r D+0 G0V3 G+10V96 D0V8 D+8V129 G0V3 G+10V100 D0V8 C+8V129 G0V3 G+10V98 D0V8 F+8V129 G0V80 F6 rV5 D0V8 B7V129 G0V3 G+10V96 D0V8 G+7V129 G0V3 G+10V95 D0V8 B7V129 G0V3 rV65 E5 C0 G+8V129]

$$ALL
  [G0V51 B8V129 A0V3 G+11V105 D0V8 B8V129 A0V3 G+10V108 D0V8 G0V103 D0V8 E5V78 r rV3 G+10V105 D4V3 G+10V105 D0V8 G+8V129 G0V3 G+10V105 D0V8 D+9 G0V112 B8V129 G0V80 F6 rV1 D2V9 C12V100 D0V12 F+8V129 B0V3 G+10V102 D0V12 C+8V129 G+0V80 F6 rV2 D0V9 D+8 B0V3 G+10V100 D0V9 F8 B0V3 G+10V105 G6V84 r D+0 A+0V34 D+8V129 A+0V3 G+10V102 D0V11 G+7V255 B6V33 rV1 rV103 D0V11 F+8V129 A+0V3 G+10V105 D0V11]
