
$OPN,

!ALL

@T10.00

$$ALL
  [r D+5 D+5 D+5 D+5 D+5 D+5 D+5 r r r r r r r r r r r r r r r r r r r r r r r r r r r r r r r rV117 F9V83 D8V32 A9V100 F+9V40 F+9V101 A+6V115 C9V32 B6V116 rV110 E8V32 C10V111 D+3V114 G2V121 C8V98 G2V97 C9V111 C8V41 rV67 C+0 rV1 r rV1 rV105 rV17]

$$ALL
  [F+11 E2 rV190 rV47 G18 A+4 rV19 rV78 E4 F7 rV104 rV108 F11 B9 rV189 rV138 F+18 B11 rV18 rV154 D+4 D+13 rV103 rV169 E11 G14 rV188 rV188 F18 r C0V3 D+0V6 E0V7 C0V1 D+0V6 F+0V9 A0V11 rV1 D+0V4 E0V7 G0V9 r C0V1 rV2 D0V4 r r r r D+0V2 C0V1 r r r G8V115 D9V117 G2V115 D9V32 G9V108 E8V32 C10V32 G8V114 C9V100 E8V102]

$$ALL
  [G2V116 C8V32 F+8V109 D8V58 B6V105 G2V99 E8V32 G2V115 G2V109 E8V32 G+8V104 G2V48 G2V32 D8V32 F9V116 A0V110 G2V32 E8V101 G9V105 G2V32 G9V97 G2V32 D9V107 G2V32 G+8V101 G2V32 F9V32 G8V110 G2V48 G2V32 D8V32 F9V116 G2V105 G2V97 G+9V108 G2V100 E8V32 G9V10 F9V119 E8V101 E8V111 G3V108 F+8V104 D9V110 F9V97 G2V119 D+9V10 E8V101 F9V32 F+9V32 G+8V115 G+9V101 F+9V97 G2V118 C10V104 F+8V105 D8V110 D9V108 G2V105 G2V97 E8V110 D9V109 D+8 G10]

$$ALL
  [rV1 r D+0 r r F12V150 r F6V83 A6V99 G2V65 E3 r D5 r r rV1 r D0 r rV6 r G0 r rV11 r C1 r r r C+0V208 rV255 D+17V5 r F+0V208 rV255 D+17V10 r B0V208 rV255 D+17V15 r C0V224 rV255 G18V4 r F0V224 rV255 G18V9 r A+0V224 rV255 G18V14 r C0 r C0V6 F0V6 F0V6 F0V70 A+5 D+8V99 D9V101 C8V115 rV65]

$$ALL
  [G+0 r rV5 rV255 G+1 r C+0V20 r rV255 rV255 A+0V255 rV255 B0V3 rV255 rV22 rV255 rV255 r rV255 r rV255 rV255 D0V255 rV255 A1V11 rV255 rV4 rV255 rV255 r rV255 r rV255 rV255 A+0V255 rV255 G+0V3 rV255 rV22 rV255 rV255 r rV255 r rV255 rV255 D+0V255 rV255 A1V11 rV255 rV12 rV255 rV255 r rV255 r rV255 rV255 A+0V255 rV255 F+0V3 rV255 rV22 rV255]

$$ALL
  [rV255 r rV255 r rV255 rV255 D0V255 rV255 A1V11 rV255 rV9 rV255 rV255 r rV255 r rV255 rV255 A+0V255 rV255 D+0V4 rV255 rV22 rV255 rV255 r rV255 r rV255 rV255 D0V255 rV255 A1V11 rV255 rV7 rV255 rV255 r rV255 r rV255 rV255 A+0V255 rV255 B0V3 rV255 rV22 rV255 rV255 r rV255 r rV255 rV255 D+0V255 rV255 A1V11 rV255 rV4 rV255 rV255 r rV255 r]

$$ALL
  [rV255 rV255 A+0V255 rV255 G+0V3 rV255 rV22 rV255 rV255 r rV255 r rV255 rV255 D+0V255 rV255 A1V11 rV255 rV12 rV255 rV255 r rV255 r rV255 rV255 A+0V255 rV255 E0V4 rV255 rV22 rV255 rV255 r rV255 r rV255 rV255 D0V255 rV255 A1V11 rV255 rV9 rV255 rV255 r rV255 r rV255 rV255 A+0V255 rV255 D+0V4 rV255 rV22 rV255 rV255 r rV255 r rV255 rV255 D0V255 rV255]

$$ALL
  [A1V11 rV255 rV5 rV255 rV255 r rV255 r rV255 rV255 A+0V255 rV255 B0V3 rV255 rV22 rV255 rV255 r rV255 r rV255 rV255 D0V255 rV255 A1V11 rV255 rV4 rV255 rV255 r rV255 r rV255 rV255 A+0V255 rV255 G+0V3 rV255 rV22 rV255 rV255 r rV255 r rV255 rV255 D+0V255 rV255 A1V11 rV255 rV12 rV255 rV255 r rV255 r rV255 rV255 A+0V255 rV255 F+0V3 rV255 rV22 rV255]

$$ALL
  [rV255 r rV255 r rV255 rV255 D0V255 rV255 A1V11 rV255 rV9 rV255 rV255 r rV255 r rV255 rV255 A+0V255 rV255 D+0V4 rV255 rV22 rV255 rV255 r rV255 r rV255 rV255 D0V255 rV255 A1V11 rV255 rV7 rV255 rV255 r rV255 r rV255 rV255 A+0V255 rV255 B0V3 rV255 rV22 rV255 rV255 r rV255 r rV255 rV255 E5V82 r r E0V4 r rV22 r rV255 r rV255]

$$ALL
  [r rV255 rV255 D0V255 rV255 A1V11 rV255 rV9 rV255 rV255 r rV255 r rV255 r A+0V255 rV255 D+0V4 rV255 rV22 rV255 rV255 r rV255 r rV255 rV255 D0V255 rV255 A1V11 rV255 rV5 rV255 rV255 r rV255 r rV255 rV255 A+0V255 rV255 B0V3 rV255 rV22 rV255 rV255 r rV255 r rV255 rV255 D0V255 r A1V1 rV255 rV4 rV255 G+1 r rV255 r rV255 rV255 A+0V255]

$$ALL
  [rV255 G+0V3 rV255 rV22 rV255 rV255 r rV255 r rV255 rV255 D+0V255 rV255 A1V11 rV255 rV12 rV255 rV255 r rV255 r rV255 rV255 A+0V255 rV255 F+0V3 rV255 rV22 rV255 rV255 r rV21 r rV255 rV255 D0V255 rV255 A1V11 rV255 rV9 rV255 rV255 r rV255 r rV255 rV255 A+0V255 rV255 D+0V4 rV255 rV22 rV255 rV255 r rV255 r rV255 rV255 D0V255 rV255 A1V1 rV255 rV7]

$$ALL
  [rV255 rV255 r rV255 r rV255 rV255 C0V255 rV255 B0V3 rV255 rV22 rV255 rV255 r rV255 r rV255 rV255 D+0V255 r A1V11 r rV4 rV255 rV255 r rV255 r rV255 rV255 A+0V255 rV255 G+0V3 rV255 rV22 rV255 rV255 r rV20 r rV255 rV255 D+0V255 r A1V11 rV255 rV12 rV255 rV255 r rV255 r rV255 rV255 A+0V255 rV255 E0V4 rV255 rV22 rV255 rV255 r rV255]

$$ALL
  [r rV255 rV255 D0V255 rV255 A1V11 rV255 rV9 rV255 rV255 r rV255 r rV255 r C0V255 rV255 D+0V4 rV255 rV22 rV255 rV255 r rV255 r rV255 rV255 D0V255 rV255 A1V11 rV255 rV5 rV255 rV255 r rV255 r rV255 rV255 A+0V255 rV255 B0V3 rV255 rV22 rV255 rV255 r rV255 r rV255 rV255 D0V255 r A1V1 rV255 rV4 rV255 G+1 r rV255 r rV255 rV255 A+0V255]

$$ALL
  [rV255 G+0V3 rV255 rV22 rV255 rV255 r rV255 r rV255 rV255 D+0V255 rV255 A1V11 rV255 rV12 rV255 rV255 r rV255 r rV255 rV255 C0V255 rV255 F+0V3 rV255 rV22 rV255 rV255 r rV255 r rV255 rV255 D0V255 rV255 A1V1 rV255 rV9 rV255 rV255 r rV255 rV80 A6V6 rV2 r D+0V255 r A1V11 rV255 C+0V4 rV255 rV255 r rV255 r rV255 rV255 A+0V255 rV255 G+0V3 rV255]

$$ALL
  [rV22 rV255 rV255 r rV20 r rV255 rV255 D+0V255 r A1V11 rV255 rV12 rV255 rV255 r rV255 r rV255 rV255 A+0V255 rV255 E0V4 rV255 rV22 rV255 rV255 r rV255 r rV255 rV255 D0V255 rV255 A1V11 rV255 rV9 rV255 rV255 r rV255 r rV255 r A+0V255 rV255 D+0V4 rV255 rV22 rV255 rV255 r rV255 r rV255 rV255 D0V255 rV255 A1V11 rV255 rV5 rV255 rV255 r]

$$ALL
  [rV255 r rV255 rV255 A+0V255 rV255 B0V3 rV255 rV22 rV255 rV255 r rV255 r rV255 rV255 D0V255 rV255 A1V1 rV255 rV4 rV255 rV255 r rV255 r rV255 rV255 A+0V255 rV255 G+0V3 rV255 rV22 rV255 rV255 r rV255 r rV255 rV255 D+0V255 rV255 A1V11 rV255 rV12 rV255 G1V18 r rV255 r rV255 rV255 A+0V255 rV255 B0V2 rV255 F1V22 rV255 rV255 r rV20 r rV255 rV255]

$$ALL
  [C+0V255 r A1V11 rV255 rV12 rV255 G1V18 r rV255 r rV2 r A+0V20 rV255 D+0V4 rV255 rV22 rV255 rV255 r rV255 r rV255 rV255 D0V255 rV255 A1V11 rV255 rV7 rV255 rV255 r rV255 r rV255 rV255 A+0V255 rV255 B0V3 rV255 rV22 rV255 rV255 r rV255 r rV255 rV255 D+0V255 rV255 A1V11 rV255 rV4 rV255 rV255 r rV255 r rV255 rV255 A+0V255 rV255 G+0V3 rV255]

$$ALL
  [rV22 rV255 rV255 r rV20 r rV255 rV255 D+0V255 r A1V11 rV255 rV12 rV255 rV255 r rV255 r rV255 rV255 A+0V255 rV255 E0V4 rV255 rV22 rV255 rV255 r rV255 r rV255 rV255 D0V255 rV255 A1V11 rV255 rV9 rV255 rV255 r rV255 r rV255 rV255 C0V255 rV255 D+0V4 rV255 rV22 rV255 rV255 r rV255 r rV255 rV255 D0V255 rV255 A1V11 rV255 rV5 rV255 rV255 r]

$$ALL
  [rV255 r rV255 rV255 A+0V255 rV255 B0V3 rV255 rV22 rV255 rV255 r rV255 r rV255 rV255 D0V255 rV255 A1V1 rV255 rV4 rV255 rV255 r rV255 r rV255 rV255 C0V255 rV255 G+0V3 rV255 rV22 rV255 rV255 G6V84 F0 D0 r rV2 r A+0V18 rV255 D+0V4 rV255 rV22 rV255 rV255 r rV255 r rV255 rV255 D0V255 rV255 A1V11 rV255 rV12 rV255 G1V18 r rV255 r rV255]

$$ALL
  [rV255 A+0V255 rV255 B0V3 rV255 rV22 rV255 rV255 r rV255 r rV255 rV255 D+0V255 rV255 A1V11 rV255 rV4 rV255 rV255 r rV255 r rV255 rV255 A+0V255 rV255 G+0V3 rV255 rV22 rV255 rV255 r rV20 r rV255 rV255 D+0V255 r A1V11 rV255 rV12 rV255 rV255 r rV255 r rV255 rV255 A+0V255 rV255 E0V4 rV255 rV22 rV255 rV255 r rV255 r rV255 rV255 D0V255 rV255 A1V11]

$$ALL
  [rV255 rV9 rV255 rV255 r rV255 r rV255 rV255 C0V255 rV255 D+0V4 rV255 rV22 rV255 rV255 r rV255 r rV255 rV255 D0V255 rV255 A1V11 rV255 rV5 rV255 rV255 r rV255 r rV255 rV255 A+0V255 rV255 B0V2 rV255 F1V22 rV255 rV255 r rV20 r rV255 rV255 C+0V255 r A1V11 rV255 rV12 rV255 G1V18 r rV255 r rV255 r A+0V255 rV255 B0V2 rV255 F1V22 rV255 rV255]

$$ALL
  [r C+0V21 r G1V255 rV255 D+0V255 rV255 A1V11 rV255 rV12 rV255 rV255 r rV255 r rV255 rV255 A+0V255 rV255 F+0V3 rV255 rV22 rV255 rV255 r rV255 r rV255 rV255 D0V255 rV255 A1V11 rV255 rV9 rV255 rV255 r rV255 r rV255 rV255 A+0V255 rV255 D+0V4 rV255 rV22 rV255 rV255 r rV255 r rV255 rV255 D0V255 rV255 A1V11 rV255 rV7 rV255 rV255 r rV255 r rV255]

$$ALL
  [rV255 A+0V255 rV255 B0V3 rV255 rV22 rV255 rV255 r rV255 r rV255 rV255 D+0V255 rV255 A1V11 rV255 rV4 rV255 rV255 r rV255 r rV255 rV255 A+0V255 rV255 G+0V3 rV255 rV22 rV255 rV255 r rV20 r rV255 rV255 D+0V255 r A1V11 rV255 rV12 rV255 rV255 r rV255 r rV255 rV255 A+0V255 rV255 E0V4 rV255 rV22 rV255 rV255 r rV255 r rV255 rV255 C+0V255 r A1V11]

$$ALL
  [rV255 rV9 rV255 G1V255 r rV255 r rV255 r A+0V255 rV255 B0V2 rV255 F1V22 rV255 rV255 r rV20 r rV255 rV255 C+0V255 r A1V11 rV255 r B6V9 r r r C0V20 rV255 G+1 r rV255 rV255 rV255 rV255 r rV255 rV255 rV255 C0V22 r rV255 rV255 rV255 rV255 A+0V3 r rV255 r A1V1 r D0V255 rV255 rV255 rV255 rV255 rV255 rV255 r A+0 rV255]

$$ALL
  [rV255 rV255 rV255 r rV1 rV255 rV21 r r r rV255 rV255 rV255 r D+0V255 rV255 G+1V1 r rV255 rV255 rV255 rV255 rV7 rV255 G1V255 rV255 rV22 r rV3 rV255 rV255 rV255 r r rV255 r A1V11 r rV255 rV255 rV255 rV255 D+0V255 r rV255 r C0 rV255 rV255 rV255 rV255 r rV4 rV255 rV21 r r rV255 rV255 rV255 rV255 r C0V20 rV255]

$$ALL
  [G+1 r rV255 rV255 rV255 rV255 r rV255 rV255 rV255 C0V22 r rV255 rV255 rV255 rV255 F+0V5 r rV255 r A1V1 r D0V255 rV255 rV255 rV255 rV255 rV255 rV255 r A+0 rV255 rV255 rV255 rV255 r rV1 rV255 rV21 r r r rV255 rV255 rV255 r D+0V255 rV255 G+1V1 r rV255 rV255 rV255 rV255 r rV255 rV255 rV255 rV255 r rV255 rV255 rV255 rV255]

$$ALL
  [r rV255 rV255 rV255 rV255 r rV255 rV255 rV255 rV255 rV255 rV255 rV255 rV255 r rV255 rV255 rV255 rV255 r rV255 rV255 rV255 rV255 r rV255 rV255 rV255 rV255 r rV255 rV255 rV255 rV255 rV255 rV255 rV255 rV255 r rV255 rV255 rV255 rV255 r rV255 rV255 rV255 rV255 r rV255 rV255 rV255 rV255 r rV255 rV255 rV255 rV255 rV255 rV255 rV255 rV255 r rV255]

$$ALL
  [rV255 rV255 rV255 r rV255 rV255 rV255 rV255 r rV255 rV255 rV255 rV255 r rV255 rV255 rV255 rV255 rV255 rV255 rV255 rV255 r rV255 rV255 rV255 rV255 r rV255 rV255 rV255 rV255 r rV255 rV255 rV255 rV255 r rV255 rV255 rV255 rV255 rV255 rV255 rV255 rV255 r rV255 rV255 rV255 rV255 r rV255 rV255 rV255 rV255 r rV255 rV255 rV255 rV255 r rV255 rV255]

$$ALL
  [rV255 rV255 rV255 rV255 rV255 rV255 r rV255 rV255 rV255 rV255 r rV255 rV255 rV255 rV255 rV65 G+0 r rV12 rV255 G1V18 r C0V18 r rV15 rV255 C0V18 rV255 G+0V1 rV255 rV255 r rV255 r rV255 rV255 F1V1 rV255 C+0V255 r A1V11 r C+0V9 rV255 G1V255 r C0V255 r rV255 rV255 rV18 rV255 C+0V1 rV255 rV255 r rV255 r D1V20 r G+1V1 r rV255]

$$ALL
  [r A1V1 r rV9 rV255 rV255 rV255 C+0V255 r rV255 rV255 rV18 rV255 B0V2 r F1V22 r F1V2 r rV20 r F1V1 rV255 C0V255 rV255 rV255 r rV9 rV255 rV255 rV255 C0V255 r rV15 r A+0V21 r G+0 r rV22 r rV255 r rV255 rV255 F1V2 rV255 rV255 rV255 rV255 r rV12 rV255 G1V18 r C0V18 r rV255 rV255 C0V18 rV255 D+0V1 rV255 rV255]

$$ALL
  [r rV255 r rV255 rV255 F1V1 rV255 C+0V255 r A1V11 r C+0V9 rV255 G1V255 r C0V255 r rV255 rV255 rV18 rV255 G+0 rV255 rV255 r rV255 r D1V20 r G+1V1 r C0V255 r A1V1 r rV12 rV255 rV255 rV255 C+0V255 r rV255 rV255 rV18 rV255 B0V2 r F1V22 r F1V2 r D1V20 r F1V1 rV255 C0V255 rV255 rV255 r rV9 rV255 rV255 rV255 C0V255]

$$ALL
  [r rV15 r A+0V21 r G+0V1 rV255 rV22 r rV255 r rV255 rV255 F1V2 rV255 C0V255 rV255 rV255 r rV12 rV255 G1V18 r C0V18 r rV15 rV255 C0V18 rV255 G+0V1 rV255 rV255 r rV255 r rV255 rV255 F1V1 rV255 C+0V255 r A1V11 r C+0V9 rV255 G1V255 r C0V255 r rV255 rV255 rV18 rV255 G+0V1 rV255 rV255 r rV255 r D1V20 r G+1V1 r rV255]

$$ALL
  [r A1V1 r rV9 rV255 rV255 rV255 C+0V255 r rV255 rV255 rV18 rV255 B0V2 r F1V22 r F1V2 r rV20 r F1V1 rV255 C0V255 rV255 rV255 r rV2 rV255 rV255 rV255 C0V255 r rV15 r A+0V21 r G+0 r rV22 r rV255 r rV255 rV255 F1V2 rV255 rV255 rV255 rV255 r rV12 rV255 G1V18 r C0V18 r rV255 rV255 C0V18 rV255 B0V1 rV255 rV255]

$$ALL
  [r rV255 r rV255 rV255 F1V1 rV255 E5V82 r r B0V2 r F1V22 r F1V2 r D1V20 r F1V1 rV255 C+0V255 rV255 rV255 r rV4 rV255 rV255 rV255 C0V255 r rV15 r A+0V21 r D+0V2 rV255 rV22 r rV255 r rV255 rV255 F1V2 rV255 C0V255 rV255 rV255 r rV12 rV255 G1V18 r C0V18 r rV15 rV255 C0V18 rV255 D+0V2 rV255 rV255 r rV255 r]

$$ALL
  [rV255 rV255 F1V1 rV255 C+0V255 r A1V11 r C+0V4 rV255 G1V255 r C0V255 r rV255 rV255 rV18 rV255 D+0V2 rV255 rV255 r rV255 r D1V20 r G+1V1 r C0V255 r A1V1 r rV2 rV255 rV255 rV255 C+0V255 r rV255 rV255 rV18 rV255 B0V2 r F1V22 r F1V2 r rV20 r F1V1 rV255 C0V255 rV255 rV255 r rV7 rV255 rV255 rV255 C0V255 r rV15 r]

$$ALL
  [A+0V21 r C+0V1 r rV22 r rV255 r rV255 rV255 F1V2 rV255 C0V255 rV255 rV255 r rV12 rV255 G1V18 r C0V18 r rV255 rV255 C0V18 rV255 E0V2 rV255 rV255 r rV255 r rV255 rV255 F1V1 rV255 C+0V255 r A1V11 r C+0V4 rV255 G1V255 r C0V255 r rV255 rV255 rV18 rV255 D+0V1 rV255 rV255 r rV255 r D1V20 r G+1V1 r C+0V255 r A1V1 r]

$$ALL
  [rV11 rV255 rV255 rV255 C+0V255 r rV255 rV255 rV18 rV255 B0V2 r F1V22 r F1V2 r D1V20 r F1V1 rV255 C+0V255 rV255 rV255 r rV4 rV255 rV255 rV255 C0V255 r rV15 r A+0V21 r D+0V2 rV255 rV22 r rV255 r rV255 rV255 F1V2 rV255 C+0V255 rV255 rV255 r rV12 rV255 G1V18 r C0V18 r rV15 rV255 C0V18 rV255 C+0V2 rV255 rV255 r rV255 r]

$$ALL
  [rV255 rV255 F1V1 rV255 C+0V255 r A1V11 r C+0V2 rV255 G1V255 r C0V255 r rV255 rV255 rV18 rV255 F+0V1 rV255 rV255 r rV255 r D1V20 r G+1V1 r C0V255 r A1V1 r rV2 rV255 rV255 rV255 C+0V255 r rV255 rV255 rV18 rV255 B0V2 r F1V22 r F1V2 r rV20 r F1V1 rV255 C+0V255 rV255 rV255 r rV2 rV255 rV255 rV255 C0V255 rV80 A6V6 rV7]

$$ALL
  [r C+0V255 r A1V11 r C+0V6 rV255 G1V255 r C0V255 r rV255 rV255 rV18 rV255 F0V1 rV255 rV255 r rV255 r D1V20 r G+1V1 r C0V255 r A1V1 r rV6 rV255 rV255 rV255 C+0V255 r rV255 rV255 rV18 rV255 B0V2 r F1V22 r F1V2 r D1V20 r F1V1 rV255 C+0V255 rV255 rV255 r rV6 rV255 rV255 rV255 C0V255 r rV15 r A+0V21 r F0V1]
