
$OPN, $UNKNOWN_0x88,

!ALL

$Inst1,
$Inst2,
$Inst3,
$Inst4,
$Inst5,
$Inst6,
$Inst7,
$Inst8,
$Inst9,
$Inst10,

$$ALL
  [D+5 D+5 D+5 r r r rV5 r r r r r r r r r r r r A+9V97 C+8V115 D+5V104 C8V51 C+0 r rV120 F3 rV247 F8 rV90 E4 rV196 F+2 rV177 C20 rV236 C+8 rV178 B15 rV69 A12 rV19 C+13 rV63 G+7 rV148 A15 rV75 A+0 rV169 E16 rV216 C+18 rV204 D+19 rV116 F0 rV181 C+20 rV138 F12 rV209 G10 rV140]
  [D+5 D+5 D+5 r r r r r r r r r r r r r r r r C9V108 G+8V104 G+9V101 rV67 rV1 rV1 rV6 F+0 rV8 G0 rV12 C1 rV14 D1 rV15 D+1 rV17 E1 rV19 F+1 rV20 G1 rV21 G+1 rV22 A1 rV22 A1 rV23 B1 rV24 B1 rV26 D2 rV27 D2 rV28 E2 rV29 F2 rV32 G+2 rV34 A2 rV35]

$$ALL
  [A+2 rV187 F14 rV218 C10 rV70 C+0 rV126 A2 rV108 D+0V6 A+0V13 D+0V6 A+0V13 D+0V6 A+0V9 D+0V4 F0V8 D+0V4 G0V10 D0V3 F+0V10 D0V3 F+0V10 C0V1 F+0V9 C0V2 C0 r r D5 C0 r r G+8V101 F+8V116 C8V105 G8V75 A6V54 rV63 r r r r r r r r r r r r r r r rV255 r rV255 r rV255 r rV255 r rV255]
  [B2 rV38 C+3 rV40 D+3 rV42 F+3 rV46 A+3 rV2 E0V8 D+1V2 E0V8 D+1V2 E0V8 C1V2 D+0V5 G+0V2 F+0V6 A+0 D+0V6 C1 D+0V6 C1 C+0V4 A+0V2 C0V1 r r r rV1 rV1 C0 E8V116 D9V115 r C9V119 C8V105 r r r r C+0 rV5 F+0 rV10 B0 rV15 C0V16 D+1V4 F0V16 D+1V9 A+0V16 D+1V14 rV208 D+17V3 E0V208 D+17V8 A0V208 D+17V13 D1V208 G18V2 D+0V224 G18V7]

$$ALL
  [r rV255 r rV255 rV8 C+0V6 D18 rV70 D8V111 A0V117 D8V61 D9V101 E5V73 r E0V7 r A6 C+0 rV158 D+9V108 D+8 rV127 F+10V31 F+2V15 D1 F0V255 F+0V2 E0V5 C+4 E5 G8V114 D+20 rV48 B3V31 F+2 G0 C+1V9 rV32 C6V83 A2V78 A+8V70 B3V31 F+2 D+5 rV76 E0V1 r rV114 A5V36 F+2 D+5 rV48 E6V13 r rV32 C6V83 C+2V78 A+8V115 D+20 rV48 B3V31 F+2 rV5 F6V50]
  [G+0V224 G18V12 C+1V224 r D+0V2 F0V6 E0 A+5 A+6V108 D9V67 D+8V99 F9V101 r rV2 E5V73 rV65 C0 F6V50 rV65 G2V104 B2V244 D+5 rV48 B3V31 E1V8 rV14 G5 G+5V73 C+13V12 B8V101 rV77 F+10V31 F+2V15 D1 rV65 rV1 C+0V76 E0V1 r rV108 r D1 rV127 F+10V31 rV32 C6V83 A2V78 C+8V115 r rV127 F+10V31 F+2V15 rV2 rV76 E0V1 r rV108 rV77 F+10V31 F+2V15 D1 rV68 B15V69 rV158]

$$ALL
  [rV65 A+6V4 C6V83 D+0V78 D9V111 B3V83 G+5V73 C+13V34 D9V101 E5 C0V1 r C+1 F6V78 r C+9 rV127 F+10V31 F+2V15 D1 G6V192 G6 G+0V111 rV65 rV1 C1V11 E0V5 D0V3 r D+5V69 rV84 B8V36 rV120 C0V1 rV255 rV255 F12V163 G+12V102 D+2V60 F+2V3 F+19V147 D15V243 F8V106 B9V106 C12V90 A1V171 G+12V105 D18V114 C14V204 A6V82 E7V102 E8V153 B6V89 G+12V168 G+13V44 D+12V42 C7V56 D14V172 C15V170 C7V181 C7V85 F8V170 C+14V170 C+14V77]
  [A+8V99 rV31 r rV101 A+7V69 r C+4 E5 G8V116 rV255 E0V1 C0 r F+5 F0V98 B2V244 D+5 rV48 B3V31 F+0 F6V78 r C+9V104 G0 D1V14 G0V6 D+0V4 r rV12 E6V50 C9V66 B3 rV129 rV255 rV255 rV255 G+12V136 G14V68 rV248 D11V95 B18V249 G+20V165 G5V193 D4V70 C+3V204 D+2V153 F4V203 F6V167 F7V57 E7V229 C7V153 G3V147 A16V212 C+14V83 C14V149 G+8V203 F17V170 E4V170 E4V170 A12V101 C7V85 C+14V170 C+14V170 C6]

$$ALL
  [E8V109 G+5V48 G+10 rV255 rV255 rV255 D11V131 rV48 F+0V31 r F+18V254 rV15 A+14V255 C+5V112 F+0V240 B20V248 G4V3 D+10V195 D+2V198 B20V127 B19V126 C16V31 F+16V94 D1V12 F+2V14 C+5V135 A+5V193 D19V241 D3V24 D16V109 A+10V225 F5V244 F+16V158 D+2V163 A2V124 E7V47 D+17V46 F2V225 D7V56 D16V10 A+11V169 F+3V73 B9V133 C+15V181 G+5V22 C+7V236 G+5V105 D+9V71 C17V85 A+1V40 F12V53 C7V85 C+14V91 C7V232 C+3V186 A8V142 A8V106 C+14V170 C+14V170 r rV18 F0V7 F0V7 D+0V7]
  [D9V108 G0 rV1 rV255 rV255 C+14V170 rV25 rV191 D17V193 C+5V227 rV252 D19V144 B20V15 G+10V40 F+20V254 B15V92 D1V184 A+10V224 E0V240 F10V62 F+2V25 B20V15 G9V171 A3V15 A18V249 F2V14 F10V112 A+1V209 G20V131 A11V225 A0V208 D+15V226 G+3V58 C+6V82 F17V199 B9V177 A+14V52 A17V147 G+18V23 A16V206 G+14V233 E1V134 C19V206 D+15V196 F2V97 F4V52 C+14V44 F+8V115 G17V84 G+16V180 B6V105 A+6V152 A2V174 A13V90 B6V85 C14V186 F11V21 C+14V170 E5V78 rV63 rV7 D+0V7 D+0V7 F0V7]

$$ALL
  [D+0V7 F0V7 D+0V7 F0V7 D+0V7 D+0V7 D+0V7 D+0V7 D+0V80 rV2 F+0 F+0 F+0 F+0 F+0 F+0 F+0 F+0 F+0 F+0 F+0 F+0 r r rV129 r r rV129 r r rV129 r r rV129 r B6V125 rV81 rV81 rV81 G+10V81 rV81 rV81 G+10V81 rV81 rV81 G+10V81 rV81 rV81 rV65 r D+8 C+0V225 F+0V2 r C+0V225 D+0V141 F+0V7 B10V80 rV6 D+8V4 D8V13 G+10V99 B6V32 rV100]
  [D+0V7 D+0V7 D+0V7 D+0V7 F0V7 F0V7 F0V7 F0V7 F6 F+0 F+0 F+0 F+0 F+0 F+0 F+0 F+0 F+0 F+0 F+0 F+0 G6V84 D0 r r rV129 r r rV129 r r rV129 r r rV255 r rV81 G+10V81 rV81 rV81 G+10V81 rV81 rV81 G+10V81 rV81 rV81 G+10V81 rV81 B2 D1V2 F0V63 rV4 G6V84 E0 D+2V4 C+0V4 C1V28 F6 F+2V2 D+0V159 D+0V129 G+18V255 r rV98]

$$ALL
  [D0V2 G+7V13 B6V52 rV100 D0V2 D+0V4 G2V10 A+8V13 B6V22 rV108 G+13V110 B6V26 rV15 E11V4 C0V80 rV11 G+18V10 A0V129 A0V137 F+8V13 D+8V13 C1V100 C11V98 rV65 r A+8V13 C1V7 C1V4 D+0 G+10V96 D+8V13 C1V4 r C+0V137 C+0V10 F+2V2 G+10V107 D+0V56 C1V2 C+0V255 r E11V4 F+0V2 C0V8 C0V7 C1V80 rV15 G0V133 F+0V2 F+2V2 D1V100 rV65 r C0V137 C1V129 C+0V129 A0V137 D+0V32 F6 F+2 D+0V7 D+0V7 C+0V7 C+0V7]
  [F0V84 D+0V255 r rV98 F0V84 G2V10 D+0V135 D+0V255 r A0V137 A0V255 r C1V66 F+2V2 F6 D5V103 D3V100 B7V13 C+0V137 A0V129 G+10V15 E11V103 rV103 D+6 G+8V13 F0V7 C1V7 F+0V2 C+0 rV6 F0V7 G6V84 C1 A0V137 F+0V2 F+5V24 rV105 B10 A0V131 B6V51 rV112 F+0V2 F+2V2 F+2V2 C1V7 F6 F+0V2 C+0V10 F+0V2 C0V31 D+0V129 A4 F+0V2 E11V4 C+0V129 D+0V129 G+7 D+0V80 rV1 C+0V7 C+0V7 C+0V7 D+0V7 C+0V7]

$$ALL
  [D+0V7 C+0V7 D+0V7 C+0V7 C+0V7 C+0V7 C+0V7 C+0V80 rV2 C+0V7 D+0V7 D+0V7 F0V7 D+0V7 D+0V7 D+0V7 D+0V7 F0V7 F0V7 F0V7 F0V7 F6 F+2 F0V7 F0V7 D+0V7 D+0V7 F0V7 D+0V7 F0V7 D+0V7 D+0V7 D+0V7 D+0V7 D+0V80 r C+0V7 D+0V7 D+0V7 F0V7 D+0V7 D+0V7 D+0V7 D+0V7 F0V7 F0V7 F0V7 F0V7 F6 G4V4 D+0V100 C+0V100 C+0V80 rV5 G+18V135 C11V1 C0V132 r rV96 D+0V169 D+0V129 G6V84 F+0 C+0V3]
  [C+0V7 C+0V7 C+0V7 D+0V7 D+0V7 D+0V7 D+0V7 F6 F+2 F0V7 F0V7 D+0V7 D+0V7 F0V7 D+0V7 F0V7 D+0V7 D+0V7 D+0V7 D+0V7 D+0V80 rV3 C+0V7 D+0V7 D+0V7 F0V7 D+0V7 D+0V7 D+0V7 D+0V7 F0V7 F0V7 F0V7 F0V7 F6 F+2 F0V7 F0V7 D+0V7 D+0V7 F0V7 D+0V7 F0V7 D+0V7 D+0V7 D+0V7 D+0V7 D+0V80 rV4 rV31 C+0V31 C0V7 F6 G10V93 D12V93 G+7V2 E5V78 rV24 G+18V133 C+0V225 C+0V225 r D+8 E14V93]

$$ALL
  [A+10V2 r C+0V3 G2V10 G2V10 C+0V10 r C+0V137 F+0V2 r C+0V225 A0V8 E5V78 rV31 B14V31 F+8V3 G+10V180 E11V103 D+6 G+8V3 C0V7 D0V7 F+0V2 C+0 rV1 C0V7 G6V84 C1 C+0V129 C+0V225 F+0V2 F+0V2 r C+0V149 C+0V129 C+0 C+0V255 rV1 C12V108 A+10V105 rV96 G+10V13 F+0V2 r D+8V3 F+0V2 F+0V2 G+7 G0 B14V80 rV2 F0 G6V84 r B6V15 rV84 rV65 C+0 D0V80 rV6 C+7V255 rV2 D0V3 B6V21]
  [E5V78 rV128 G+10V100 G2V10 D+0V135 G6V84 G+0 C0V8 G6V84 A0 B1V1 D0V2 r D0V66 D0V100 F+8V3 B7V3 rV65 C0 A+8V3 D0V7 D0V4 D+0 G+10V96 D+8V3 D0V4 r C+0V149 C+0V129 F+0V2 F+0V2 G6V84 C+1 C+0V129 C+0V143 C+0V131 B6V54 rV108 A+10V107 C11V96 G+18V131 D1V10 G6V84 D+1 A0V4 F+0V2 B1V1 rV65 C+0 F6 rV65 C+0 r A+6V255 rV2 rV3 C1 E6V157 F6 D0V3 B6V17 rV86 A+6V255 rV2]

$$ALL
  [rV88 B6V131 F6 D0V3 rV79 G+6 D0V3 C11V81 D0V3 C0V129 rV180 r G+10V77 D0V3 D0V3 rV77 E6 D0V3 D0V3 E6 F6 D0V3 G+10V180 D0V1 B14V3 C0V129 D0V3 rV79 D0V1 B14V3 G+6 F+6 C0 G+10V180 G+10V77 B14V3 C0 rV180 D0V1 r D0V1 B14V3 A+6V129 B1V132 B6V8 rV180 r B6V6 rV80 r A0V255 rV3 rV107 G+10V108 F+0V7 B8 F+0 F+0V129 C+0 F+0 C+0V129 C+0 F+0 G0V80]
  [D0V3 D0V80 rV9 G+6 D0V3 G+10V81 B14V3 C0 rV81 D0V3 E5V78 rV3 C0V129 G+10V89 B14V3 D0V3 rV76 D+7V129 rV180 D0V80 rV11 B14V3 E6 D0V3 rV79 D0V1 B14V3 C0 D0V3 rV65 C+0 rV79 D0V3 F+6 D0V3 G+10V79 D0V3 G6V131 G6V84 C1 D0V3 G+10V180 G+10V84 A+6V255 rV3 E5V78 rV255 rV3 F6 C+15V107 B6V121 rV108 D+0V3 F+0V7 D0V7 F+0V129 F+0 F+0 F+0V129 F+0 F+0 F+0V129 F+0V7 F6]

$$ALL
  [rV5 F+0V2 D0V7 B8V8 F+0V7 G0V7 G0V7 F+0V9 C+0V98 E9V4 D+0V129 C8V4 F6 F+2V7 F0V7 C+0V108 D0V7 F+0 F+0 F+0V129 F+0V7 F+0V2 rV108 B8V6 B8V6 B8V2 r A0 B8V6 F+0V7 G+10V108 F+0V7 F+0V7 F+0V7 B8V129 F+0V3 rV108 F+0V7 r F+0V18 F+0V7 B8V4 F+0V3 rV108 rV108 G+10V108 F+0 C+0V4 B8V129 G0V107 B8V8 B8V8 r A0 B8V6 F+0V7 G+10V108 F+0V7 F+0V7 D0V7 rV65 D+0 F6 rV65]
  [F+0V7 G0V108 B8V4 B8 A0V7 D+0V7 D+0V108 F+0V2 rV2 F+0V2 C+0V4 C+0V80 rV6 rV7 F0V7 F+0V7 B8 F+0V129 F+0 F+0V18 F+0V7 D+0V108 D0V2 B8V2 B8V10 E5V78 rV31 B8V6 B8V2 G0V3 F+0V7 F+0V7 F+0V7 D0V7 F+0 rV108 G+10V108 G6V84 G0 F+0V7 F+0V7 F+0 rV108 G+10V108 rV108 F1 F+0V129 B8V8 C+0V7 B8V15 B8V15 E5V78 rV31 B8V6 B8V2 G0V3 F+0V7 F+0V7 F+0V7 B6V12 G0 B14V80 rV2 F0]

$$ALL
  [D+0 r E5V78 rV3 D0V6 F0V3 D0V6 E0V3 G6V84 F+0 G+10V108 B8V129 C11V108 B8V129 G+10V108 r E0V3 D0V5 F0V3 D0V6 F0V108 F0V3 G6V84 F0 G+10V108 B8V129 rV108 B8V3 B8 rV65 D+0 E0V3 D0V5 E0V3 D0V5 r C11V108 B8V133 G+10V108 B8V129 G+10V108 E5V78 rV3 D0V6 E0V3 D0V6 E0V3 C3 B8V133 C11V108 B8 rV65 E0 F6 F+2V1 G0V7 F0V7 G0V7 G0V7 F0V7 F0V7 G0V7 F0V7 F0V7]
  [G6V84 r r C11V108 B8V133 G+10V108 B8V129 A+10V108 r E0V3 D0V5 F0V3 D0V6 F0V3 G6V84 E0 G+10V108 B8V129 C11V108 B8 B8V129 rV108 r E0V3 D0V5 E0V3 D0V5 D0V6 E0V3 G+3 B8V133 C11V108 B8V133 C11V108 E5V78 rV3 D0V6 E0V3 D0V6 E0V3 D0V6 r C11V108 B8V133 C11V108 B8 rV65 D+0 E0V3 D0V6 E0V3 G0 B14V80 rV1 D+0V7 A0V7 F0V7 F0V7 F0V7 G0V7 F0V7 F0V7 G0V7 G0V7]

$$ALL
  [F0V7 F0V7 F0V80 rV2 D+0V7 A0V7 F0V7 F0V7 F0V7 G0V7 F0V7 F+0V7 E0V7 E0V7 F+0V7 E0V7 F6 D5V96 F+0V1 F+0V1 F+0V1 F+0V1 F+0V1 F+0V1 F+0V1 F+0V1 F+0V1 F+0V1 F+0V1 F+0V1 r C0V18 F+0V1 F+0V1 F+0V1 F+0V1 F+0V1 F+0V1 F+0V1 F+0V1 F+0V1 F+0V1 F+0V1 G6V84 E0 C0 C0 C0V129 C0 C0 C0V129 C0 C0 C0V129 C0 C0 C0V255 rV5 rV98 G+10V98 rV98 rV98 G+10V98 rV98]
  [G0V7 G0V7 F6 F+2V1 G0V7 F0V7 G0V7 G0V7 F0V7 F0V7 F+0V7 E0V7 F+0V7 F+0V7 E0V7 F+0V80 rV3 F1V4 F+0V1 F+0V1 F+0V1 F+0V1 F+0V1 F+0V1 F+0V1 F+0V1 F+0V1 F+0V1 F+0V1 G6V84 D+0 F+0V1 F+0V1 F+0V1 F+0V1 F+0V1 F+0V1 F+0V1 F+0V1 F+0V1 F+0V1 F+0V1 F+0V1 r C0 C0V129 C0 C0 C0V129 C0 C0 C0V129 C0 C0 C0V129 C0 B6V102 rV98 rV98 rV98 G+10V98 rV98 rV98 G+10V100]

$$ALL
  [G+10V100 G+10V100 G+10V100 A0V255 rV5 A0V133 G0V131 G0 G0V133 G0V131 G0 B6V122 rV88 G0V129 G0 G0 G0 G0 G0 G0V129 G0 G0 G0V129 G0 B6V87 rV89 G0V133 G0V133 G0 G0 G0V129 G0 G0 G0V255 rV5 A0V133 G0V131 G0 G0V133 G0V131 G0V129 G0V255 rV5 A0V133 G0V131 G0 C+0V10 C+0V7 D1V7 D1V80 rV12 C+0V7 G0V7 G0V7 B0V7 B0V7 D1V7 F6 F+0V8 F+0V8 F+0V8 F+0V8 A0V4 C0V24]
  [G+10V100 G+10V100 G+10V88 B6V67 rV89 G0V129 G0V131 G0V131 G0V129 G0V131 G0V255 rV5 A0V129 G0 G0V129 G0V129 G0 G0V129 G0 G0 G0V129 G0 G0 G0V255 rV5 A0V133 G0V133 G0 G0V129 G0 G0 G0V129 G0 B6V72 rV89 G0V129 G0V131 G0V131 G0V129 G0 G0 B6V71 rV96 G0V129 G0V131 G0V131 F+2V8 B0V7 G0V7 F6 F+2V8 B0V7 B0V7 B0V7 B0V7 G0V7 G0V80 rV13 F+0V8 F+0V8 F+0V8 D5V88 A0V128 rV10]

$$ALL
  [A0V128 rV10 C0V24 rV96 rV65 F0 F6 F+2V1 G0V7 F0V7 G0V7 G0V7 F0V7 F0V7 G0V7 F0V7 F0V7 F0V7 F0V7 F0V80 rV2 C+0V7 A0V7 F0V7 F0V7 F0V7 G0V7 F0V7 G0V7 F0V7 F0V7 G0V7 F0V7 F6 D5V89 F+0V1 F+0V1 F+0V1 F+0V1 F+0V1 F+0V1 F+0V1 F+0V1 F+0V1 F+0V1 F+0V1 F+0V1 r C0V18 F+0V1 F+0V1 F+0V1 F+0V1 F+0V1 F+0V1 F+0V1 F+0V1 F+0V1 F+0V1 F+0V1 G6V84 E0 C0 C0]
  [C0V24 A0V128 rV96 rV96 G0 B14V80 rV1 C+0V7 A0V7 F0V7 F0V7 F0V7 G0V7 F0V7 F0V7 G0V7 G0V7 G0V7 G0V7 F6 F+2V1 G0V7 F0V7 G0V7 G0V7 F0V7 F0V7 G0V7 F0V7 F0V7 G0V7 F0V7 G0V80 rV3 F1V4 F+0V1 F+0V1 F+0V1 F+0V1 F+0V1 F+0V1 F+0V1 F+0V1 F+0V1 F+0V1 F+0V1 G6V84 D+0 F+0V1 F+0V1 F+0V1 F+0V1 F+0V1 F+0V1 F+0V1 F+0V1 F+0V1 F+0V1 F+0V1 F+0V1 r C0 C0V129 C0]

$$ALL
  [C0V129 C0 C0 C0V129 C0 C0 C0V129 C0 C0 C0V255 rV6 rV88 G+10V88 rV88 rV88 G+10V88 rV88 G+10V89 G+10V89 G+10V89 A0V255 rV6 A0V133 G0V131 G0 G0V133 G0V131 G0 B6V122 rV81 G0V129 G0 G0 G0 G0 G0 G0V129 G0 G0 G0V129 G0 B6V87 rV84 G0V133 G0V133 G0 G0 G0V129 G0 G0 G0V255 rV6 A0V133 G0V131 G0 G0V133 G0V131 G0V129 G0V255 rV6 A0V133 G0V131 G0 C+0V10]
  [C0 C0V129 C0 C0 C0V129 C0 C0 C0V129 C0 B6V102 rV88 rV88 rV88 G+10V88 rV88 rV88 G+10V89 G+10V89 G+10V89 G+10V89 B6V67 rV81 G0V129 G0V131 G0V131 G0V129 G0V131 G0V255 rV6 A0V129 G0 G0V129 G0V129 G0 G0V129 G0 G0 G0V129 G0 G0 G0V255 rV6 A0V133 G0V133 G0 G0V129 G0 G0 G0V129 G0 B6V72 rV81 G0V129 G0V131 G0V131 G0V129 G0 G0 B6V71 rV79 G0V129 G0V131 G0V131 F+2V8]

$$ALL
  [C+0V7 D1V7 D1V80 rV12 C+0V7 G0V7 G0V7 B0V7 B0V7 D1V7 F6 F+0V8 F+0V8 F+0V8 F+0V8 A0V4 C0V24 A0V128 rV10 C0V24 rV89 rV65 F+0 F6 F+2V4 F+0V4 D+0 D+0V7 F+0V4 D+8V7 D+0V7 F+0V4 F+0V4 D+0V7 rV100 F+0V4 D+0V7 F+0V7 F+0V4 D+0 D+0V7 F+0V4 A+7V7 D+0V7 F+0V4 G6V84 C+0 F+0V95 G+7V13 D+7V13 C1V88 F+0V4 G+7V7 F+0V93 rV88 A+7V13 C1V7 C1V96 G+7V7 D+0 F+0V95 B7V13 G+7V13 C1V93]
  [B0V7 G0V7 F6 F+2V8 B0V7 B0V7 B0V7 B0V7 G0V7 G0V80 rV13 F+0V8 F+0V8 F+0V8 D5V95 A0V128 rV10 C0V24 A0V128 rV89 rV89 G0 B14V80 rV1 B10V96 G+7V7 D+0 F+0V100 B7V13 G+7V13 C1V93 F+0V4 B7V7 F+0V96 rV91 A+7V13 C1V7 C1V100 F+7V7 D+0 F+0V95 D+8V13 F+7V13 C1V91 F+0V4 r D+0V7 F+0V4 A+7V7 D+0V7 F+0V4 F+0V4 D+0V7 rV95 F+0V4 D+0V7 F+0V7 F+0V4 D+0 D+0V7 F+0V4 A+7V7 D+0V7 F+0V4]

$$ALL
  [F+0V4 B7V7 F+0V96 rV65 F+0 D+0V7 F+0V4 F+0V4 D+0V7 rV95 F+0V4 D+0V7 F+0V7 F+0V4 D+0 D+0V7 F+0V4 F+8V7 D+0V7 F+0V4 F+0V4 D+0V7 rV100 F+0V4 D+0V7 F+0V80 rV4 D+8V7 F+0V100 rV91 A+7V13 C1V7 C1V100 F+7V7 D+0 F+0V95 D+8V13 D+9V13 C1V112 F+0V4 F+8V5 E0V103 rV112 D+8V5 E0V7 C+0V32 r C1 G+7V7 D+0 F+0V105 G+7V13 C1V93 F+8V7 D+0 F+0V93 B7V13 C1V93 B7V7 D+0 F+8V13 C1V7 C1V100 C+8V7]
  [F+0V4 D+0V7 rV95 G+17 F+7V13 C1V91 F+0V4 D+8V7 F+0V100 rV91 A+7V13 C1V7 C1V100 F+7V7 D+0 F+0V103 C+8V13 A+7V13 C1V95 F+0V4 C+8V7 F+0V98 rV95 D+8V13 C1V7 F6 F+0V4 D+0V7 rV95 F+0V4 D+0V7 F+0V7 F+0V4 D+0 D+0V7 F+0V4 A+7V7 D+0V7 F+0V4 F+0V4 D+0V7 rV100 F+0V4 D+0V7 D+0V31 E5V78 rV31 F+0V4 D+0 D+0V7 F+0V4 F+0V7 F+0V4 D+0 D+0V7 F+0V4 F+0V7 F+0V4 D+0 D+0V4 D+0V7 F+0V7 F+0V4 D+0]

$$ALL
  [rV96 D+8V13 C1V7 F6 F+0V4 D+0V4 G+7V7 D+0V7 F+0V4 F+0V4 F+0V4 F+0V7 F+0V4 D+0 F+0V4 D+0V7 F+0V7 F+0V4 rV93 F+0V4 D+0V7 F+0V7 D+0V7 rV103 A+16 G+7V13 G+7V7 D+0 F+0V100 G+7V13 C1V93 D+8V7 D+0 F+0V93 C1V7 C1V96 C+8V7 D+0 D+8V13 C1V7 C1V99 C+8V7 rV96 C+8V13 C1V7 F6 F+0V4 D+0V4 G+7V7 D+0V7 F+0V4 F+0V4 F+0V4 B7V7 D+0V7 F+0V4 D+0 G+10V7 F+0V7 F+0V4 D+0 G16 G+7V13 G+7V7]
  [F+0V4 D+0V7 F+0V80 rV6 F+8V7 F+8V13 D+8V13 C1V100 F+0V4 F+0V96 D+8V13 C1V100 F+8V7 rV103 D+8V13 C1V7 C1V98 F+0V96 rV100 F+8V13 C1V7 C1V7 F+0V100 rV65 F+0 F+0V4 D+0 D+0V7 F+0V4 F+0V7 F+0V4 D+0 D+0V7 D+0V7 F+0V7 F+0V4 D+0 D+0V4 D+0V7 F+0V7 F+0V4 D+0 F+0V4 D+0V7 F+0V80 rV8 D8V7 D+8V13 D8V13 C1V99 F+0V4 F+0V96 C+8V13 D8V13 C1V99 D+0 rV93 G+7V13 C1V4 D+0 rV65 F+0 F+0V4 D+0]
