
$OPN, $UNKNOWN_0x8A,

!ALL

$Inst1,
$Inst2,
$Inst3,
$Inst4,
$Inst5,
$Inst6,
$Inst7,

$$ALL
  [D+5 D+5 D+5 r r r rV4 r r r r r r r r r r r r G8V32 B9V108 D+18 C0 C0V118 E16 rV72 A15 rV253 D3 rV224 G14 rV212 D+14 rV144 D+20 rV220 G9 rV212 D+20 rV16 A+9 rV97 E0 C0V1 r F+0V1 D+0V6 C0V1 E0 C0V1 C+0V2 C+0V1 D0 r r C0 rV1 r r G2V105 E8 G10 rV128 r C0 rV4 F0 rV9 A+0 rV14 rV16 D+1V3 E0V16 D+1V8 A0V16 D+1V13 D1V16 D+17V2 D+0V208 D+17V7 G+0V208 D+17V12 C+1V208 G18V1 D0V224 G18V6 G0V224 G18V11 C1V224 G18V1 rV3 F0V6 D+0 rV76 B8V99 D8V115 A+8V48 D+8V61 E5V73 r E0V65 C0 D0V5 r C+0V4 r E8V112 rV255 G0 D+2 F1V77 C+9V116 G+5V73 F+18V15 G+8V110 D9V77 r rV1 F6V50 rV65 F9V32 rV77 rV255 r rV255 r rV255 r]
  [D+5 D+5 D+5 r r r r r r r r r r r r r r r r F+9 E8 C0 r rV4 D+0 rV8 G+0 rV13 D1 rV59 E6 rV79 G6 rV81 A6 rV83 A+6 rV83 B6 rV85 C7 rV86 r E0 C0V1 C+0V2 E0 C0V1 C0V1 F+0V1 D+0V6 C0V3 r r r rV1 rV2 F12 C9V99 G2V121 r r r r r r r r r r r r r r r r rV255 r rV255 r rV255 r rV255 r rV255 r rV255 r rV255 r F0V6 F0V6 rV98 E3 E8V61 C9V108 D+9V109 B8V101 r rV2 A6 F0 C6V12 r A+6V35 F6V5 E5 C0V1 F6V78 r G+9V108 C9V110 C+4 E5 E8V69 r C0V3 rV69 rV223 G+5V115 G+9V115 rV1 rV2 D+0V255 rV7 G+0V255 rV12 C+1V255]

$$ALL
  [rV255 r rV255 r rV255 r rV255 r rV255 r rV255 r rV255 r rV255 r rV255 r rV255 r rV255 r rV255 r rV255 r rV255 r rV255 r rV255 r rV255 r rV255 r rV255 r rV255 r rV255 r G+5 D1V15 D1V15 D1V15 D1V15 D1V15 D1V15 D1V15 D1V15 D1V15 D1V15 D1V15 D1V15 D1V15 D1V15 D1V15 D1V15 D1V15 D1V15 D1V15 D1V15 D1V15 D1V15 D1V15 D1V15 F+5 A+0V84 C+9 D+1V255 r r C0 F6V78 r G9V101 E6 rV69 rV223 F+5V111 E6V22 r C0V1 C0 C0V63 E5V69 r r rV6 A0 rV16 G1 rV26 F2 rV36 D+3 rV46 C+4 rV56 B4 rV60 G4 rV50 A3 rV40 B2 rV30 C+2 rV20 D+1 rV10 F0 r C1 r r r r r r r r r r r r r]
  [rV17 F+1V255 rV22 B1V255 rV27 E2V255 rV32 A2V255 C+0V36 B3V3 rV42 G3V255 rV47 C4V255 rV52 F4V255 rV57 A+4V255 rV62 D+5V255 rV67 G+5V255 rV72 C+6V255 rV77 F+6V255 rV82 B6V255 rV87 E7V255 rV92 A7V255 rV97 D8V255 rV102 G8V255 rV107 C9V255 rV112 F9V255 rV117 A+9V255 rV255 rV255 rV255 rV255 rV255 rV255 rV255 rV255 rV255 rV255 rV255 rV255 rV255 rV255 rV255 rV255 rV255 rV255 rV255 rV255 rV255 rV255 rV255 rV255 F6V78 r C+8V117 F3V8 r r r r A+2 B0V108 E8V99 rV78 F6V50 rV65 F5V115 rV1 D0V255 rV83 r rV69 r r r r r r r r r r r r r r r r r r r r r r r r r r r rV65 D+5 rV32 B4 rV50 C+2 rV46 D5 rV51 G+4 rV63 C+5 rV63 C+5 rV48]

$$ALL
  [r r r r r r r r r r r r r r r D5 rV59 B4 rV32 F+2 rV62 G+4 rV53 B4 rV63 D5 rV62 F+4 rV31 C+1 rV1 r r C0 rV10 A0 rV1 A1 rV31 A0 rV4 D7V86 r r r r r r r r r r r r r r r r r r r r r r r r r r r G+5V1 r rV34 C+3 rV44 B3 rV54 A4 rV62 A4 rV52 B3 rV42 C+3 rV32 D+2 rV22 F1 rV12 G0 rV2 r rV6 A0 rV16 G1 rV26 F2 r r r r r r r r r r r r r r r r r r r r r r r r r r r rV77 C8V98 G4 rV8]
  [F+2 rV9 C0 rV1 C0 r F0 rV9 r rV31 C3 rV4 D0 C+7V13 r r r r r r r r r r r r r r r r r r r r r r r r r r r C0 rV63 A+3 rV58 G3 rV36 F+4 rV60 F+4 rV60 D5 rV63 C+5 rV53 D+3 rV16 E0 r r rV1 E0 rV7 r rV19 F2 rV11 D+0 rV87 r r r r r r r r r r r r r r r r r r r r r r r r r r r E5V69 r G2 rV54 A+3 rV1 F+3 rV26 B1 rV63 A+3 rV34 G+3 rV63 F+4 rV19 C+0 rV10 C2 rV25 E0 rV24 G3 r D+4 rV50 r rV1 A+8 F9V110 C+7 rV255]

$$ALL
  [rV255 rV255 rV250 E19V4 C1V225 A+19V30 C21V245 A20V245 F0V3 A19V214 D2V247 C19V27 D3V232 E1V253 C20V19 B1V211 B18V23 D+19V7 G+2V250 F+19V12 C1V20 G+0V249 A+0V1 C+20V18 G+18V56 D18V17 F1V249 F+20V16 G+20V251 A19V14 A1V229 G20V26 C0V227 F+0V6 C+1V249 F+19V13 D+1V228 D19V18 G20V244 A0V27 G+18V4 C+1V252 rV18 A+19V250 A2V248 A19V7 G1V237 B18V37 C+2V222 A20V12 C+20V22 A20V7 G1V228 G+18V32 E20V243 C+0V252 G19V28 D+1V228 C+20V14 rV209 D+2V244 A18V17 E3V231 C21V16 C21V235 A+2V245 F18V9 G+2V240 B20V247 F+20V14 A+20V251 C0V10 B20V23 B20V249 G0V36 D20V238 F+1V18 A20V248 E0V1 D+0V7 G+0V239 G+20V7 E1V241 D+18V17 A+1V233 F+19V24 C+1V235 C20V6 C2V239 D20V21 D+0V229 D0V11 E19V255 C+1V243 A+20V252 C0V234 A1V10 G+19V3 G0V233 D20V17 C+0V236 C2V249 D19V33 E1V219 G0V25 E20V254 C3V227 A20V13 G+20V248 B20V10 rV252 G0V251 F+20V5 B20V13 A0V245 A+20V5 D+0V248 B20V1 D+0V254 D+0V254 rV250 C21V1 B20 E1V245 C+20V11 D1V243 A+19V12 E0V5]
  [rV255 rV255 G18V7 F+19V53 rV241 rV11 D1V248 A+19V5 G1V15 C19V33 rV225 C+20V9 C+19V5 C+1V241 F+20V13 C20V8 D3V214 F20V20 C+1V237 rV14 C21V238 F+0V21 E0V253 rV1 F2V242 D1V244 F+17V10 E2V253 G+17V12 E0V24 F+17V243 F1V17 D19V248 D20V39 C+0V241 D+20V19 G+19V246 B20V1 C0V245 A1V251 D+0V240 D20V27 A+1V222 D+20V21 D+2V243 D1V241 F0V243 E0V251 A+20V5 G1V223 G0V252 F19V15 D2V232 C1V242 G18V252 C+1V247 F+1V5 D20V23 F+1V245 A+18V33 A1V218 F+0V26 A18V17 F2V226 G+17V39 C+0V235 C+0V247 E18V32 F1V244 rV234 G+20V254 D1V216 C+0V6 F+18V3 D+2V222 D+19V27 F+0V230 F+0V255 D+20V233 D0V32 F0V225 E19V18 B2V222 E20V20 D0V244 B0V252 B20V3 G0V9 B20V3 A1V236 C+18V27 A2V233 G+20V15 F+19V11 A+0V11 D20V6 G+0V248 C+0V250 A+20V3 B0V239 G+19V29 B20V230 C+2V4 B18V12 G1V229 D19V20 F+19V14 D+2V249 C19V4 C+1V248 B20V253 E0V255 A20V252 rV10 F20V248 D+0V1 A+20V1 A20V2 G+20V255 D0V245 D+20V2 G0V251 B19V14 rV251 E0V241 F+20V253 A0V242 E20V252]

$$ALL
  [G+0V247 D+1V248 F+19V19 D1V246 C0V10 D+0V247 E0V249 D20V13 A20V1 D1V243 D+19V26 C1V237 B20V17 G20V249 F1V249 D20 F0V9 F+0V246 rV3 G+20V5 rV2 G0V245 rV3 G+20V8 A1V235 C+20V14 rV255 D+0V255 F+20V3 A+20V10 F1V245 B19V19 G0V246 D0V1 A20V5 F+1V252 G+19V3 C2V241 F19V12 C+1V253 rV1 A+20V2 E0V252 B20V2 C+0V2 G+20V1 D+0V254 A20V5 D0V254 A19V8 D+0V254 F20V7 B20V251 D+0V3 F+20V249 D0V6 B20V255 E0V244 G20V13 G0V244 F+20V8 D+0V247 F0V255 C+20V12 F+1V244 G+20V14 F0V237 rV10 rV246 D+0V253 D0V2 C+0 C21V4 E0V4 rV247 D+0V9 A+20 D+0V248 C21V254 B20 A0V255 r rV253 A+0V245 A20V7 E0V236 A+20V10 E20V247 D+1V247 G+20V4 G+0V237 G20V12 A0V241 D+20V18 C+1V247 A20V13 C0V244 E0V6 F20V248 B0V7 A+20 A+0V250 B20V4 F+0V246 rV6 rV250 C+0 A20V255 rV4 D0V1 G20V252 C+0V1 F+20V255 G0V244 A+20V8 A+20V249 F0V6 G20 B0V254 A+20V252 C21V1 F0V253 rV252 C+0V255 D0V245 D0V6 C21V251 G0]
  [F20V26 F0V237 G+0V2 B19V254 G1V247 D20V12 G0V253 A0V245 F+20V13 A0V243 D1 G19V9 B0V242 A20V13 rV249 G+0V3 A+20V249 E20V14 F0 A+20V251 C21 C21V7 G+0V245 G+20V10 A+20V250 E0V239 C0V6 F20V2 A0V248 G+20V4 D20V3 G1V248 F19V11 D+1V249 C20V4 D+0V245 F+20V9 G20V1 G1V250 C20V2 D+1V254 G+20V254 A+0V249 C21V2 E0V250 A+20V6 F+0V245 C+0V4 rV251 C1V254 G20V252 C+1 G+20V252 rV255 F+0V251 B20V249 rV9 rV247 rV5 r F0V253 C20V9 A0V242 rV12 D+20V253 C+1V6 C+20V3 A0V241 F20V18 rV246 rV255 A+20V2 C21V250 C21V3 rV4 E0V247 D0V6 G+20V255 D0V253 rV9 A20V4 E0V251 G20V8 B20V255 D0V4 C+20V11 F+1V240 C+20V25 rV245 C21V15 C+0V249 rV7 B20 D1V254 C20V1 F1V250 G+19V6 F1V247 D20V8 D0V250 A20V11 G+20V250 rV5 F+20V254 rV1 A+20V254 C+0V253 C0V255 C21 D0V253 r C+0V248 C+0V5 F+20V2 D+1V246 D20V10 C+0V248 rV2 A20V252 F0V3 G+20V255 rV7 rV250 rV4 rV1 D+0V250 C21V7 E20V254]

$$ALL
  [rV255 rV254 C0V4 G+20V255 F0V255 rV1 C0V250 D0V254 D+20V4 E0V253 rV255 rV253 C21V255 C+0V254 A+20V3 D0V250 rV5 rV254 rV4 rV254 C+0V249 F0 A20 C0V251 A20V2 D+0V252 D0V253 rV3 C21V255 D+0V252 B20V2 D+0V250 rV3 rV6 D+0V252 rV3 rV254 D+0V254 B20V4 D0V253 rV3 B20V3 D+0V249 C0V253 A20 C+0 B20V3 rV253 C0V2 G+20V4 C+0V250 B20V10 rV252 rV5 A20V2 D0V250 A20V11 rV251 rV3 B20V254 F0V253 C21V3 E0 rV253 C0V255 rV1 D+0V250 rV4 rV249 C0 B20V253 E0V252 B20V4 rV1 E0V255 A20V1 D+0 G20V4 C+0V255 rV4 B20V255 C+0V255 C21V255 D0V255 rV2 C0V254 A+20V4 F+0V249 C21V4 rV254 D+0V1 B20V253 D+0V254 C21V1 D+0V251 C21V5 rV254 C+0V255 rV255 C0 C0V254 C0 rV254 C+0V255 C21V1 C0V255 C+0 rV254 C+0V254 r C0V254 C21V2 r rV254 r rV255 C21V1 D0V252 B20V3 D0V253 C21V1 C0V253 rV253 C21V1 rV254 rV254 C0V255 rV255]
  [F+0 F+20V255 C0V253 C+0V253 F+20V252 F+0V1 F20V6 E0V244 C0V2 G+20V1 C+0V3 A+20V255 rV252 rV253 rV1 G+20V1 D0V252 A+20V7 rV247 C21V2 C21V2 D0V255 B20V3 rV254 F+0V250 C21V3 rV2 D+0V249 A+20V7 C21V251 rV3 B20V2 D+0V252 rV3 rV254 rV252 C21V4 C0V252 D+0V255 rV3 E0V249 r B20V2 rV251 rV3 rV251 F+0V254 G+20V2 A+0V246 rV254 C0V252 F+0V249 G20V5 F+0V245 rV8 C0V250 F+0V251 F+20V5 E0V249 A20V4 C+0V251 C+0V2 B20V254 rV3 C0V254 rV5 rV1 C0V1 A+20V4 C0V253 rV5 B20V255 E0V254 B20V1 C+0V251 C0V2 C21V253 G0V252 G20V4 F0V253 A20V3 C0V251 rV4 rV252 rV5 rV250 rV1 B20V1 E0V252 G+20V3 C0V251 C21V6 rV251 rV4 r D0V253 G+20V4 rV254 rV1 rV254 rV1 rV254 C21V3 rV254 rV255 rV1 rV254 rV1 rV253 r rV255 C0V254 rV2 C0V255 rV2 C0V253 C21V3 rV255 D0 A+20V3 D0V252 A+20V4 C0V253 r C21V1 C0V255 C21 rV255]

$$ALL
  [C0V254 B20V1 r C0V255 rV1 C0V1 C0V255 r C0V253 rV1 rV252 C+0V255 B20 C+0V252 rV1 rV255 rV255 rV2 C+0V252 rV255 rV255 rV254 C21V3 C0V254 C21V255 r rV255 rV1 C0V254 rV254 rV253 rV4 C21V253 D+0V1 A20 F0V253 A+20V3 C+0V251 rV2 rV254 C+0V254 rV254 C0V3 rV253 rV4 rV251 D0V254 rV3 C0V254 r C0V254 C0V253 rV3 rV255 rV252 rV5 rV252 C0V255 rV3 C+0V250 rV3 B20V1 C0V252 rV3 B20 rV1 r rV254 C21V2 C21 rV2 C0V255 C21V2 C+0V253 B20V4 C0V252 rV3 rV251 D+0V2 A+20V1 C+0V254 rV3 rV254 rV2 B20V2 r rV255 rV253 C21V1 rV254 C0V255 C21V1 C0V253 r r C0V254 rV255 C0V255 rV254 rV1 rV255 C+0 rV1 C0V253 B20V4 C0V253 rV1 C21 C0V253 B20V5 rV252 C+0V2 A+20V1 C+0V255 C21V2 C0V253 rV4 rV253 D0V2 B20V1 C+0V254 C21V2 rV254 C21 rV253 rV2 rV252 rV3]
  [r C0V254 rV254 r C0V253 rV3 rV254 rV2 r C0V255 C21V4 C0V253 r rV1 rV254 rV1 C0V254 rV255 C21V4 rV253 C21V3 C0V254 r C21V2 rV255 r r r C21V254 C0V1 C21 D+0V253 C21V3 C+0V250 rV4 C21V253 D0V1 C21 C+0V254 C21V4 r rV254 C0V1 rV255 r C21V2 rV252 rV1 C21 rV255 rV255 r rV249 rV1 rV254 C0V253 rV4 rV250 C0V1 C21V1 D+0V250 rV1 r C0V254 C0V2 C+0V252 rV1 rV254 D0V1 rV251 rV2 rV253 C+0V2 C21V251 C0V1 B20V255 F0V251 A20V4 D0V252 rV2 rV253 D+0V1 C21V255 C+0V254 r rV255 rV2 rV253 C0V253 rV4 rV252 rV1 C21 C+0V253 rV2 rV255 rV255 r rV254 r rV2 rV255 D0V1 C21V253 D+0V254 C21V2 D+0V251 rV3 rV253 D0V253 C21 D0V252 rV2 rV252 D0V1 C21 D0V254 C21V3 rV253 C0V1 rV255 C+0V255 r C+0V255 B20V254 D0 B20V1 E0V252]

$$ALL
  [B20V253 D+0V255 A+20 C+0V254 rV1 rV255 rV2 rV254 rV1 r r rV255 r rV254 C0V255 rV255 rV255 rV255 r rV255 r C21V1 rV254 rV1 C21V255 rV2 rV255 rV2 C+0V253 rV2 rV254 C0 r C+0V255 r rV254 C0V255 rV255 rV255 rV254 r C0V253 C0 rV255 rV1 rV254 C0V254 rV255 rV255 rV2 rV255 r r rV1 rV1 C0V254 B20V2 rV255 rV2 rV255 C0V255 B20V2 C+0V255 r r r C0V253 rV3 rV253 C0V1 C21 C+0V253 rV2 rV254 rV2 rV254 r r rV254 rV1 r rV254 rV1 rV255 r rV255 rV255 r r rV254 r C21 C0V255 rV1 C0V253 rV2 rV254 r rV255 C0 rV255 C0 r rV254 r rV255 rV1 rV254 r rV255 rV255 r C0V254 rV1 C0V255 rV1 rV1 C0V254 rV1 rV255 rV255 rV1 rV254 rV1 rV255 r r rV255]
  [C21V4 C+0V251 C+0V2 B20V255 C+0V255 C21V255 C0V255 r rV255 r r rV255 r rV1 r r C0V255 r rV255 rV1 rV255 C0V1 C21V255 C+0 rV254 r rV254 rV255 r C+0V254 C21V1 C0V254 rV2 r C0V255 rV255 rV2 C21V1 rV255 r r rV1 C0V255 r C0V253 rV2 rV253 rV1 rV254 rV255 rV1 rV254 rV255 C+0V254 rV1 rV254 r r C+0V254 B20V2 C0V253 rV1 r C0 rV254 rV2 rV254 C0V255 B20V3 rV253 rV2 rV254 C+0V2 rV255 rV255 rV1 rV254 r rV1 rV254 rV1 rV254 C0V255 rV2 rV254 r r rV255 r r C0V254 r rV253 C0 rV255 C+0V253 rV1 rV254 r rV254 r rV253 C0 rV254 C0 r rV255 r rV255 rV1 rV254 r rV255 C0V255 rV1 C0V254 r rV255 C0V254 rV2 rV254 rV255 rV255 rV255 r rV255 r r]

$$ALL
  [r rV255 rV255 r r rV255 rV255 rV255 r r r rV255 r r rV1 r rV255 C0V255 r r rV1 rV255 r r rV255 r rV255 r rV255 r rV255 r r C0V254 r rV255 r r rV255 r rV255 r r rV255 r r r rV255 r rV255 r rV255 r r rV255 r rV255 r rV255 rV255 r rV255 r rV255 r rV255 rV255 r rV255 r rV255 rV255 r rV255 r rV255 r r rV255 r rV255 r rV255 r r r r r r rV255 r rV255 r rV255 rV255 rV255 r rV255 r rV255 rV255 rV255 rV255 r rV255 rV255 rV255 rV255 rV255 r A+6V80 C+9V111 E20 rV8 rV255 rV255 rV255 F+19V243 D+1V252 G+6V29 G16V211 E6V198 G+4V71 G15V246 D5V254 A+19V44 C+20V217 C+5V42]
  [rV255 rV255 C0 r rV255 rV255 rV255 r r r rV255 rV255 rV255 r r rV255 rV255 rV255 r r rV255 r rV254 r r rV255 r rV255 r rV255 r rV254 r rV255 C0V255 r rV255 r rV255 r r rV255 r r r r r r rV255 r rV255 r rV255 r rV255 r r rV255 r rV255 r r rV255 r rV255 r r rV255 r rV255 r rV255 r rV255 rV255 r rV255 r rV255 rV255 rV255 rV255 r rV255 r rV255 r rV255 r r r r r r r rV255 r r r r rV255 r r r r r r r rV255 r G0 G+8V79 F+3 rV255 rV255 rV255 r F0V29 C19V243 G+20V168 C7V89 F15V241 G+1V218 C+1V89 C+17V219 G4V255 D+19V23 G18V201]

$$ALL
  [C+19V250 C18V250 F+3V50 C17V219 rV241 G+19V24 C+20V216 A+0V244 G+18V2 rV222 F+1V10 E19V230 G+0V4 A+0V8 C20V242 E1V2 D20V8 rV249 D+0V8 B19V253 D20V250 F+0V9 G19V236 C21V1 G+20V4 B20V240 E0V254 G+20V10 F+0V244 D+0V9 C21V1 E0V5 F+0V4 F+20 D+0V10 G+20V2 B20V252 A20V3 A+20V255 C21V249 A20V254 rV255 rV254 rV248 E0V9 C0V250 E0V1 E0V6 rV2 F0V4 C21V4 D0V6 C21V4 A20V253 C0V6 F+20V1 rV248 D+0V5 B20V250 D+0 C+0 C0V255 C0V3 D+0V1 G0V3 A20V255 G+0V5 C+0V7 G+20V252 F0V7 rV2 rV252 E0V7 C21V253 rV255 E0V1 rV255 C+0V255 D0V3 F0V254 C+0V2 C+0V3 E0V3 D0V1 rV5 C0V5 D0V252 rV6 B20V255 F+0V252 rV1 rV255 G+0V253 C0V5 rV254 E0V3 D+0V3 C21V255 D0V4 rV3 r r B20V2 rV253 C+0V1 C21V255 rV1 rV252 rV253 C0V2 B20V253 D0V254 rV1 rV253 C0V1 r rV252 C0V3 rV253 rV1 rV1 rV254 r C21 rV254 rV254 rV255 C21V255]
  [A+5V45 G18V226 rV243 B2V48 A+19V221 D3V248 G+19V48 rV236 G1V15 A+18V7 E20V254 C+0V13 A17V241 D+0V255 B19V253 C+19V238 F+0V244 G20V253 A19V234 C1V4 A+20V242 G20V250 G+0V10 E20V249 rV1 C20V9 rV245 D+20V251 D+20V3 rV245 A20V251 C20V246 C+0V253 D0V244 rV252 F0 C0 E0V254 rV6 D0V2 rV5 D+0 rV6 rV3 C+0V255 C21V5 G+20V251 F0V1 B20V251 rV255 F0V2 rV251 F+0V3 C+0V5 D0V253 D+0V12 rV3 D+0V3 rV2 rV2 E0V6 A+20V255 D+0V4 A+20V255 C+0V253 F0V5 G20V253 E0 E0V6 C21V249 E0V6 D0V5 rV252 F+0V7 C0V1 r C0V5 D0 A20V255 rV5 C+0V253 B20V252 C0V4 D0 rV248 E0V8 rV1 C+0V251 F0V10 B20 D0V254 C0V6 B20 C+0V251 C0V3 A+20V251 C0 rV255 rV254 D0 rV255 C+0V255 D+0V2 rV253 rV255 F0V1 C21V255 C+0V2 C+0V255 C0V254 r r C0V253 C21 C0V253 r rV253 rV255 rV255 rV251 C0 rV254 rV254 rV255 r rV254 C+0V1 C21V255]

$$ALL
  [C+0 C21V254 rV255 rV1 rV253 C0V255 rV1 rV252 rV1 rV254 rV255 r A+20V253 C0V255 rV255 C21V252 rV1 rV253 rV252 rV3 rV251 C0V254 rV255 C21V255 rV255 rV254 r C21 C21V252 rV255 rV254 rV254 rV253 rV255 rV254 rV252 rV254 rV255 rV254 rV254 C0V255 rV254 C21V1 rV253 rV255 rV255 B20V254 rV255 rV254 C21V253 rV1 rV253 rV254 rV2 rV254 rV255 r rV254 r C21V1 rV254 r B20V253 rV255 C+4V6 G2V111 rV43 r rV255 rV255 rV255 rV255 rV255 E19V238 B1V39 D+1V31 G1V246 G14V171 F0V32 F+6V83 C+16V176 D+20V250 F+1V29 F+7V63 G+19V214 C14V214 A7V77 A20V255 F19V222 F20 E1V22 F1V249 G+17V245 G+0V10 C+1V20 G+19V240 D0V251 rV18 C21V234 rV2 E20V252 F+0V1 F0V11 G20V235 G20 A+19 D1V4 A0V5 D19V225 C1V18 rV8 C21V240 A20V2 A20V249 D+1V16 A+19V244 F+20V242 B0V18 G+20V246 F0V5 C21 D0V251 C0V4 F+20V252 C1V8 C21V1 rV244 D+0V12]
  [B20V255 rV255 C21V252 C0V254 r C21V251 C0V1 r rV252 r C21V253 C0V255 rV255 B20V254 C0 C21V254 rV254 rV1 C21V251 rV254 rV1 A+20V253 rV253 C21V254 r C21V254 C21V252 rV255 C21V254 rV254 rV255 rV255 rV1 rV252 r C21 rV253 rV255 rV255 C21V253 rV254 rV254 rV253 rV255 rV255 rV253 rV255 r rV255 rV255 rV253 r rV254 rV254 rV255 C21V254 rV255 r rV254 r C21V254 rV255 C0 rV83 F5V110 D+9V138 E1 rV255 rV255 rV255 rV255 rV255 A20V229 B19V12 F2V23 D2V50 D+19V229 C+16V202 C7V111 A+4V7 F17V228 G20V233 C4V61 C2V246 F14V181 G1V60 A+2V248 G20V234 F+17V222 E0V23 E2V29 E16V185 D+0V9 B20V251 B20V234 E19V244 D19V234 C2V16 C+19V233 C20V234 C21 D+19V236 A+1V12 E19V237 F+20V234 D0V6 F+20V247 C0V247 A+18V246 E0V254 A0V9 B18V233 C+0V255 rV8 D0V247 C21V2 C20V252 A0V1 G+20V252 A+20V248 G+0V14 F20V250 C21V247 F0V11 C21V251 G0V8 C20V248 G+0V3]

$$ALL
  [rV4 E0V254 rV4 C0V251 G0V13 B20V251 E0V3 E0V11 G+20V245 G+0V11 rV255 C0 C+0V7 rV251 A+0V7 A+20V254 E0V255 D0V8 rV255 G0V7 B20V2 rV253 C0V6 D0V3 A0V7 rV3 C0V255 D0V6 rV254 F+0V7 r r E0V6 A20V251 G0V4 C+0V4 C21 G+0V8 A+20V251 C0V254 F0V10 C+0V255 rV254 rV1 G+0V5 r rV254 D0V3 D+0V4 rV252 rV6 r rV254 rV1 C+0V1 E0V5 A20V248 C0V1 D0V5 rV253 rV2 A+20V252 D+0V3 r B20V252 C+0V3 rV1 C+0 B20V253 rV255 D0 A20V253 C+0V255 rV1 A20V250 r rV2 C0V254 C21V254 B20V253 D0V1 A+20V253 rV252 D0V1 C21V254 C+0 A20V253 C21V252 D+0V4 rV255 rV252 A20V254 D+0V1 C+0 G+20V251 C0V1 C0V2 B20V249 A+20V253 rV3 D+0 G+20V250 A+20V253 E0V5 B20V253 A+20V249 C0V3 rV253 B20V250 A+20V77 G+8V100 D1 r D1 rV255 r r E20V6 D+0V233 D20V252 G+0V229 D19V254 rV4 D0V251 B20V253 C21V5 C+1V249 D+19V22]
  [G0V9 D20V245 G+0V8 F20V255 G0V2 B20V3 A+20V253 B0V7 E20V254 E0 rV1 C21V253 G0V5 B20V1 C21V249 E0V7 B20V254 G0V4 rV3 rV250 F0V7 A20V251 F+0V5 C+0V5 rV249 D+0V4 C21V254 D0V2 rV5 C+0V255 C+0V1 C0V3 rV251 C+0V7 rV254 D0 C+0V4 D0V255 rV1 C21V254 A0V9 B20V252 rV254 F+0V9 rV254 rV255 rV1 D+0V4 C+0V3 A20V252 E0V2 C+0V2 B20V252 D0V3 r D0V255 B20V254 r D+0V3 A+20V251 C+0V254 rV2 C0V1 rV253 A+20V253 rV255 C+0V4 A20V250 rV255 C0V2 B20V250 D0V4 C21V255 rV254 B20V254 rV253 F0V5 A+20V252 rV254 rV3 C21V252 rV1 r rV255 C+0V3 B20V249 r rV1 C0V255 C0V2 G20V246 D0V4 r B20V249 rV1 r D+0V2 G20V249 rV254 F0V6 A+20V249 A+20V251 rV3 C0V255 rV254 G+20V251 E0V4 C21V253 G+20V249 C+0 A3V105 rV160 r rV255 rV255 r D+0V232 D19V249 A+0V5 E20V246 G1V6 rV2 rV245 rV2 F+0V252 G20V243 rV7 C+20V237]

$$ALL
  [A0V255 F20V251 G0V6 A+18V17 B1V242 G+19V7 A+0V246 G20V238 F+0V254 D19V254 C2V251 G20V243 G20V8 F0V238 F+19V5 G+0V245 F20V7 A0V251 C0V12 G+20V240 rV249 A20V3 G+0V246 C+20V7 A0V249 G19V13 E0V230 D+19V21 A+20V236 D+0V3 G20V249 D1V253 C+19V5 C1V3 A+18V243 G+0V27 rV235 F+20V2 A+20V1 F+0V254 rV7 D0V245 F+20V7 F+0V247 C21V16 rV240 A20V16 A20V247 rV4 G+0V235 A17V17 E2V239 C+20V7 F+0V231 F0V20 rV236 D+0V22 F20V240 C20V25 rV229 D+0V22 A+20V240 E20V10 C+1V249 C+19V253 E0V4 rV246 A20V10 rV231 C21V13 E0V243 D0V255 C21V6 A0V10 F+0V227 C20V10 F+20V239 E0V5 G+20V248 A+20V13 D0V245 C20V8 C+0V246 F+0 A20V251 E0V239 B20V11 A+20V251 A+19V12 G+1V247 G+19V18 D+2V249 A+19V5 A1V252 B19V245 G+0V7 D0V255 B20 G+1V247 B18V255 F+1V237 A18V250 G0V14 A19V240 E0V2 A20V247 C1V251 E19V3 D+1V254 A+20 E0V237 B19V13 F+0V2 A20V5 rV249 G+19V235 C0V12 D+20V238 A+20V9 E0V249 D+20V248 rV250 A19V3 C1V240 F19V12 F+0V235 F20V10 C21V244]
  [A+20V2 F+0V250 D20V23 C20V228 C0V5 G+20V239 C20V10 C+2V239 D+20V16 F+0V232 C+20V19 F0V5 D20V253 A0V10 A+20V236 A0V255 G20V247 r E19V11 E0V1 F0V5 F+20V250 D+0V3 C0V237 D+0V11 B19V251 G1V5 C+20V252 G0V253 G+20V9 B0V228 B20V19 E0V230 C20V22 C1V229 F+18V14 G0V255 C21V250 D+0V248 rV250 F+20 F0V2 A19V241 D1V1 G+19V255 C1V248 A+19V255 F+0V247 D+20V1 C+1V12 C+19V234 A+20V15 A20V243 C2V246 G18V15 A0V245 G+18V4 B1V249 D19V250 C+2V236 D18V10 G+0V4 G20V242 G20V24 F0V235 D20V6 F+0V252 E19V252 G+1V251 E19V255 F0V250 G20V3 F20V255 F+19V1 F+0V13 E20V6 G+0V251 B20V255 G0V251 D+20V247 A0V9 D20V251 D0V249 C0V255 C+0V254 A+0V255 A20V1 C+0V1 C+20V232 C0V12 A19V222 E20V21 rV224 A+20V18 F0V248 A19V252 D0V247 G20V246 A20V21 C0V234 C0V28 B0V232 C+20V11 B0V241 C+20V15 rV240 F20V18 C0V234 G20V10 B20 D+1V1 A+20V254 A+20 C+0V246 rV14 A+1V237 C20V10 A+0V250 G20V249 rV2 C1V246 B0V4 C21V240 A+0V13 C+20V248 A0V4 A+20V250 G0V238]

$$ALL
  [B0V10 G+20V248 rV10 A+20V246 F+19V249 D+0V12 rV245 E0V251 C+20V247 D+1V254 D+20V9 C0V253 D+0V1 D+0V1 A+19V3 C0V6 rV243 G0V12 C0V253 A+20V249 B20V1 A+0V2 A+20V238 G+19V7 F+0V247 F20 E0 D19V246 B0V10 F+19V242 rV8 B20V237 C20V6 E0V248 D+20V5 C+20V7 D1V238 G+20V5 rV254 B20V243 rV1 E0V253 F+19V3 D0V247 C20V14 A+20V9 G0V3 G+20V245 A+0V1 G+19V251 G+0V7 C+20V3 G+0V238 A19 D+0V247 rV4 F20V8 F0V253 C+0V238 C+0V11 E20V255 C+1V6 E20V245 D20V248 A+0V9 C+20 F+0V252 D20V2 E0V250 D+20V1 F1V248 C+20V251 rV255 A0V255 D+19V7 A+1V245 A18V254 E1V247 G+18V12 F+0V254 E20V248 C+0V15 G0V249 G+20V4 C+0V255 rV252 D+20V1 A0V238 rV14 F0V242 C+0V244 D+20V249 G+20V15 A+20V241 C21V9 E0V254 E20V246 r rV250 G+20V9 E1V247 B18V15 A0V241 G+20V1 B20V250 rV254 C+0 G+20V1 F+0V241 F20V15 A+0V243 D+20V255 G+20V251 D0V252 A+19V5 A0V249 F+19V9 G+0V252 F+20V254 G20V7 D+1 rV245 C+0V6 rV254 E0V3 F+20 rV11 G20V246]
  [G+19V5 G0V241 D20V6 A0V9 A0V246 C+20V2 rV254 A20V10 A+0V238 A20V8 A+20V244 C+0V245 r G20V5 A+0V242 A+19V8 F0V255 G19V254 D0V3 C+0V2 C0V237 D+20V8 D1V1 D+0V240 D0V10 rV248 rV14 C0V238 D+19V17 G+1V243 C+20V13 G0V4 A20V253 D0V5 rV3 F20V239 F0V8 F20V255 rV2 F+0V2 F+20V255 rV11 rV244 G0V3 A20V253 F20V246 B19V7 A0V236 A+20V14 G+0V233 G20V12 rV249 F+0V10 rV247 D0V252 C21V1 B20V243 G20V255 C+1V248 D+20V9 E0V236 E20V13 F+0V2 A0V245 A19V7 C21V240 rV9 rV248 G0V10 rV237 A+20V11 rV254 rV247 C21V12 rV229 E20V29 F+0V231 F0V16 G+20V238 D+20V15 A0V243 A19V250 F0V3 rV249 A20V1 C0V6 D+20V242 D+1V252 F+19V1 C0V1 rV11 C1V255 G+19V3 A+0V254 E20 G20V10 B0V249 A20V249 G0V253 G+20V243 C0V16 F+20V237 C0V7 F20V7 D+0 rV1 rV254 E20V1 C+1 C20V251 B20V15 C+0 C+0V3 B20V14 C21V240 G0V10 E20V245 rV7 rV6 G+20V237 A+20V3 A0V251 C+20V5 C+0V246 D+20V12 rV239 F+20V7 G0V250]

$$ALL
  [C21V3 C21V4 D+20V253 F+0V251 F20V232 E0V15 E0V230 G+19V21 E0V254 C0V1 rV242 B19V13 rV228 rV2 F1V244 F+20V19 D1V238 C21V5 C+0V248 rV3 A+20V5 F0V253 rV249 rV251 D+20 A+20V6 F19V255 F1V252 F+20V11 C+0V255 E0V4 D+0V240 G20V255 rV248 A20V3 F0V227 F18V17 G0V255 B19V253 F1V8 rV249 rV4 rV244 G20V1 rV253 G0V253 F+20V254 C+0V244 C0V255 E0V253 C0V253 E20V1 F+0V4 G20V247 G+0V13 E0V245 C+20 B20V6 rV245 C+0V250 D20V237 E20V253 C0V12 A20V232 A19V19 G1V231 G+19V7 F+0V2 A+19V250 A+20V248 D+0V5 F+0V248 C20V10 C0V244 C+0V9 C21 F+20V9 rV254 D+1 G20V3 A+20V240 F+0V14 D1V244 G20V9 A20V239 E20V25 G+1V249 G+20V252 B20V2 F+1V251 C21V253 D+19V247 D+0V3 rV254 D+0V247 D+19V255 F+1V4 D0V246 G20V255 F+20V3 B0V249 D+0V246 G+19V11 F+1V8 G+20V239 G+0V252 G19V254 D+1V254 A19V241 A+0V9 G20V238 E0V247 F20V11 F+0V243 C+0V32 C21V242 E1V10 F+20V252 A1 E19V255 E0V12 A19V237 G+20V254 A20V243 B19V13 D0V250 A18V249 F0V242]
  [C+0V253 B20V6 E0V243 E20V17 C+1V249 B19V248 G1V6 F+20V246 G+20V255 rV253 C+1V3 E19V15 F+0V4 D+20V244 F+0V5 G+19V240 E0 rV247 F0V254 rV5 C20V250 F20V255 G+0V244 A+20V7 G+0V250 C21V13 C21V236 C+0V1 B20V249 rV255 D20V4 D+0V3 rV4 F+0V6 E20V2 A+0V16 G+20V235 G+20V13 rV237 G+19 F+0V252 G20V7 C0 B20V254 F0V247 G20V11 D0V244 rV5 rV249 E0V250 E0V3 rV251 D+20V5 F0V237 G+19V1 E0V6 D+0V244 B20V8 C0V253 F+20V4 B0 C+0V252 G19V9 F+0V14 G+18V241 A+0V16 G+20V242 C21V13 D+0V6 A0V241 D0V250 C21V8 B20V245 A0V252 A19V11 G0V244 F20V247 F+0V241 B20V2 D20V14 F0V245 C20V241 G0V12 G19V251 F+1V245 F19V237 D0 C+0 A+20V240 rV254 C+0V19 F0V242 G+20V9 D+0V240 C0V12 G0V232 F+19V13 F0V1 E0V6 G+20V244 C0V4 C1V1 B20V238 F19V11 A+0V239 A20V21 C21V234 E20V17 D+1V231 A19V15 C1V244 A0V252 F19V252 B0V247 A+17V255 F0V238 D20V8 rV232 F20V22 C0V234 G19V25 C1V252 A+20V11 C+1 E20V250 D+0V18 rV241 G+0V19]

$$ALL
  [D19V13 E1V244 G+19V3 F+0V243 D+19V6 F1V12 C+20V7 A+0V244 C+4V2 C4V120 F+2 rV255 rV255 rV255 F+0V233 G16V35 D+4V203 B16V46 C3V210 A17V47 A+2V213 A+18V37 D+2V214 D19V34 E1V220 F19V33 C+1V224 D20V29 A0V227 G+20V24 D+0V231 A20V21 C+0V235 B20V20 C+0V235 C21V17 rV238 rV15 C21V242 C0V11 C21V244 D0V8 B20V247 D0V7 A+20V249 D+0V5 A+20V250 D+0V4 A20V251 D+0V3 A20V252 D+0V2 A+20V253 D+0V1 A+20V254 D0 A+20V255 D0V255 A+20 D0V255 B20V65 r C0 B0 rV100 F+8 rV97 C8 rV103 D+8 rV100 F+8 rV101 C8 rV103 F+8 rV100 F+8 rV104 E8 rV96 D+8 rV101 C8 rV96 G7 rV91 F+7 rV65 r C0V3 D0 rV3 D0 rV3 D0 rV3 D0 rV3 D0 rV3 D0 rV3 D0 rV3 D0 rV3 D0 rV80 rV5 F6V1 G+10V12 C8 rV103 D+8 rV97 E8 rV100 C8 rV103 F+8 rV97 E8 rV103 D+8 rV103 A8 rV101]
  [A20V228 rV18 G+20V243 A20V21 D+0V236 B19V5 G+20V244 rV83 G6V114 F17 rV8 rV255 rV255 rV255 B2V27 F18V209 F2V27 C18V228 C+2V30 G18V231 G+2V21 G18V236 A2V9 E18V246 E2V5 F+18V252 C+2V3 C19V251 C2V1 D19V253 G+1V255 E19V1 F+1V253 G19V2 E1V250 A+19V3 C+1V250 B19V5 C1V249 C+20V6 B0V248 D+20V6 A0V248 E20V6 F+0V249 G20V5 F0V249 A20V5 E0V249 A20V5 D+0V250 A+20V5 D0V250 C21V4 C+0V250 C21V4 C0V251 rV3 C0V252 rV3 F+0 rV65 r C0V3 D0 rV3 D0 rV3 D0 rV3 D0 rV3 D0 rV3 D0 rV3 D0 rV3 D0 rV3 D0 rV3 D0 rV3 D0 rV3 D0 rV3 C16 B0 rV100 F+8 rV107 G8 rV100 B7 rV92 B7 rV97 D+8 rV100 E8 rV108 G8 rV100 B7 C11V109 C9V129 F6 rV80 r G0V1 rV3 D0 rV3 D0 rV3 D0 rV3 D0 rV3 D0 rV3 D0 rV3 D0 rV3 D0]

$$ALL
  [C8 rV100 D+8 rV97 C8 rV92 G7 rV91 C8V255 rV1 rV18 D+8 rV104 A+8 rV103 D+8 rV100 G7 rV97 C8 rV97 D+8 rV104 B8V137 rV103 D+8 rV97 C9 G+10V108 r rV65 C+0 F6 D1V1 A+0V1 E10V129 rV124 B9V129 rV121 C10V129 rV65 C+0 B1V136 F+10V133 rV125 C10V129 G+10V124 B9V129 E11V4 r C0V4 C0 C11V124 B9V4 C0V24 G+10V127 E5V78 rV15 D+11V11 rV125 D+0V141 C0V3 A+0V1 D+0V255 rV2 D+0V1 A+10V120 B9V133 D+0V24 G+10V121 D+10V133 D+0V3 G6V84 F0 D+0V129 C0V24 G+10V128 E10V133 E11V4 r C0V155 C+13V101 r C0V80 rV1 D+0V141 G+11V120 B9V141 rV65 D+0 B6V7 rV255 rV4 D0V3 D0V97 B7V133 G+10V97 D0V3 D0V3 D0V3 C8V133 G10V97 D0V3 D0V3 G+10V98 r D0V3 D0V3 G+10V96 C+8V129 D0V3 D0V3 D0V3 D0V97 B7V128 D0V3 D0V3 C8V129 rV65 E0 F6 C0V255 rV5 F+0V2 C10V4 C+0V3 D0V2 C+0V3]
  [rV3 D0 rV3 D0 rV3 D0 rV3 D0 B6V194 rV39 D0 rV3 D0 rV3 D0 rV3 D0 rV3 D0 rV3 D0 rV3 D0 rV3 D0 rV3 D0 rV3 G6V84 F+0 G0 B14V80 rV1 E11V4 D0V1 C0V3 D0V1 C0V3 D0V1 C0V24 D+6 B9V15 C10V4 C0V3 D0V1 C0V3 D0V1 C0V3 G6V84 D0 D+0V129 C0V3 B1V136 C10V133 G+10V125 B1V136 r D1V133 D+0V3 D0V1 C0V133 C11V4 D0V1 B6V79 rV120 B9 D0V1 D+11V11 C11V124 D0V1 D+11V11 C11V4 r C0V4 C0V129 G+10V130 D0V1 C0V3 G6V84 E0 C0V3 G6V84 r F6 C0V133 D+0V3 D0V4 D+0V3 G+0 D8V255 rV4 B6V124 rV96 C8V128 D0V3 D0V3 D0V3 G+10V98 B7V133 G10V97 D0V3 C8V129 G+10V96 D0V3 G6V84 C+0 G+10V97 D0V3 D0V3 D0V3 C8V129 G+10V96 C8V128 D0V3 D0V97 C+8V129 D0V3 D0V24 G0 B14V80 r B6V79 rV180 B1V136 F+10V133 rV125 C10V129 G+10V124]
