
$OPN,

!ALL

@T50.00

$Inst1,
$Inst2,
$Inst3,
$Inst4,
$Inst5,
$Inst6,
$Inst7,
$Inst8,
$Inst9,
$Inst10,
$Inst11,
$Inst12,
$Inst13,
$Inst14,
$Inst15,
$Inst16,
$Inst17,
$Inst18,
$Inst19,
$Inst20,
$Inst21,
$Inst22,
$Inst23,

$$ALL
  [r D+5 D+5 D+5 D+5 D+5 D+5 D+5 r r r r r r r r r r r r r r r r r r r r r r r r r r r r r r r rV104 C+8V115 C4V57 D5V63 D8V118 G2V121 G+8V100 F9V111 r rV2 r r r A0 F0 rV158 rV6 G4 F+0 rV227 rV8 D+7 G0 rV43 rV9]

$$ALL
  [G+18 A0 rV205 rV11 B6 B0 rV24 rV30 B14 C+4 rV45 rV51 G+18 D+4 rV232 rV54 A14 F+4 rV221 rV56 G+11 G+4 rV37 rV58 C+14 A4 rV180 rV60 B12 B4 rV95 rV61 F14 C5 rV206 rV63 B9 D5 rV2 D+0V1 D+0V6 C0V1 E0 D0V4 r C+0V2 C0V1 C0V1 r r r G+8V32 C+9V32 F+9V112 G9V111 C8V83 E6V110 C6V112 A9V101 D+8V115 F8V97 F9V110 G9V114 G2V116]

$$ALL
  [F9V115 F+8V32 G+8V104 F9V46 G2V111 D+8V114 A+8V114 D9V118 F+9V111 A3V121 G8V10 G8V32 G9V111 D9V32 G+8V32 C+9V32 G2V110 D9V110 C+8V116 G9V105 E8V116 F9V73 C9V110 F9V72 F+9V72 C9V110 A5V97 A+8V10 G8V115 D9V103 E8V110 F+9V109 G8V110 G9V32 A3V46 rV63 r rV1 C0 C0 C+0V1 r G9V101 E8V116 G+4V48 C+0 D+0 rV78 rV105 D9V32 G2V45 E8V68 G+9V101 E8V117 B8V121 G+3 r r r r r C+0 r rV5]

$$ALL
  [r F+0 r rV10 r B0 r rV15 r C0V208 rV255 D+17V4 r F0V208 rV255 D+17V9 r A+0V208 rV255 D+17V14 r rV224 rV255 G18V3 r E0V224 rV255 G18V8 r A0V224 rV255 G18V13 r D1V224 C0 r F0V6 F0V6 F0V6 rV5 G+19 E0 F6V87 rV6 rV72 r F12V150 D9V117 G9V97 G2V117 F+9V100 r rV1 C0V1 C0 r r rV6 F0V6 F0V6 F0V6 F6V67 rV6 rV72]

$$ALL
  [r F12V150 r rV1 C0V1 C0 r r rV6 F0V6 F0V6 F0V6 E5V41 rV108 A+8V101 C4V99 G9V109 D9V107 A0V112 E6V100 F8V108 A0V65 A6 C0 A+1 D0V5 G0V10 C1V15 F1V20 E5V73 r rV65 A6 C0 C+0 F6V50 rV165 rV65 D+9V109 F6V78 E4 r F0V107 A+8 G+2V8 F+0V255 rV15 D1V15 F+0V255 rV2 B20V248 G+5V73 C+4 G+13V34 E5 D8V78 E5 rV255 C0V1 F0V4 C+0V1 C0V255 E5V1 r]

$$ALL
  [G+5V73 C+4 G+13V34 E5 C8V101 E6V44 rV12 r D1V15 D1V15 rV13 r G+20V244 G19V235 D+19V255 C6V83 r A2V78 rV110 E8 D+4V8 E2V255 rV13 E0V3 C+0V2 C+0V1 C0V1 C0V1 rV4 r A+20 F6V78 A+2 r D+0V104 rV65 G0 rV1 G+0V4 C0V69 F6V50 rV165 rV65 D+8V99 G+8V116 rV65 G0V2 rV1 rV1 G+5V73 C+4 G+13V34 E5 D8 E4V8 F1V255 rV15 C1V11 F+0V5 C+0 C0V1 E5V1 r r]

$$ALL
  [C0 G+5V73 C+4 G+13V34 E5 C8V115 E5 rV255 C0V1 D1V3 r D+20V2 rV1 C+0V1 r rV78 A+6V38 r F6V7 G+9V116 rV65 G0V1 rV1 rV7 rV69 F6V50 rV165 rV65 F+8V105 F9V108 E8V77 r r C0V7 C0V247 F6V78 A+3 r G0V99 F+9V97 E6V25 rV4 r F+1 r C0V2 F6V78 B7 r G+0V99 F+9V97 rV65 G0 rV1 D1V12 A0V9 G0V7 F0V6 E0V4 D0V3 C+0V2 C0V1 C0V255 C0V1]

$$ALL
  [rV3 r C0V255 C6V83 r A2V78 rV97 F9V77 r r C0V13 A+0V9 G0V8 F+0V6 E0V4 D0V3 C+0V2 C0V1 C0V4 r D+0V12 F6V78 A+6 r F0V109 D9 D5V8 D+3V255 rV15 B0V10 G0V8 F+0V6 E0V5 D+0V3 C+0V2 C+0V1 C0V1 rV1 rV7 G+5V73 C+4 G+13V34 E5 C+9V104 E5 C+0 C0V1 C+0V2 rV1 D0V2 rV1 D0V255 C6V83 r A2V78 rV114 G8V77 r r C0V13 B0V11 G+0V8 G0V7 E0V5]

$$ALL
  [D+0V3 C+0V1 C0 F0V255 rV254 C0 F6V78 C+6 r A0V111 F+9V114 F+8V77 r r C0V244 r r C0 C+0V1 C0 C+0 C0V1 rV78 A+6V88 r F6V7 C10V116 rV65 G0 rV1 D1V13 A+0V10 G0V5 C+0V2 D+0V5 D+0V1 rV1 r D0 C0V2 rV1 C+0V69 F6V50 rV165 rV65 F+9V97 A+6V101 rV65 G0 rV1 C0V1 C+0V2 C+0V2 D0V4 E0V6 F+0V9 A+0V12 D1V14 C1V12 A+0V11 A0V9 G+0V8 G0V7 F+0V6]

$$ALL
  [F0V6 F0V6 E0V5 E0V5 D+0V4 D+0V3 D0V3 C+0V2 C+0V2 C+0V1 r C0V5 E0V5 F0V6 F+0V7 G0V9 A+0V11 B0V12 C1V13 B0V11 A0V10 A0V10 G+0V8 G0V8 F+0V6 F0V6 E0V5 E0V4 D+0V4 D0V3 D0V2 C+0V2 C+0V2 C0V1 C0V1 C0V1 rV69 F6V50 rV165 rV65 G9V116 C4V69 F6V50 rV165 rV65 G9V116 D4V83 r G+5V73 C+4 G+13V34 E5 C9V117 E6V109 rV66 r C+1V13 C1V13 B0V11 A0V9 G0V8 F0V5 E0V4 D+0V4]

$$ALL
  [D+0V4 D0V2 C+0V2 C0V1 C0V1 C0V1 C0V1 r C+0V1 C0V1 rV1 C0V255 A+6V80 E1 G9V101 r G2 rV8 rV255 rV255 rV255 rV255 rV255 r rV7 D19 A0V241 C+19V238 F19V221 D20V230 C21V208 A+18V210 B16V221 D20V200 A19V10 rV17 E0V17 G0V1 G0V14 A2V19 C3V21 rV253 F1V7 rV25 G0V8 C+20V10 E1V22 C2V57 F2V248 C0V1 rV7 F+0V35 D+0V238 D+20V247 rV19 G0V23 F+1V252 B20V241 F0V19 G19V222 F+20V232 D19V250 A20V221 F+16V221]

$$ALL
  [D19V203 D19V232 G16V232 D+20V32 C2V7 F+1V16 rV252 G1V42 F+3V26 G0V12 F+20V252 rV7 F0V8 E20V8 F0V19 A+1V34 D3V17 rV1 D+20V232 D0V21 F+1 G20V252 rV4 F0V29 A0V249 C0V252 rV6 D0V240 D+19V225 r G+20V233 F17V216 G18V208 A17V232 D17V208 D19 C+1V22 F+1V15 E1V248 rV34 A+2V41 A+0V17 rV243 A19V2 E20V244 E0V1 C+1V18 A+1V3 C3V35 G20V252 G20V236 G20 D+2V30 F0V243 rV3 G+20V14 E1V15 D20V248 rV8 A+0V3 A+18V227 F+20 F0V4 B17V220]

$$ALL
  [B17V221 D18V212 B16V208 E18V248 rV17 A2V11 A+1V38 A20V12 A2V36 C+2V17 D+1V9 D19 G19V233 B20V17 E0V30 E1V17 C+2V23 A+2V22 G19V234 D19V255 A+0V14 A1V18 D+20V6 r A+1V6 B20V3 rV252 G0V6 A+19V210 C+19V8 F1V1 D20V231 D19V221 E18V230 G16V199 A+16V234 B20V248 B0V25 F+1V17 E1V250 C3V28 A3V31 C+2V8 G+20V241 F+0V234 G17V7 C1V17 C+1V17 C+3V31 B0V39 C1V223 E18V237 E1V22 A20V14 E1V244 B20V250 A+1V21 rV249 F+1V252 A0V4 rV252 F+16V221 E1V9 A20V243]

$$ALL
  [D19V249 E18V219 G17V190 F15V221 E20V9 D19V247 A+1V13 G+1V9 A1V43 D3V29 C3V39 B20V246 G20V7 G17V214 F0V31 A+1V10 G2V36 D+2V20 C+2V13 D+18V224 B20V25 D+0V251 F0V18 F20V248 F0V8 G+0V249 F+1V10 D+0V252 C20V254 F19V216 rV6 G20V253 C+20V240 E19V230 G+18V190 G15V190 F19V3 G20V234 A+0V4 D0V20 G+1V28 A2V39 D4V41 D+2 F+20V252 D20V206 D19V4 E2V17 B0V30 C3V21 E3V30 G20V230 G+18V8 A+1V253 A0V3 B0V254 C+20 G0V252 C2V12 B0V17 G+19V236 C21V241 D20V233 G20V254]

$$ALL
  [F19V225 G+19V231 A+19V218 G16V204 G17V242 A+0V240 F+20V4 r D+1V19 D+2V21 A+3 C+2V23 A+19V244 D+20V226 E18V250 rV25 D1V11 E3V26 C2V41 E1 G17V230 C2V17 A+19V252 G0V6 E20V249 G0 rV31 F+2V21 B20V242 F+20V2 F+20V244 G+19V241 B20V239 D19V234 D19V230 A18V216 B17V216 rV4 D20V231 B20V6 B0V17 A1V27 G+2V53 E5V53 D+1V245 A+19V244 F19V221 F+0V8 G1V20 F+1V24 G2V22 B1V23 B19V230 A19V18 F+1V241 F0V2 C0V252 rV245 C21V2 F+1V33 B0V2 A+18V247 A20V5 F19V221]

$$ALL
  [F20V239 D+19V219 D19V222 C+18V231 D+19V225 D19V249 A20V243 G+19V243 G0V12 E1V15 G1V41 D+4V63 G3V18 D+19V223 A19V247 G+20V249 A+1V22 E1V9 F2V39 B0V8 E1 F18V249 E1V14 C21V252 D+0V2 A+20V236 G+20V6 A+0V26 F2V23 D+20V231 B20V10 G20V233 D19V247 C+19V212 F+18V246 G17V216 C+20V244 C+19V233 G20V250 G19V230 F+20V12 rV15 A+1V33 A3V50 D4V48 C1V241 A18V230 B20 rV27 G+1V12 C21V34 A2V9 D0V18 rV238 rV19 B0 rV252 A20V239 A19V244 F0V30 E1V23 C+1V252 F0V242 G+20V8]

$$ALL
  [C+19V219 D20V230 D+18V221 D19V237 G+18V227 A+20V233 B20V248 D+19V233 B18V236 B0 A+1V33 C+2V31 F4V42 F+2V11 C+0V234 C+19V254 D0V8 G2V30 D+0V12 F0V29 A+0 G+1V254 G+20V8 G0V3 D0V238 F0V248 E18V248 G20V255 C+3V29 A1V8 rV17 E20V243 B20V231 F+18V237 A17V228 G17V231 F+20V240 D+19V250 D20V252 E20V234 D19V210 rV17 G0V23 G+2V20 D+3V48 E2V39 F+20V1 G20V239 B20V11 F+0V33 F2V3 G0V249 A0V9 E0V7 F0V246 F+0V19 rV248 F19 G20V231 E20V6 D0V32 G1V24 C+0V6 A20V241]

$$ALL
  [G19V237 B16V227 D20V222 D19V215 D19V255 D19V231 D0V245 C20V252 A+19V234 E18V234 E1V30 A2V38 E1V30 A2V28 F1V12 D+0 rV243 F0V13 F+2V36 F2V11 G+20V248 C0V2 A+0V6 A+0V10 D1V248 D+19V230 D+0V4 F+20V255 rV254 E1V14 C+2V22 A20V244 rV231 A18V210 G+19V247 F19V230 E18V212 F+20V231 D20 E20V248 B20V232 B18V230 C+20V12 F+2V37 G1 G+2V35 C+2V21 D+0V12 G0V247 G+0V12 F+1V34 D+3V25 A1V232 C20V3 A0V8 rV17 D+2V6 E19V247 C+20V4 rV249 G0V240 D0V25 D+2V19 A+0V246]

$$ALL
  [B20V245 D19V225 E18V231 G20V239 D19V231 G+18V233 A+18V242 D20V245 C0V244 C+18V230 D19V243 G+1V29 A+1V19 D0V32 F+2V8 F0V9 C1V7 F20V8 B0V12 F2V51 F+1V17 C+19V231 r B20V7 A+1V28 A+19V226 B19V254 B20V7 F0V12 G20V252 D+2V24 D0V2 D0V2 E20V231 E18V217 D19V8 D+20V219 A18V216 A+18V239 B19V252 G20V248 D+20V231 D19V234 B20V25 A+2V15 E1V6 F3V35 C+0 D2V22 A+0V2 G1V20 F+1V34 A+3V23 G+20V230 D0V7 C0V254 D0V20 A0V245 E19V246 G+20V247 D0V9 F0V243 D+1V23 C1V248]

$$ALL
  [E20V3 F0V244 E18V231 A+17V232 rV243 G+18V225 E18V237 A20V247 A20V246 B20V255 C+19V232 D+19 D+2V25 D+2V13 E1V30 F1V2 G0V13 D2V4 D0V25 G1V14 F+3V39 E1V236 E20V19 r r A+0V13 D20V242 F+20V240 D0V6 B0V2 G0V6 A+1V6 F19V234 rV8 F19V221 D19V221 D+19V246 F19V232 D+19V219 A19V249 A19V241 rV9 B20V233 D+18V231 G0V18 C+2V34 F1V14 C+1V23 G0V5 F+0V17 G+1V8 C2V21 G2V37 E3V14 G+20V249 G0V8 rV252 rV7 rV241 F+20V241 A+19 E1V10 G0V12 C+1V19]

$$ALL
  [rV242 D19V247 D+0V245 G+19V230 F19V230 F19V225 B19V230 D19V247 G20V238 G19V246 C+1 E19V231 D+19 D1V27 E2V14 B0V19 E1V13 C+0V250 G1V13 E2V28 E2V34 F2V26 C+0V250 G+20V252 B0V3 A20V243 rV252 A20V252 C+20V238 C+1V7 G0V18 F0V25 F1V4 C20V231 A18V249 G20V248 E19V221 D+19V223 C+19V245 A+17V241 B20V232 C20V237 G20V7 A20V249 F19V221 rV16 A1V32 F+1V26 G+1V6 C+1V8 B19V8 C2V32 F2V20 B2V42 G+0V12 rV244 G0V250 rV4 A20V247 A20V252 D0V239 F+20V6 G0V5 A+0V17]

$$ALL
  [A2V17 G20V250 D19V210 E18 F+20V241 D18V234 E19V230 D+19V220 C0V250 C20V239 F0V250 rV241 C+0V252 E18V249 F+1V27 D+1V24 G2V40 C+0V10 A+0 rV8 D+2V34 C+2V43 G3V17 A+0V244 A+20V15 E0 G0V2 A19V238 C20V252 A+19V234 rV14 rV252 G2V44 C1V248 C0V234 C16V215 F+20V249 F+20V232 rV248 D+18V215 D+19V252 F+20V252 D+20V3 G20V243 D19V254 G+20V228 F19V17 E2 C1V37 B3V22 rV6 E20V247 F0V30 D+2V39 F+3V45 A1V8 C20V250 B0V12 D0 F+20V247 E19V230 D20V243 A19 D2V13]

$$ALL
  [G20V28 E3V22 G0V251 G+17V199 D+17V232 F+20V233 rV2 A20V233 D+17V230 B19V247 C21V255 A19V253 F19V232 C0V249 E19V233 G+1V40 G0V247 A+3V37 G+1V2 rV255 D20V248 C+2V25 D3V44 E3V48 F20V239 F+20V255 C+1V28 E20V246 D0V232 A+19V233 G20V248 G1V21 rV248 C2V35 G+1V22 D+19V221 G+16V203 E19V248 F+19 E1 C19V203 A+18V231 E20V8 A+0V247 B20V235 G+20V253 G20V239 rV17 B0V2 B0V39 F2V23 F0V3 G20V238 rV17 A+2V34 F+4V61 D2 G+19V244 C21V8 C+2V250 rV254 D19V241 G20V238 C0V20]

$$ALL
  [D0V6 rV17 C+2V17 D+0V239 E18V201 G17V221 G+20V239 B0V30 C+0V233 D+17V220 F19V245 A+0V11 A+20V252 E20V242 D0V252 E19V11 F+0V17 rV10 D3V33 G+1V22 C1V254 F19V247 F2V27 F2V65 B3V37 D+20V238 A19V247 A0V8 A+0V248 E20V227 G19V237 A+19V254 rV8 rV3 F0V28 A0V243 rV226 D+17V188 A+18V240 E20V252 C+2V6 C+19V204 B17V232 G+20V3 G1V4 E20V239 G20V244 G+20V249 C+0V8 G0V1 G0V25 D+3V28 A2V17 F+20V239 rV21 C+3V35 F+4V55 G0V252 rV250 G0V4 C+1V19 D20V83 C+4V19 G9V116]

$$ALL
  [D4V46 rV32 D14 r rV255 rV255 rV255 rV255 r rV4 r A1V14 A1V241 D19V230 F+20V253 G+3V32 F+1V25 A+0V3 F2V26 G1V251 F19 F+18V249 G+20V243 rV243 C1V2 E20V247 D0V8 C1V10 E18V212 E18V244 A+0V11 F+20V231 C16V227 C1V8 F+20V237 D19V243 D+0V17 A2V8 C+1V22 F+1V41 A1V9 G20V252 G+19V247 G+0V6 D20 C2V31 A20V247 F+1V6 A0V25 A1 G+20V247 rV17 A+0V17 G0V250 C21V13 F+2V22 C+20V230 F+16V214 G+18V216 F+20V242 C20V247 B20V252 F0V6 D0V8]

$$ALL
  [B20V252 B20V32 D+2V35 F+2V29 F0V11 A+19V22 D20V217 A+18V247 rV12 G0V30 B1V6 rV41 C1V6 rV3 D0V246 D0V8 E19V231 C21V8 D20V231 D19V252 A+1V31 D+0V231 C+16V224 D+17V238 E1 D20V230 rV22 C+1V30 D+0V221 E18V255 F+1V13 F+1V28 E1V17 C3V17 B0V15 D20V249 E0V250 G+0V238 G0V43 F+2V11 D+2V28 C20V250 rV239 G17V230 rV243 E20V21 rV241 A+19V234 rV254 D+2V9 D19V210 B18V236 C+18V228 A19V231 C21V231 rV248 F0V13 A+0V230 D20V247 A1V18 G3V37 F+0V8 G+0V8 A2V29]

$$ALL
  [A1V252 A18V232 G+20V239 G+0V17 D+0V17 D+4V55 C+1V2 D20V243 C+20V247 C+0V241 D20V14 A+1V13 rV248 D19V244 G+1V6 F17V208 D18V221 C+19V3 G20V247 C+20V236 A1V8 A1V12 C+19V214 F+20V23 A+2V39 G+2V8 rV253 C21V10 rV11 G0V11 E0V250 G+20V239 rV21 F1V23 A1V35 D+0V8 B0V247 E18V227 D19V253 r C0V244 D19V254 G2V13 B20V243 G17V214 E18V235 G17V232 D19V254 C1V17 D+2 C20V231 D18V221 E19V21 E2V33 D+5V44 A+0V244 rV7 G0V32 F+1V8 D19V238 F2V16 C1V22 rV252 G+1V43]

$$ALL
  [C1V2 D20V230 D19V245 rV6 A20V3 D0 G+18V249 D0V243 rV17 A+19V231 D+17V206 G17V221 C+20V7 B20V11 F2V36 G0V234 A17V212 F20V17 B2V38 F2V11 F0V12 G1V9 A+0 C0V2 G+20V2 rV247 A0V29 D2V19 A2V31 rV7 A+19V231 E18V215 B20V21 G4V30 E20V231 C18V238 G+20V247 A20V235 A19V243 G+20V232 D19V232 D19V236 rV25 C+2V250 E20V231 A+19V234 rV8 rV37 F2V14 F0V248 r E3V37 C1V252 C20V3 E19V8 A1V2 A20V11 C5V52 G0V9 D19V203 G+17V230 D0V15 B3V31 C+1V254]

$$ALL
  [A20V254 B17V231 B19V232 D+20V241 D19V209 rV4 C20V239 rV21 C0V238 rV241 F+18V231 A+1V22 C2V56 A+2V19 rV254 rV245 C+1V12 C2V30 E1V17 B19 F+0 rV23 D4V11 E1V37 E20V217 F+18V230 D+19 E3V26 E20V221 F+20V252 G+18V238 G+19V231 C19V232 C+19V226 A19V246 C21V250 A+1V28 D20V246 B20V241 B18V249 A+20V239 B1V57 F5V17 F0V2 A+19V233 C1V17 E1V23 A+1V17 A+0V10 B0V5 G0V22 D1 rV252 G+19V231 A20V244 A19V6 C3V17 F+20V252 F19V215 F+18V244 F0V243 C20V249 D19V238 G20V238]

$$ALL
  [A+19V225 D0V20 E1V252 rV238 G+19 A20V238 G+1V43 G3V28 F3V31 D+19V233 C+0V22 A+1V8 D+0V252 A19V7 F2V26 D0V23 D+0 C0 F19V226 G20V247 rV34 G3V8 rV8 G20V204 E18V227 E18V220 rV18 A+18V238 rV248 F+19V245 G+1 rV251 D+0V9 B20V255 C20V252 G+2V45 C+2V13 G0V6 A19V7 A+0V11 G1V21 G1V243 rV17 D+1V14 A+0V45 rV252 rV2 A+19V232 F19V231 G+18V3 C3V35 B20V252 C20V221 C+19V238 C+19V221 E20V4 F19V7 B1V4 G18V254 A+2V13 E20V252 G19V231 C20V12 rV245]

$$ALL
  [B2V47 A1V17 E2V8 E19V254 E1V15 F2V35 B20V242 B0V39 C+2 A20V4 F19V243 D0V15 D19V236 E20V241 rV17 G+4V13 F19V243 rV232 A17V234 D+18V224 A19V243 E18V230 E1V248 D19V1 F1V12 F+20V247 B20V231 G+19V6 rV4 D3 F0 F2V25 G20V244 B0V248 G0V11 rV252 F+0V34 F2V8 F0V13 A+20V236 G0V17 E20V235 E19V223 F+20V32 A+4V2 D19V225 E19V237 E18V245 B17V221 B18V254 E20V245 C+1 G+20V8 B2V37 G20V241 C20V231 A19V249 F0 G2V52 B0V6 F+1V24 D20V252 E1 E1V3]

$$ALL
  [A+0V10 A+1V51 A1V17 D20 C+0V248 rV1 A+18V217 G18V235 A+0V34 A+2V8 D19V222 B19V241 D+19V242 D19V242 C+19V231 D20V247 C+0V252 A+19V3 E1V20 C21V250 A+19V230 F19V238 F+0V4 A2V45 A+1V24 C+2V37 D+0 D+0V244 C+0V11 rV12 C+1V43 E1V8 G0V11 C21V237 F0V249 D18V225 C20V254 E1V52 A3V2 C+20V223 D19V239 C19V244 F18V229 B17V227 E20V245 D1V249 G+20V10 F0V15 D0V11 D+19V230 A20V254 rV6 B1V42 C+0V14 E2V22 rV254 G0V252 F+0V7 rV6 D0V47 C2V25 A1V10 F0V243 rV239]

$$ALL
  [F17V219 A18V231 E1V47 A+2V251 F+20V241 D+20V233 D+19V252 G17V212 D19V241 rV249 F+2V11 F+0V8 C0V1 C21V250 C+19V249 rV242 G+20V10 D+4V35 A1V23 G0V254 B20V15 A1V2 G1V12 G0V247 C+1V34 D+2V13 rV17 C+0V248 F+20V231 F18V225 F18V233 B0V23 F+1V25 C+0V254 C+20V252 E20V241 C18V210 B17V218 C+19V252 D2V30 r G1V3 G20V247 G+19V233 A+19V248 G0V31 D+3V47 D3V29 E1V250 rV2 A+19V249 C2V12 C21V254 C2V47 F+2V13 C0 A+19V245 rV245 A19V232 E19V243 D1V12 G0V1 E19V228 E20V10]

$$ALL
  [G+19V234 F17V224 F17V208 A19 G0V14 F0V18 D3V17 rV252 D19V231 D+19V241 C0V7 A2V46 F+3V26 F0V13 A0V235 rV249 rV235 F+0V21 D+2V54 C3V24 r C20V231 G19V208 A+18V221 F+20V8 G0V22 F1V3 rV234 rV237 G+18V245 D19V233 G17V239 F+20V244 E1 F0V234 C+1V9 F+0V7 E19V247 D+19V5 C1V11 C3V17 C2V29 G+3V37 C+0V3 A20V247 B20V233 D1 B0V39 D4V45 C0V12 D+20V230 D19V216 G20V208 F19V1 G0V40 E1V17 F+20V232 B20V234 D19V231 G17V197 D18V247 G+19 E1V12 G+0V248]

$$ALL
  [A1V18 D20V245 F+20V14 rV17 A1V22 A+1V11 D+2V14 G+1V12 C21V6 C+0V3 G0 B0V2 C+1V35 F2V18 A+0V26 rV231 F19V238 D19V217 D20 B20V254 F+0V17 D+0 G0V252 D19V226 F17V209 E18V219 C+0V17 C1V14 G0V254 D1V8 D19V239 G+19V239 C+20V15 F2V8 B0V30 F+2V17 E1V17 rV243 rV17 C+2V11 E0V15 B1V23 G+1V9 A0V249 G20V231 C+20V239 A+19V231 B20V4 E20V246 D+0V254 rV19 C2V252 E18V231 A+18V224 D+17V216 B20V254 rV11 E1V7 C1V9 G+20V2 A19V248 rV8 A0V12 F+3V26]

$$ALL
  [C1V17 A2V22 C+20V251 A19V252 C+1V252 A+0V14 A1V12 D2V30 C1V2 A+18V214 D+19V225 G0V1 rV233 A20V18 D20V247 rV6 D+20V231 G+20V232 A18V217 C+19V244 F+20V16 F+20V236 C0V9 A3V24 C+0V244 D+19V10 E0V23 G20V252 C2V9 A+1V42 E3V22 D20V17 D+1V10 F+0V247 C+0V238 A+3V47 C2V10 rV9 B17V230 C+19V215 A19V248 C0V243 rV8 F+19V244 B0V27 A+19V212 A+19V231 B18 E0V245 D+17V254 A20V247 rV6 F+1V247 D0V3 E0V8 C+1V17 C21V3 A+0V250 rV23 F+3V28 D0V20 A+20V241 F+0V15 B19V239]

$$ALL
  [F+1V22 G0V14 C+2V15 E18V221 A20 B20V2 D19V237 D19V8 D1 B0V8 A19V227 C20V233 B17V231 D20V242 D20V14 C+1V237 G0V28 B0V247 A19V255 G+20V17 D+4V35 rV242 F+20V3 rV28 A+2V3 C20V15 A+1V6 F2V13 F+20V6 A1V25 rV243 C+0V250 F+20V248 G+0V241 A19V248 G19V233 D19V235 D20V243 E1V20 F+20V252 C20V237 A+18V243 A+19V231 A19V249 A+0V9 B1V22 A+19V252 D20 C0V3 C2V30 E1V13 C21V4 rV25 F+2V6 rV9 r D+2V31 G+20V12 G+0V19 G0V254 E0V232 B18V246 G0V11 r]
