
$OPN,

!ALL

@T50.00

$Inst1,
$Inst2,
$Inst3,
$Inst4,
$Inst5,
$Inst6,
$Inst7,
$Inst8,
$Inst9,
$Inst10,
$Inst11,
$Inst12,
$Inst13,
$Inst14,
$Inst15,
$Inst16,
$Inst17,
$Inst18,
$Inst19,
$Inst20,
$Inst21,
$Inst22,
$Inst23,
$Inst24,
$Inst25,
$Inst26,
$Inst27,
$Inst28,

$$ALL
  [r D+5 D+5 D+5 D+5 D+5 D+5 D+5 r r r r r r r r r r r r r r r r r r r r r r r r r r r r r r r rV117 B8V32 G9 C+9V45 F9V97 G2V114 D8V32 D9V101 C+8V32 B8V101 F9V119 rV218 C+0V1 rV1 r rV1 E0 rV41 rV6 D+1 F+0 rV68 rV8 E5 G+0]

$$ALL
  [rV187 rV11 B18 B0 rV114 rV13 F11 D1 rV24 rV16 D7 D+1 rV186 rV16 A+12 D+4 rV196 rV105 C+4 A11 rV223 rV165 C0 D+14 rV52 rV181 C+7 F+15 rV137 rV196 D14 A16 rV222 rV211 r C+18 rV51 rV227 C7 E19 rV136 rV242 C+14 G20 rV221 rV1 rV1 G0 C0V50 rV17 B6V1 A+1 C0V135 rV32 C14V1 C+3 C0V220 rV47 rV1 F4 C0V49 rV63 A+6V1 G+5]

$$ALL
  [C0V134 rV78 B13V1 B6 C0V219 rV93 C21V1 C0V3 E0V7 A0V12 C+1V16 F+1V5 A0V21 A1V24 C+0V3 D+0V6 G+0V10 D+1V18 D0V4 A+0V10 G1 C0V1 C0V1 C0 rV1 C0V1 C0V1 C+0V3 D0V3 D0V4 C0V2 C0V3 D0V4 C0V1 rV1 C+0V2 D0V4 C+0V5 F0V2 D0V7 C+0V8 C0V1 C0V1 r r r G+9V110 E8V112 G9V111 C9V32 C9V84 D8V101 D8V118 G2V102 G8V115 D9V103 A+9V105 G2V97 G+9V101 G+8V10 E8V83 E6V110 C6V105 F9V32]

$$ALL
  [G2V117 D8V101 G9V114 D9V32 G+8V97 r r C0 rV1 rV1 rV2 r F12V84 G9V101 C10V101 r G+5 D+8V111 C6 r D5 r r rV1 r D0 r rV6 r G0 r rV11 r C1 r r r C+0V208 rV255 D+17V5 r F+0V208 rV255 D+17V10 r B0V208 rV255 D+17V15 r C0V224 rV255 G18V4 r F0V224 rV255 G18V9 r A+0V224 rV255 G18V14 r C0V76 C+2 B8V99]

$$ALL
  [E8V61 D8V115 C9V108 A+8V48 C6V83 r A2V78 rV99 A5V36 D+0V32 F+2 rV48 D+5 F1V10 rV1 G+0V249 D+6V7 G2V80 C0V78 A+6V104 r F6V6 G+8V107 A5V36 D+0V32 F+2 rV48 D+5 F1V10 rV1 G+0V249 E6V33 rV7 r D1V15 rV7 r rV252 F+20V76 rV32 E0V1 C6V83 r A2V78 rV105 F6V70 rV4 C7V31 D20 F+2 rV18 D+5 C+0V9 rV77 r r C0V9 D+0V2 C0 r C0V255 rV255 F+0 G6V192]

$$ALL
  [F6V78 A+8 r F+0V115 F9V84 E6 rV85 G0V243 G+6V31 G+14 F+2 rV2 D+5 E5 rV255 C0V1 D1V15 D1V15 D+0V1 G+10V1 A1V255 F+0 G6V192 F6V78 A+8 r F+0V115 F9V78 E6 rV85 G0V243 G+6V31 G+14 F+2 rV2 D+5 E5 rV255 C0V1 F0V4 D0V2 C0V255 E5V1 rV255 F+0 G6V192 F6V78 C+7 r D+0V104 rV77 D+20 F3V8 rV81 D+0V177 C0V31 D+20 F+2 rV65 G0 rV1 G+0V4 C0V76 rV32]

$$ALL
  [E0V1 C6V83 r A2V78 rV101 C10V110 D9V70 rV4 C7V31 D20 F+2 rV18 D+5 C+0V9 rV77 r r C0 rV68 rV5 B15V69 F6V50 rV136 rV65 D9V99 A5V36 D+0V32 F+2 rV48 D+5 F1V10 rV1 G+0V249 E6V53 rV18 r C+1V13 A0V7 D+0V2 rV1 rV65 B0 C+0V255 C0V1 rV76 rV32 E0V1 C6V83 r A2V78 rV114 F+9V70 rV4 C7V31 D20 F+2 rV18 D+5 C+0V9 rV77 r r C0V14 D0V255]

$$ALL
  [r C+0V4 C0V1 C0V1 rV1 G5 E0V5 G+5V73 C+4 D+11V34 E5 G+8V97 A5V36 D+0V32 F+2 rV48 D+5 F1V10 rV1 G+0V249 E6V17 rV6 r B0 rV68 rV5 B15V69 F6V50 rV136 rV65 F+8V105 F9V108 E8V70 rV4 C7V31 D20 F+2 rV18 D+5 C+0V9 rV77 r r C0V7 C0V247 F+2V1 C0V255 A9V122 rV255 D11V138 rV255 B11V146 rV255 A12V156 rV255 G13V166 rV255 G+14V180 rV255 rV68 rV5 B15V69 F6V50 rV136]

$$ALL
  [rV65 D8V121 C8 B2V244 G2V42 D+5 B3V4 rV1 A0V244 C0V31 G+20 C2V8 D+0V255 rV12 rV2 r C+0V76 rV32 E0V1 C6V83 r A2V78 rV114 G9V108 A5V36 D+0V32 F+2 rV48 D+5 F1V10 rV1 G+0V249 E6V73 rV40 r C1V12 G+0V8 G0V7 F0V5 D+0V4 D0V2 C+0V2 C0V1 D0V255 r C+0V255 C0V1 C0V76 rV32 E0V1 C6V83 r A2V78 rV97 F9V70 rV4 C7V31 D20 F+2 rV18 D+5 C+0V9 rV77 r]

$$ALL
  [r C0V13 A+0V9 G0V8 F+0V6 E0V4 D0V3 C+0V2 C0V1 C0V4 r D+0V12 G5 E0V5 G+5V73 C+4 D+11V34 E5 C+9V114 E6 rV85 G0V243 G+6V31 G+14 F+2 rV2 D+5 E5 rV255 C0V1 B0V11 G+0V8 F+0V7 F0V5 D+0V3 D0V2 C+0V1 C0V1 r C0V3 rV68 rV5 B15V69 F6V50 rV136 rV65 F+9V110 rV77 D+20 F3V8 rV81 D+0V177 C0V31 D+20 F+2 rV65 G0V2 rV1 C+0V2 C+0 C+0V3 C+0 C0V3 D+6V7]

$$ALL
  [G2V80 C0V78 A+6V134 r F6V6 F9V115 A5V36 D+0V32 F+2 rV48 D+5 F1V10 rV1 G+0V249 E6V63 rV38 r C1V12 A+0V10 G0V8 F+0V6 E0V4 D0V2 C0V1 rV1 rV65 rV3 rV76 rV32 E0V1 C6V83 r A2V78 rV99 G9V105 rV77 D+20 F3V8 rV81 D+0V177 C0V31 D+20 F+2 rV65 G0V1 rV65 rV244 B0V2 rV1 C+0V2 C+0 C+0V3 C+0 C0V3 D+6V7 G2V80 C0V78 A+6V139 r F6V7 C10V116 rV77 D+20 F3V8]

$$ALL
  [rV81 D+0V177 C0V31 D+20 F+2 rV65 G0 rV1 D1V13 A+0V10 G0V5 C+0V2 D+0V5 D+0V1 rV1 r D0 C0V2 rV1 C+0V76 rV32 E0V1 C6V83 C0 A2V78 rV110 E8V119 D+9V70 rV4 C7V31 D20 F+2 rV18 D+5 C+0V9 rV77 C0 r C0V1 C+0V2 C+0V2 D0V4 D+0V5 F+0V8 A0V11 D1V14 C1V12 A+0V11 A0V9 G+0V8 G0V7 F+0V7 F0V6 F0V6 E0V5 E0V5 D+0V4 D+0V4 D0V3 C+0V2 C+0V2 C+0V2 E10V255 rV5]

$$ALL
  [E0V5 E0V6 F+0V7 G0V9 A0V11 B0V13 B0V13 B0V12 A+0V10 A0V10 G+0V8 G0V8 F+0V7 F0V6 E0V5 E0V5 D+0V4 D0V3 D0V3 C+0V2 C+0V2 C+0V1 C0V1 C0V1 C0V255 F+0 G6V192 F6V78 C+1 r D+0V111 rV78 A+6V22 r F6V4 A+9 D+0V1 F+2V78 A+6V24 r F6V6 G8V101 A+6V4 rV31 C6V83 r D+0V78 rV111 rV77 D0 F6V78 C2 r F+0V116 B8V49 E6 rV69 F6V50 rV136 rV65 G9V116 C+4V83 r G+5V73]

$$ALL
  [C+4 D+11V4 E5 G9V101 A+6V4 rV31 C6V83 r D+0V78 rV105 E8 D+0V7 F+2V78 G6V184 rV110 G11 A3 rV8 rV255 rV255 rV255 rV255 rV255 rV255 C+0V7 G+0V11 B0V10 D0V2 F0V3 rV253 B20V252 A+20V250 rV8 D1V14 C1V14 C1V9 rV253 C21V251 D+20V243 D+20V243 C+20V245 rV9 A+0V13 C1V15 A+0V5 rV255 B20V248 D+20V242 D20V242 A+20V7 D1V15 D1V18 G1V14 D0V255 A+20V246 B19V233 D+19V237 G+20V7 C1V11 A1V24 G1V13 C+0 C20V233 A18V221]

$$ALL
  [A+18V239 A0V17 D1V23 F2V28 F+1V11 D+0V249 G+18V221 A+18V239 C+0V8 B0V16 A+1V19 D1V11 C+0V244 A18V231 rV11 A0V4 C0V2 B0V13 rV247 G18V223 D20V7 G+1V13 C21V255 G+0V14 E0V250 F+18V211 G+19V11 A+1V16 rV249 D1V23 C+1 A18V217 A+20V26 A2V12 B18V223 D0V27 G+1V2 E17V209 D1V49 D+3V246 A17V237 B0V25 A20V220 G+16V231 A+4V59 C+0V224 F+19V14 G+2V16 C+18V181 F19V31 F4V32 A+18V233 F+2V49 G0V218 D15V238 D5V53 D+19V199 F+20V43 G3V8 D+16V185 A+1V63 B1V240 E17V255 G+5V32]

$$ALL
  [E17V184 E17V27 G+4V240 B14V223 F+7V109 D+1V209 E17V7 A+4V36 D+13V136 rV87 D+5V248 A+14V215 D7V93 G18V144 D15V15 G7V40 D+17V183 A+1V74 G2V208 G10V191 E8V100 D+20V180 rV95 G6V240 G10V159 D3V89 B1V209 D17V63 G+9V20 G13V171 rV63 G+0V209 F+17V51 D+9V16 G+13V209 D2V26 B17V191 F+18V71 B6V228 E14V255 C5V24 A17V209 F+20V35 B2V248 E17V215 A+3V56 E20V235 F+19V243 D3V60 D+19V155 F+20V79 D+4 C+16V209 A4V76 F18V128 E19V55 B5V8 D+13V185 A6V112 D+19V128 D15V59 D+10V32 D+13V167 D5V117]

$$ALL
  [D+19V144 D13V31 F10V40 F13V159 D5V127 D+0V208 A+13V255 F+8V68 G17V184 D1V39 D+1 A+14V209 D5V80 G2V232 G+19V231 F+0V40 A17V181 F+19V44 B6V32 E17V183 A+20V48 G+19V199 D19V33 G6V44 C+0V212 B17V255 D19V221 A+20V21 D+3V31 D2 B19V247 D17V229 D1V31 C+0V241 F1V16 D+0V231 A+15V231 A+1V48 F+1V230 B0V16 B19V209 D+17V231 A+2V55 A+0V239 F+2V48 G19V189 B17V233 G+0V47 A+3V28 D2V20 C+18V193 G19 rV19 F+2V34 D3V40 F+16V175 D+20 A+19V251 D+3V56 F+4V50 G+17V159 E17V20 A+0V239 D+1V46]

$$ALL
  [D5V75 E17V140 D17V29 rV224 B0V49 C7V86 G18V141 F+15V29 rV224 rV48 A+6V58 G18V163 E17V255 C19V235 D1V47 A+4V52 A20V212 F+17V215 D19V239 rV53 G+5V26 G17V211 rV248 F17V209 A+3V68 D+5V16 G17V191 A+19V20 A+16V209 A+3V55 B4V27 G+17V216 F+1V247 B13V207 F+2 C5V27 G18V208 F20 G17V171 A+20V91 E6V34 G17V147 F+20V86 B19V128 D17V95 F+10V80 B15V128 A+17V87 D+3V176 A+11V31 F+10V112 G17V128 D13V63 B8V209 G10V215 F+10V127 D+1V148 D11V209 A+5 D15V143 A+3V127 D+5V224 D11V205 A+5V16]

$$ALL
  [G18V239 E17V31 F+10V48 B12V167 F+19V42 F+4V8 rV207 A+3V127 B19V143 D19V231 F+19V79 D4V224 F+18V47 B3V244 F+16V212 F+16V247 F+10 D+11V191 D7V68 B18V192 F+14V207 F+8V127 B19V148 E17V63 B5V232 A+10V191 D5V113 B5V212 G+10V211 F+8 G13V143 F+0V76 F+5V27 E17V180 A+17V55 G0V209 F+17V23 F1V43 F+4 B13V175 F+2 E19V231 B2V24 F+2V28 G18V180 E17V23 D+4V255 D19V28 D+3V243 G+20V4 G+16V183 F2V72 C21V234 D+5V55 G+17V209 C+20V237 F20V4 B0V233 D1V79 G3V208 A+10V209 A7V56 B15V189 F+3V55]

$$ALL
  [D+5V40 G13V128 rV95 D+3V216 F+14V255 F+10V88 G18V177 F+13V209 A+7V91 F17V180 rV85 G3V240 A+17V209 B17V251 D3V52 C20V214 A+0V27 G1 D+20V246 E18V209 A+3V103 B19V208 A+20V19 C+3V29 rV250 B16V199 A+5V103 G18V176 A+17V255 G6V82 A18V164 A+15V255 F+7V50 B15V172 rV59 B7V12 G12V191 F+2V32 G19V222 rV23 rV16 G2V235 C+19V255 rV248 F+16V255 F+9V48 D+17V209 rV20 G2V249 B17V212 F+20V47 A4V16 F+18V218 G19V11 D2 D+19V247 D1V12 B19V251 C3V24 B15V167 A+3V107 rV208 rV53 F1V218]

$$ALL
  [A+17V255 A0 A+19V254 G2V26 F+0V20 G20V210 F+18V13 A+3V24 D16V189 A+3V109 D+1V164 F+15V31 G8V36 C+13V159 F+2V92 D+3V208 G14V247 D3V34 G2V252 G17V231 A0V7 E20V248 F+0V243 D+20V21 A+1V5 G0V5 D20V240 B19V233 A+0V39 G0V217 A+17V23 B3V240 D19V23 A0V232 A+18V239 E2V26 A18V213 F+20V27 B3V15 B17V223 A+1V52 D+20V182 A+17V51 G4V247 G+16V254 B4V16 F+15V229 A+5V46 G+17V209 A0V17 F1V15 G17V191 D1V56 D+0V231 E2V48 G19V210 D20V225 E19V23 A+0V242 E0V23 rV244 D1V15 G17V192 rV51]

$$ALL
  [G2 G+20V235 E20V15 F+1V240 A18V253 A+3V36 B18V239 F+2V4 D+17V227 G2V19 G+18V226 C2V35 F0V237 G+18V251 D2V10 G18V209 A+1V53 F19V192 rV55 G3V248 C17V239 C+3V34 C0V229 G+17V239 A+2V36 G0V254 D+0V252 D19V239 C+1V15 A20V248 D0V5 C+20V229 A+20V43 D+2V209 A+15V15 A+3V36 G0V226 E17V239 D1V12 G+20V246 D0V255 G0V16 C1V250 G19V243 A+0V24 B0V248 F19V239 D+2V50 D+20V192 C20V47 G+2 G+19V247 F+20V253 E0V2 D20V243 F+1V21 rV240 F20V255 E0V3 D+20V240 F+0V16 F1 E20V15 A+1V237]

$$ALL
  [A18V11 F+2V28 G20V221 A+19V11 A1V9 C20V249 A1V19 D+20V234 D0V19 G0V237 F+17V231 F2V40 F0V230 D+18V245 D1V9 F0V2 A19V243 rV252 rV248 C19V241 G+0V11 G0V5 F0 C20V252 A0 G19V250 C1V7 F+0V10 A+19V231 rV14 G0V2 F+0V8 C20V243 G0V4 G19V239 rV7 E1V24 G0V239 D20V15 F+0V231 D+20V11 E1V10 F0V9 rV246 F+0V10 G+20V250 F+0V14 B0V255 E20V252 B20V247 rV7 F+0V4 D0V6 G+20V243 C21V3 G+19V237 A1V30 B19V228 A+0V21 B20V246 rV250 D+20V7 A+1V8 B19V239]

$$ALL
  [rV13 C0V249 F+0V15 D0V244 C+20V251 D1V10 E20V237 A+20V19 G+1 F19V247 C1V252 C19V243 A+1V22 A20V234 D20V255 G0V4 D20V239 D1V25 C+0V244 G+20V6 F0V255 C+20V239 E0V33 B1V242 G19V7 C1 B19V245 D0V13 D+1 F+19V243 F0V4 A+20V252 B20V247 C21V13 A+0V250 C+20V239 F20V254 D+0V10 G0V250 F+20V2 C0 C+0V251 E20V3 D+2V18 B19V242 C+1V16 B20V249 A+20V250 D0V10 D+0V248 D+20V251 C0V249 A20V2 rV253 C0V1 rV254 G+20V246 B20V11 D+1 E20V253 F+0V12 rV244 F+20V6 F+1V11]

$$ALL
  [D+20V241 rV7 F+0V251 E20V255 A0V7 G0 G+20V251 C21V251 rV2 r rV4 F+0 B19V238 D0V20 D+1V1 B19V243 D1V25 D+0V240 C+20V254 E1V24 A0V253 A+20V3 G+0V4 A+20V251 C+0V7 F0V254 F+20V1 E0V252 C20V245 rV4 rV246 F+20V255 rV251 D+20V247 C0V6 B20V241 D+20V3 A0V2 D+20V243 E0V15 F0V253 B20V1 F0V3 B20V249 C21V7 F+1V2 G19V243 F+0V5 B20V247 rV11 D+0V246 D20V253 C1V6 A19V231 rV21 C1V250 F+20V255 D0V2 A+20V243 A+20V14 F1 A19V254 F+1V10 G20V241]

$$ALL
  [B20V7 E1V7 F20V244 rV11 F0V246 E20V1 A+0 G+20V247 G20 D0V252 F+20V250 rV1 C0V253 F+20V248 A+20V2 E0V1 F0V6 A+20V248 rV5 rV248 A+20V5 C+1V10 rV251 G+20V254 r C+0V3 F+0V7 D+0V3 C21V247 G+20V253 rV254 D0V10 E0V1 G20V247 B20V255 B20V250 D0V11 D+0V251 rV8 D0V246 E20V255 C1V15 D+0 rV2 rV253 rV3 B20V255 A+0V7 A+20V253 D+0 C20V245 G0V8 G+20V248 rV6 rV250 F+20V249 D+0V7 rV247 A+20V3 F0 B20V251 B20V255 E0V5 A+20V242]

$$ALL
  [A20V5 D0V250 B20V254 rV4 rV249 D20V247 rV2 C21V251 C21V251 rV2 rV251 F+20V254 F+0V8 rV254 rV3 C0V252 B20V3 F+0V4 D+0V7 G0V3 E0V6 B20V251 F+0V15 A+0V1 C0V3 C0V4 E0V1 C21V250 C+0V10 E0V253 A+20V253 A+20V252 G+0V11 C21V246 rV6 E0V254 A+20V253 D+0V1 D0V7 D+0V255 C0V5 rV248 A20V4 D1V4 F+20V248 F0V7 rV254 B20V251 C21V3 C+0V255 A20V250 rV254 G+20V250 rV1 C21V248 rV5 D0V2 A20V250 D0V8 F0V254 F+20V255 E1V14 A+20V247 rV6]

$$ALL
  [A+0V4 G+20V247 D0V10 E0V253 A20V253 rV3 rV248 G20V253 r G20V248 C21V254 r A+20V247 rV6 rV254 rV1 rV255 C+0V5 D+0V1 rV255 C0V1 D0 C21V252 D0V4 C0V251 A+20V83 C+4V17 G9V111 E1 rV155 r rV255 rV255 rV255 rV255 rV255 rV7 E0V255 C21V253 rV255 A20V253 B20V248 C0V252 rV249 E20V254 rV255 B20V253 r B20V250 D+20V252 G20 D+0V4 rV7 C+0V253 F0V15 C+0V255 C+0V7 G0V12 G0V6 D+0V7 B0V255 B20V249 D0V8 rV239]

$$ALL
  [A+0V240 rV240 G18V255 rV15 C0 rV248 D+0V7 rV249 A+20V255 G20V6 rV9 D0 B0 D+0V4 D0V251 D1V8 rV4 D+0V247 C0V7 F0V240 D+20V12 D+0 rV247 A+20V12 C+1V247 F+20V240 A+0V16 rV6 rV15 C+1V9 r D+0V3 G0V4 rV1 B0V12 F0V255 rV11 rV7 B0V255 rV245 D+20V253 rV12 rV255 C21V247 C+0V10 rV7 rV251 rV253 A20V6 C+1V255 rV249 rV255 rV6 D+0 D+0 rV245 F+20V240 D20V250 rV11 G+0V9 rV3 A0V7 rV234 D+20V239]

$$ALL
  [C+20V245 A+19V240 C+2V22 A3V23 F+1V16 rV242 D18V232 C18V224 D1V223 F+2V48 B2V59 E0V15 rV220 F+18V214 E17V255 F+20V11 F2V23 D5V12 D1V22 A+16V219 G+17V238 E20V243 A+3V4 G2V40 B0V7 G18V208 G19V255 D18 D+2V30 D3V15 C1V7 B19V189 E19V40 A+17V23 G+1V4 G2V240 F+1V22 F+18V209 rV16 G1V32 B1V236 rV231 rV239 B15V196 G+4 D3V45 D+2V251 A+18V250 D+19V251 F+15V209 G0V22 D+6 F+0V72 F+20V31 C+15V210 A+17V49 G+0V43 G18V251 B7V192 A+5V224 D13V191 D+1V207 A+5V20 rV119]

$$ALL
  [G13V31 F+19V179 E17V96 A+15V61 rV234 F+10V232 F+7 B13V183 rV160 D5 F+2V116 G+19V63 A+19V207 D1 A+17 B19V7 G2V243 F6V210 F+0V47 G13V215 G17V183 D+6V235 F+2V120 D11V31 G+17V175 rV208 E17 rV55 B3V209 D+10V32 G19V210 D12V247 A0V255 A+3V52 D5V63 rV248 F+12V191 B15V250 D+1V239 C+8V24 G2V32 E17V167 A+15V213 A+19V20 F+6V80 A+7V52 rV209 B15V175 rV218 F+2V111 D19V63 D+19V151 C+2V202 rV48 D15V111 rV217 D+5V192 B1V240 G+17V36 D+19V48 B4V16 r F+20V191 D+1V244]

$$ALL
  [F+1V80 F+17V39 F+20V166 F+2V168 D2V79 D+17V63 D+19V191 G+1V209 A+17V40 A+15V47 B0V255 D+3 D20V8 E17V223 B1V209 B3V247 G2V48 G15V228 F+17V8 E2V72 B1V225 B3V16 A+19V209 A+15V21 F+2V63 B5V203 A+3V215 F+13V211 G10V23 F+0V71 F+10 B5V215 B14V209 G10V255 A+17V39 F+10V32 A6V224 E17V186 B11V215 D17V31 D9V84 F6 rV171 B15V191 D+17V31 D7V112 rV40 G17V151 G17V135 rV21 D5V127 D15 G19V208 F0V144 B6V247 F+6V127 G+11V91 D11V207 F+19V152 A+9V232 A+6V127 B15V191 E17V148 F+18]

$$ALL
  [F+2V80 D6V111 G2V129 B18V159 D11V4 A+19V100 A+7V96 G8V175 rV144 A+10V234 F+16V63 G3V127 F+10V212 E17V224 G10V209 G17V247 F+10V87 D10 G10V255 G10V155 A+3V212 D9V112 D+5V79 B11V151 D+17V128 D1V24 D5V127 G7V17 G18V153 D15V191 A+15V76 F+2V95 A8V12 B2V184 A+11V207 C11V31 B3V36 F+10V16 C19V232 G10V159 A17V199 A+3V70 F+8V127 G18V176 B17V137 F+14V15 D1V63 E6V86 D+3V209 D17V192 D12V207 B1V37 G+9V84 D3V16 D11V191 G14V167 D3V72 A+7V127 A+20V255 G12V128 rV150 D3V47 F+4V111 rV236]

$$ALL
  [E17V160 A+15V240 E20V39 G5V122 A+3V15 D14V159 B15V178 F+2V48 F+6V95 G8 F17V148 D13V213 D17V59 B5V75 B7V18 B19V160 F+11V167 F+15V255 D5V107 C9V84 C+20V224 G10V159 C+15V207 G5V83 A+8V119 B1V214 A14V128 D15V191 B0V63 A8V107 A+7V20 D+13V160 G10V143 rV240 D9V127 D4V107 E17V187 A+12V128 E17V239 A3V63 B5V76 B1V248 E18V176 D14V219 E18V50 B3V40 G+7V4 A+0V8 G14V227 C+19V209 C+2 F+1V57 B20V31 rV213 D2V240 D17V43 G+14V240 F+0V229 B6V24 A+3V66 A17V207 E17V155 F+17V224 A+1V41]

$$ALL
  [F+4V117 B3V8 B19V138 D13V179 D17V31 E1V83 F9V88 D3V220 F12V157 F13V201 D+1V28 F+10V104 G7V32 F17V159 G14V192 F+16V239 F+4V70 C7V86 rV224 E17V175 D16V230 F+20V49 C5V51 B1V8 B17V215 A+15V223 C21V22 A+3V70 G3 F+1V214 E17V209 C+20V13 G+3V21 G4V252 D+1V252 B15V209 B15V232 C21V36 D2V33 F+0V8 A0V227 E19V227 F+18V16 D+20V246 rV7 C2V255 D+1 F2V28 B20V240 B19V212 F+18V231 rV20 G+3V43 E4V40 B20V248 E17V185 D18V202 F+19V15 F+3V67 B1V38 A0V228 A+20V220 G+17V230 G+17V235]

$$ALL
  [D+1V252 D4V31 A0V40 D+20V27 C+0V245 G+20V218 E17V2 G+17V15 B1V23 A+4V32 D+2V14 C+18V249 E17V223 A20V229 D3V18 C1V8 C+0V251 B19V231 D2V12 F+2V48 G0V239 D+17V187 D+15V204 F+0V39 F+4V104 F5 B0V212 F+15V160 D14V207 F+19V45 E6V75 F6V8 D+0V212 A+15V209 D16V247 C+3V36 D5V28 F+19V227 F15V207 G18V239 A+3V49 G3V60 rV7 F17V209 E17V218 A+17 F+2V32 F3V20 D+2V9 G+0V237 rV247 rV2 G+19V239 C+19V235 F0V4 D2V19 D0V15 C+20V246 A19V239 B20V8 F+0V39 F0V10 G20V213 A17V226]

$$ALL
  [F+18V251 E2V43 F+4V27 G1 A19V233 G+17V237 G+20V255 F+2V22 rV243 G+18V228 A20V11 A+1V34 F+3V26 A+1 B17V209 B17V209 D20V252 D1V18 F2V17 C+1V251 A0V240 C21V4 D+20V255 G20V236 F20V248 A+20V10 C+0V23 E2V23 F+1V5 G+20V241 C19V239 G+19V247 rV15 C2V24 D1V6 F+20V236 A+19V230 C+20V246 rV12 F+20V255 F+20V253 F+0V252 D0V1 E0V9 F0V5 F0 r A+19V249 C21 C1V17 A1V15 E0V248 D+20V214 G+20V239 D0V17 F+0V27 F+0V6 A+20V240 C19V247 C21V253 G1V6 D+0V2 C20V236 G17V234]

$$ALL
  [rV3 C+3V35 B3V32 A+0V253 A+18V227 A+18V233 C+0V14 A+1V33 F+0V7 A20V243 rV238 F+0V11 F+0V19 A0V254 E20V245 F+19V1 C+20V3 G0V250 C1 F+20V251 E20V255 F+0V11 C2V8 E0V9 B18V239 D19V238 F+0V13 F3V38 A+1V17 rV231 D+19V224 E19V241 C21V10 A0V9 C0V248 G+20V255 F+20V2 E0V17 G+0V254 C+20V232 D+19V239 A+19V7 G0V9 F1V2 E0V241 C+20V241 G+19V255 B0V19 D2V16 C+0V244 D20V232 C+20V251 G0V19 B0V16 A+20V242 F19V234 D20V247 D+1V21 A1V28 E0 A19V239 G+19V235 C0V255 D+1V15]

$$ALL
  [C+1V11 E20V248 C+20V249 E0V9 A1V14 C+1V1 C20V246 D19V239 A+20V9 F1V21 C+2V8 C21V244 B19V236 D+20V251 D+0V3 D+0V10 G+20V244 G20V243 A20V6 F0V14 D1V10 G+0V248 F+20V245 D20V255 G0 D+1V5 F0V6 F20V255 rV253 F+1V8 C1V11 A+20V251 B19V231 D+20V247 D0V11 G+0V14 E0V255 B20V240 F+20V247 B20V4 E0V11 D0V2 D+20V244 E20V252 C0V11 A+0V10 F1V4 rV247 F+19V237 G20V250 G+0V11 A+0V13 rV251 B19V234 E20V247 A+20V7 F0V4 G0V246 F+20V249 A+19V255 D+20V253 E0V6 A+0V7 rV253]

$$ALL
  [A+20V247 rV251 F+0V16 D1V20 A0V3 D+0V251 A20V252 F+20V1 A0V10 E1V10 D+0V6 G20V245 C+20V239 B20V255 G0V9 D+0V9 G+20V245 G+19V240 A19V250 rV5 D1V10 D1V4 rV244 A19V242 B19V247 C0V7 A+0V16 G+0V8 G20V249 B19V241 E20V252 E0V4 F+0V3 D+0V253 A20V249 D20V247 A+20V2 D0V3 G0V2 D0V255 rV253 D20V253 F20V254 D0V2 A0V10 C1V10 C+0V254 G20V244 G+20V252 rV6 C1V13 C1V3 A+20V239 A+19V244 D20V253 G+0V14 F1V10 rV247 G+19V238 G+19V245 E0V13 F+1V15 E0V2 C+20V239]

$$ALL
  [A+19V235 rV5 E1V20 B0V11 G+20V245 B19V237 F20V255 A+0V14 F1V6 D+0V253 B19V242 A+19V245 C0V8 F0V10 B20V249 D+20V238 F+20V247 rV5 G0V6 D+0V255 C21V248 F+20V255 rV7 A0V4 F+0V1 rV255 G+20V255 D0V9 C1V10 F0 A+20V249 F+20V251 D0V5 A0V10 C0V255 G20V247 F+20V248 D0V4 A+0V6 C+0 G20V250 F20V254 E0V7 B0V9 D+0V255 G+20V250 D20V246 rV5 G0V8 D+0V252 A+20V243 E20V246 A+20V4 E0V7 D+0V252 A20V245 A19V242 F20V253 F+0V8 A0V7 A+20V249 D+20V245 A20V250 E0V8]

$$ALL
  [G0V8 D+0 rV253 rV5 E0V13 F0V7 C+0V248 C21V246 F+20V255 rV9 G0V5 D+0V252 B20V248 D+20V250 rV3 D+0V5 D0 A20V250 G+20V247 rV2 D+0V11 E0V3 D0V255 A+20V249 A+20V255 D0V255 F0 C+0V255 A+20V247 F20V251 C21V255 D0V3 rV1 C21V255 G+20V249 A20V251 rV255 C21V254 C21V252 rV251 rV1 C+0V6 C+0 C+0V83 C+4V19 G9V114 rV18 D4 F+3 C0V255 rV255 rV255 rV255 rV255 r F20V250 G+20V247 C21V255 F+0V10 G0V13 A+0V13 F0 A20V250 B20V251]

$$ALL
  [F+20V254 E20V244 A+0V23 E2V27 B0V16 B0 C+20V238 A+19V235 C+19V230 C+20V13 D1V27 D3V21 G+0V4 F+20V242 C19V222 A+18V216 F+20V7 A+0V31 F+3V40 C+2V16 F+0 G19V224 B17V217 F+20V253 G+0V34 D3V31 B1V11 C+0V250 G+18V220 C19V242 F+18V239 F+2V56 A+1V18 E0V11 C21V228 E17V211 rV224 rV31 A+3V33 G2V10 C1V16 F+17V209 A18V236 G20V15 A+1V31 A+3V40 F+0V7 rV220 D17V255 G18V212 F1V14 E0V36 rV13 G0V229 F16V255 B19V215 D0V17 A+19V27 D+1V219 D1V5 D15V15 rV223 A+0V37 G17V255]

$$ALL
  [B1V240 G19V224 F+16V63 C19V255 F+2V56 A+19V29 rV229 C19V212 A+17 A+1V244 F+4V32 F19V8 D+1V212 B19V204 D5V232 F+2V7 D+1V237 B1V237 F19V209 E17V31 G1V48 C3V15 F0V14 F+18V255 D+13V151 D4V231 G0V49 D+1 G4V255 C21V247 A10V209 D+19 F+20V39 F+0V31 G1V32 A17V240 D3V240 A+16V23 rV255 D+5V56 G+18V247 D19V240 E17V243 B17V15 B6V2 D5 B15V15 C+18V209 D1V228 rV50 A+0V47 G18V237 D+7V224 F+14V232 E17V3 G0V31 G2V3 F2 rV192 F+14V209 E2V255 B3V251 A+3V95 rV243]

$$ALL
  [D+17V191 rV210 D1V43 F+19V95 D+1V16 G17V199 E17V246 D+19V15 B18V52 F+20V111 F+18V239 F+17V32 D1V214 A+17V255 D+1V240 B7V232 E0 rV237 E17V181 F+10V224 D+5V40 G16V255 B15V15 D+19V240 F+6V11 B17V255 C14V209 G1V40 E2V247 rV40 F+20V255 B15V4 G0V235 F+0V224 A+15V83 G1V28 rV4 C3V222 D1V8 D1V114 G17V4 D+0V188 D3V232 F+2V44 D14V95 G10V211 G0V223 D5V32 A+19 D16V191 rV228 B7V232 D3 D19V247 B13V183 G6V212 G2V212 A+17V47 F+2V54 F+16V223 G2V211 F+0V209 F+16V31 F+2V104]

$$ALL
  [G+17V209 G6V207 C+2V209 E17V52 D17V72 G0V192 D+4V191 B3V212 B15V21 D17V94 G+19V203 D+5V192 B5V224 D+0V21 A+15V63 D+19 C+5V224 D5V20 A+3V7 F+14V63 G20V255 B2V208 F+8V239 F+2 A+12V44 E2V235 A+3 A+3V247 A+19V235 B17V26 F+5V255 A+19V228 G0V193 G+17V6 D+19V43 F+4V36 E17V212 B5 F+18 G2V255 D4V52 rV16 F+17V224 G17V194 B2V255 A+3V127 D19V63 G10V195 D+13V176 C+9V224 F5V123 rV215 B11V212 E17V238 D5V48 F+3 B2V176 rV152 rV174 A+3V30 F+2V85 G4V239 D+19V208 F+17V199]

$$ALL
  [E17V80 A+3V123 D5V16 C+20V175 D14V159 D14V47 F+2V103 B4 F+15V191 D17V165 E20V32 A+3V124 A+7V63 F17V183 D+13V167 E17V255 D0V31 D+9V36 D+1V192 D+19V192 A+15V15 F+2V98 A+4V112 B18V209 G16V209 G18V207 B3V240 D9V234 D+3V133 A19V196 rV255 D19V79 G2V116 D15V235 F+14V239 C19V23 F3V47 D+7V68 A+15V212 G10V212 A0V18 D5V95 D+7 C+0V150 B15V144 G0V185 F7V31 F+10V112 B2 G14V128 A+13V128 C+3V39 A+7V127 A+3V82 D11V128 G10V128 D17V209 B5V119 G6V71 rV160 G16V128 D+16V171 F+20V37 G5V83]

$$ALL
  [B7 E17V207 F+11V155 D+13V209 G1V103 A0V63 F+18 D17V215 B15V209 G0V210 F+1V231 A+19V18 C3V8 G2V229 D+20V180 D+1V168 G+17V209 G2V23 D+5V32 G4V240 D+19V152 C17V139 G0V244 D5V80 F+6 E2V210 B13V128 F+17V240 A+3V17 F+6V47 B5V224 B18V147 F17V175 E0V255 B2V95 A3V45 G+17V226 F13V211 C+14V22 rV63 D+5V28 D+19V177 B15V191 F+17V223 E2V3 B4V29 A+1V216 D20V176 A+19V228 C1V225 F4V32 D+7V248 rV178 G+17V191 D16V255 E20V71 D3V23 A+19V2 D19V251 E17V18 A+1V255 D1V244 B20V235 rV36]

$$ALL
  [A20V35 C1 G0V231 G+17V203 D+17V23 F+18V7 F+2 D5V48 G+17V232 F+12V191 B14V222 D2V48 D+5V55 D3V255 E17V187 G18V135 G20V178 D+4V251 B4V47 G2V29 G0V213 F19V192 D+16V239 F+15V23 C20V59 F+2V32 F+0V247 D20V250 B15V209 E14V209 E19V31 A+3V55 B1V26 B19V231 G+17V209 A+18V231 F+18V43 A+20V50 D+20V44 C+19V253 A+17V7 A+20V23 F+0V15 rV255 E17V211 C+15V231 rV23 F+4 E6V32 D19V176 E17V128 F17V187 G1V47 C+7V75 G4V26 B19V210 G14V177 B13V223 C21V23 B4V53 G4V19 D+19V209 B17V213 A+19V243]

$$ALL
  [G+20V243 G1V234 F+19V243 rV15 rV23 F0V15 E20V251 G18V244 B17V253 F17V19 rV19 D+2V10 C+1V5 G+20V254 A19V5 A+19V3 F+20V238 C+0V224 A+1 A+3V25 D+3V10 B1V236 B20V209 D+18V214 G19V251 F+1V8 B1V19 F2V240 B20V236 F20V247 C21V251 E0V246 F20V235 F+19V13 rV35 F+1V45 E2V13 C21V241 F+18V236 F+18V250 rV18 D2V16 G0 E20V239 G19V6 F+1V251 A1V240 C+0V223 G+18V232 E19V239 D+1V11 C1V15 F0V2 B19V245 A+19V247 A+20V25 D1V36 F+0V6 E19V242 F+18V227 A20V9 F4V28 B3V32 A+0V238]

$$ALL
  [G+19V234 D19V242 A+20V8 A+20V4 A+19V254 G20V7 F+0V21 C2V30 D1 G18V243 A17V232 F+18V250 D1V40 F+3V45 D2V13 E20V236 D+19V232 A+20V244 F+0V14 C1V7 B0V1 F0V239 E20V239 G20V254 D20V4 A+20V5 rV248 F+20V237 rV4 C0V255 D+0V249 D+0V246 G20V245 E20V1 A19V4 F+20V9 rV15 E0V6 F+0V6 E0V3 C+0 C+0V1 A+19V249 A+19V1 G+20V15 E1V11 G0V14 G20V223 G18V219 G19V239 D0V11 C+2V33 G1V20 C20 A+18V250 E19V255 C21V4 F0V7 F+20V255 A20V251 A+0V251 G0V251 D+0V247 E20V241]

$$ALL
  [A20V254 F+0V247 F0V248 B20V235 D19V229 D20V255 G+0V13 A1V19 F1V249 F19V226 F19V243 B20V5 E1V14 D1V10 C0V245 C0V247 F+0V4 D1V10 E0V248 G20V234 E20V245 C0V19 C1V35 B0V23 rV242 C19V231 D19V243 D0V10 D1V12 B0V247 G20V231 E20V255 A+0V10 A+1V4 D+1V241 G+20V229 A19V244 rV3 D+1 E1V251 E0V236 B20V240 rV250 F+0V2 D1V244 C0V238 A20V245 D+0V2 F0V2 F0V244 A+20V240 F+20V246 F+0V16 E1V15 G+0 A+20V250 C20V253 C21V14 A+0V8 B0 C21V251 E20V255 C21V7 A+0V5]

$$ALL
  [G+0V3 G20V241 E19V242 G20V255 E1V13 D+1V8 C0V252 G19V253 D20V6 A+0V15 F+0V12 D+20V251 D+19V247 A+19V255 G+0V22 G+1V20 F0V4 E20V234 G19V234 rV2 C1V16 A0V12 A+20V253 E19V246 C+20V252 C21V15 A0V15 C+0V253 D+20V239 C+20V246 F+20V7 F0V23 C1V14 rV3 E20V251 A+19V246 A20V5 D0V14 A0V11 G0V1 G20V241 F20V242 D+0V253 E0V6 A+0V5 C+0V251 C+20V244 E20V247 A20V254 F0V8 B0V6 C+0V253 G+20V248 C21V252 F+0V4 C1V11 D+0V6 F+20 A19V247 F+20V247 rV255 C0V3 rV4 A+20V246]

$$ALL
  [F20V247 D20V255 G20V255 C0V255 E0V254 B20V247 G+20V247 B20V255 rV2 F0V4 E0V250 rV246 C21V247 D+0V4 D1V12 C+1V6 F+0V246 A+20V244 A+20V247 D+0V7 E1V6 A+0 A+20V251 C20V251 G20V7 F+0V15 E0V2 C21V251 A20V246 G+20V251 A0V7 C1V11 D+0 rV251 D+20V247 rV255 G+0V5 F+0V5 C21V252 G+20V246 rV253 D+0 C+0V249 G20V247 C+20V245 rV255 F+0 D+0V250 A+20V249 D20V249 G+20V3 F0V7 C0V6 C21 C21V250 D0V2 A+0V6 G+0V2 C21V2 A+20V252 A+20V7 F+0V10 D+0 C21V250]

$$ALL
  [F+20V245 F+20V255 D+0V5 E0V3 C21V253 F20V251 A20V253 F+0V8 F0V3 rV250 F+20V253 F20V3 C0V10 B0V7 rV255 C21V254 D+20V252 rV4 G0V6 C+0 A20V249 F+20V249 B20V3 C+0V5 rV255 G20V251 C+20V253 rV7 A0V7 F+0 rV250 F+20V251 C0V7 A0V11 A0V5 r G20V251 C21V3 A+0V12 C+1V7 D0 A20V247 F+20V250 C+0V5 F+0V7 C0V255 rV247 rV255 C+0V8 D0V7 C21 B20V252 C21V3 C+0V7 E0V7 rV252 C21V244 G20V245 rV2 C+0V5 rV254 A20V249 F20V249 C21]

$$ALL
  [C0V5 rV251 G+20V250 D+20V245 G+20V253 rV6 D+0V2 C+0V2 rV251 rV254 C0V5 F0V7 F0V7 F+0V2 rV4 rV4 C0V4 C0V5 D0V6 rV3 D0V1 C0V252 B20V252 rV255 C0V254 F0V255 D0V1 C0V253 D+0 C0V253 C0V252 C+0V255 rV247 rV249 B20V254 rV254 D0V1 C0V250 G+20V249 A20V251 B20V250 rV253 rV254 C21V251 C21V252 A+20V254 C21V255 C21 rV254 rV254 C0V4 D0V3 E0V3 F0V4 D0V4 E0V5 D+0V7 D0V3 C0V255 D0 rV3 D0V4 F0V4 D+0V4]

$$ALL
  [C0V255 rV254 B20V253 rV1 D0 D0V254 C21V253 rV255 C0 D+0 D0V254 rV254 A+20V251 C21V1 D0V2 E0V2 rV254 B20V249 F+20V251 C21V253 rV255 B20V253 G+20V255 C21V253 C0 rV254 C21V253 C21V254 rV255 D0V3 D0 E0V1 C0 rV2 E0V6 F+0V3 E0V3 r C21V254 C0V1 D0V2 rV255 B20V251 B20V250 rV254 D0 C+0V254 rV254 rV252 rV252 C21V255 rV1 rV6 rV255 r r rV2 rV1 rV253 rV252 rV253 G6V49 rV111 rV17]

$$ALL
  [D4 F+3 C0V255 rV255 rV255 rV255 rV255 r D0V7 G+20V2 C20V249 rV251 F+20V248 B20V248 A+20V255 F+0V3 C+0V247 D+0V255 C21V244 F20V250 G20V244 A19V250 rV246 rV19 F+2V25 C0V1 D1V19 C+0V246 D20V248 A+20V228 A+18V230 D1V31 G+5V48 rV223 C+0V27 G20V223 E17V242 G19V225 rV40 G+5V40 F+0V255 F+2V23 D+20V223 D18V227 E17V205 D1V79 D+4V16 D20V31 G3V5 E17V209 D20V228 B19V9 G+1V255 A+20V27 F+1V15 D20 B18V214 D17V15 B5V16 G+17V223 D5V61 B19V216 C19V233 B15V223]

$$ALL
  [D3V38 E17V209 E2V66 B5V8 G+17V195 D+19V15 C+4V10 C+16V243 A1V14 G2V18 F+0V216 A+14V255 A7 D+16V180 D1V12 A+2V6 G18V207 F+14V87 F+10 A+13V203 D5 D+0V253 G0V213 A+11V47 F+10V40 G+12V183 F+4V55 F+19V240 G16V176 F+6V108 rV178 D17V63 F3V232 E17V207 B15V15 A8V96 G18V144 F+3V66 D+0V209 E17V176 rV55 B5V3 A+14V255 A+4V48 F19V208 F12V215 D5V104 F17V207 F+6V80 rV220 D1V231 E17V223 rV224 A19V43 D5V10 B17V235 D+19V16 D5 A+15V191 C6V63 B19V209 A+15V215 C+4V26 C+14V191]

$$ALL
  [F+2V126 B3V216 G19V213 rV48 A+1V168 D13V47 F+10V32 B15V221 G0V50 A+4 D+11V128 F+6V127 G1V212 A+15V247 G6V40 D+15V128 E17V69 G6V254 G12V215 A+9V111 F17V128 F+14V31 D+9V32 G+13V183 F+6V127 G0V208 A+11V209 F+6V56 B18V176 A+1 F+10V8 E12V203 F+0V103 rV209 F+15V31 F+10 E17V151 B17V35 B5V32 D11V135 B7V120 B1V160 F+18V55 A+2V15 E17V189 D1V39 G2V192 D12V255 E10V96 D+17V167 F+18V59 B5V247 G10V175 D5V96 B19V198 A+13V255 F+6V112 G19V130 A+17V55 B5V232 B10V209 G+4V103 rV148 F+14V255]

$$ALL
  [D9V28 B15V191 A+19V79 G+5V32 F+15V173 A+4V47 B18V195 F+18V31 F+2V100 B19V212 D1 G1V223 E19V220 D+0V59 A+2V24 E17V8 D3V219 C+20V239 G18V15 B1V242 D18V15 A+3V28 A+19V235 G18V211 A+3V127 F17V152 F+20V52 B4V8 B19V196 D19V39 D+5V240 F13V207 A+3V72 D+1V212 G14 F10V72 F11V128 A+3V95 D+1V191 F+16V255 F+3V59 E17V184 F+17V78 F+10V32 G18V160 A+16V79 G9V8 G10V139 D9V127 G2V163 A+15V255 B7V56 D+11V133 F+18V107 B8 G15V183 G+1V119 B1V132 G10V215 F+10V124 E13V143 A+1V75 D+5V248 F11V170]

$$ALL
  [D3V127 G2V213 A+17V251 D+0V32 G2V209 F+11V215 F+10 B13V159 C+3V55 G+18V187 A+14V255 G+6 F18V196 D2V63 E17V151 D+19V35 A+19V252 rV2 F+2V37 G2V192 A+12V247 D5V93 rV168 D15V7 F+10V104 D+12V128 D17V72 F+10V48 G10V131 F+7V127 G0V168 D11V191 F+8V127 D+1V144 A+11V39 F+10V96 D+17V156 E15V239 B7V63 B15V167 rV117 B5V232 C16V209 rV26 A1V12 D18V239 C+3V10 F+2V19 D+1V223 G10V191 A+3V127 A0V152 D14V247 F+10V96 B13V130 F+12V255 G7V84 D+19V160 F+17V31 A8V15 G13V151 F+14V15 A+9V106 F17V171]

$$ALL
  [F+17V35 F8V40 D+15V161 D17V23 D+6V28 G2V228 A+13V215 A+5V78 G18V157 E17V23 F+20V47 D+5V236 E17V197 A+0V15 C1V31 B19V194 A+15V255 D+5V84 D+19V168 D13V255 F+10V112 G12V128 F+18V63 B5V36 F+19V209 D16V209 D5V109 D+0V209 E17V15 B2V212 C19V47 F+2V244 C11V199 F+10V127 D+1V144 F+12V255 B3V39 F+14V247 rV228 E0V39 G4V239 C16V255 A+3V60 C+14V170 A+1V100 B6V192 G+13V251 F5 A+20V8 E20V216 B17V223 D5V96 rV153 A+13V31 G9V48 A18V224 rV243 G14V191 D3V127 B3V144 G10V23 F+10V96 B15V145 A+16V255]

$$ALL
  [rV237 G0V63 G2V209 G10V211 F+10V96 B15V141 F+18V45 G0V209 E17V17 B5V224 G10V191 D10V112 G14V145 F+4V109 B19V128 G+10V223 F+10V126 D+11V128 A+1V127 D+6V209 D17V39 G0V209 D14V233 F+6V100 D+1V178 A+16V255 C+4V24 B19V16 F+20V212 E17V39 G6V212 D+13V191 B4V88 B17V166 F+18V63 F5V232 A+13V239 E8V32 G10V128 D3V127 B5V212 A+11V211 D9 B13V191 A+3V80 G18V148 E17V7 G2V10 D1V21 D+0V213 E12V223 A+8V100 D+19V148 D15V255 F4V248 F+16V215 C+3V52 D+14V159 A+3V120 B3V176 F12V239 A+5V36 E18V223 B0V16]
