
$FM2, $UNKNOWN_0xD7,

!ALL

$Inst1,
$Inst2,
$Inst3,
$Inst4,
$Inst5,
$Inst6,
$Inst7,
$Inst8,
$Inst9,
$Inst10,

$$ALL
  [D+5 D+5 D+5 r r r r r r r r r r r r r r r r E8V97 D+6V118 A+8V117 F9V103 C+8V116 F+5V2 C0 C0V4 D+0 rV5 F0 rV6 F+0 rV9 F1 rV19 G1 rV20 G+1 rV22 A1 rV23 B1 rV25 C+2 rV27 D2 rV29 F2]
  [D+5 D+5 D+5 r r r r r r r r r r r r r r r r D9V99 G2 C4V32 C+8V32 E3 r r A+13 rV70 D16 rV66 r rV191 D11 rV102 A+0 rV140 D19 rV230 F8 rV101 C+4 rV102 D+20 rV6 C14 rV132 G0 rV44]

$$ALL
  [rV31 F+2 rV31 F+2 rV31 G2 rV14 E0 D+0V15 E0 D+0V14 F+0 D+0 r C+0V1 r C+0V14 F+0 D+0V1 D0V3 r r rV1 rV1 C0 r D9V32 F5V121 E8V68 D+8 D5 rV63 r r r rV255 r rV255 r rV255 r rV255 r rV255 r rV255 r r]
  [F+8 rV145 E14 rV215 D20 rV29 C+0V4 G+0V11 rV4 C0V1 C+0V4 G+0V11 rV1 r rV2 rV1 C+0V4 G+0V11 C0V3 r r D5 C0 r r C8V101 A+5V109 D+8V97 G2V111 rV74 r r r D+1V1 C0V208 D+17V4 F0V208 D+17V9 A+0V208 D+17V14 rV224 G18V3 E0V224 G18V8 A0V224 G18V13 D1V224 r]

$$ALL
  [F0V6 F0V6 D+7 C6V17 r F+0V9 r C+0V4 r C6V83 C+0V78 E8V100 D0V255 G+5V73 E16V2 G+9V114 E5 C0V1 rV1 rV69 rV197 D+9V108 E6V12 r A+6V45 F6V11 C+8V115 rV1 rV66 F6V78 r C8V101 C+9V109 r C0V255 rV78 r E9V97 rV65 rV1 r G+19 F+4 G+1V115 D8V109 G9 C0V255 F5]
  [F0V6 rV4 D+0 r C+0V4 C6V12 r C6V9 r r rV97 E5 C0V1 C+4 E5 E8V100 C+0V255 C0V255 F5 F6V50 rV65 B8V97 rV1 rV78 r E9V97 E6V12 r F+6V2 F4 G1V115 D8V109 G9V77 r D+0V74 A+6V55 F6V12 B8V97 G0V2 C0V1 rV66 F6V78 r C8V101 C+9V109 B0V8 rV2 C+0V69]

$$ALL
  [F6V50 rV65 G8V104 G3 F+1 G+0V122 rV78 r E8V97 E6 rV69 r r r r r r r r r r r r r r r rV32 D1 rV10 A0 rV10 D1 rV15 D1 r r r F0 rV6 F0 rV87 r r r r r r r]
  [rV197 C+9V105 rV66 F6V78 r C8V105 A+6V33 F6V10 C8V101 rV78 E5V69 r r rV3 E0 rV8 A0 rV13 D1 rV15 D1 rV15 D1 rV15 D1 C+7V141 r r r r r r r r r r r r r r G+5 r r r r r r r]

$$ALL
  [r r r r r r r rV65 G2 r r r r r r r G0 rV10 A+0 rV12 C1 rV15 D7V86 r r r r r r r r r r r r r r E6V50 C8V105 D14 C0V255 rV255 rV255 C21 C1V13 D2V234 B15V40 C+4V244]
  [r r rV10 A+0 rV13 C+1 rV15 G+11 r r r r r r r r r r r r r r r rV15 r r r r r rV7 G0 rV9 A0 rV12 C1 rV14 D1 rV122 rV3 G2 rV255 rV255 r D0V253 G17V24 A+2V192 G3V227 D4V205]

$$ALL
  [A+2V211 C+2V8 D+0V250 A+20V1 A+2V7 D+1V233 C+2V5 C0V3 E19V240 D+17V206 D+17V210 A19 C+3V12 D5V63 G+4V63 G4V61 E2V24 B19V232 B15V192 B15V192 B15V192 D+17V224 F1V35 D5V63 D5V63 D5V63 D5V59 B0V255 G17V207 B15V192 B15V192 B15V192 B15V192 C20V248 A+2V51 D5V63 D5V63 D5V63 D5V63 D+4V40 F+0 F+18V219 B15V192 B15V192 B15V192 B15V192 D+16V197 G+17V221]
  [C+1V16 rV252 rV252 C+1V9 F+19V51 C3V25 C0V9 rV247 D19V222 G16V192 G18V217 F1V31 C+3V56 C5V63 B4V63 C4V42 D+1V1 G+17V197 B15V192 B15V192 B15V192 G20V1 D5V63 D5V63 D5V63 D5V63 C+3V31 D19V232 B15V192 B15V192 B15V192 B15V192 D17V219 B0V15 C+5V63 D5V63 D5V63 D5V63 D5V63 F+2V21 F20V234 D+17V200 B15V192 B15V192 B15V192 B15V192 B16V208 B18V238]

$$ALL
  [G+20V248 B1V29 A+4V63 D5V63 D5V63 D5V63 D5V63 G3V46 A0V1 E19V222 G16V196 B15V192 B15V192 B15V192 B15V193 D17V213 F19V242 G+0V17 F3V40 D5V63 D5V63 D5V63 D5V63 C4V35 A+1V13 rV250 E19V229 E18V223 D18V225 C19V230 E19V235 A19V239 C+20V242 A20V251 C21V253 rV3 D0 r rV255 rV255 D0V6 D1V15 E2V31 F3V48 F4V52 B3V48 A2V34 F1V11]
  [D0V18 D+3V59 D5V63 D5V63 D5V63 D5V63 D5V63 G2V20 F+20V244 F17V211 C16V192 B15V192 B15V192 B15V192 D16V208 F+18V223 A+20 C+2V29 D+4V60 D5V63 D5V63 D5V63 A+4V49 D+2V29 F0 C20V239 A+18V221 E18V221 A+18V227 F19V229 A19V234 A19V242 E20V247 A20V253 B20 C0V1 C0V1 rV253 rV253 r F0V8 F1V25 C+3V42 C4V50 E4V52 F+3V40 E2V23 G+0V5]

$$ALL
  [C21V252 rV122 E8V222 D14 rV255 rV255 r G+4V57 G+4V57 B19V244 F16V198 F16V198 B18V15 G+4V57 G+4V57 E4V17 F16V198 F16V198 G20V22 G+4V57 G+4V57 C18V240 F16V198 C+18V254 G3V17 G+4V57 G+4V39 D+20V217 F16V201 rV237 D+2V25 C+4V57 B0V57 rV212 E17V215 A18V4 D+20V27 F4V57 D+2V16 rV230 G17V202 D20V224 A1V8 D+4V34 G3V33 rV238 D+19V215 E18V242]
  [E6V50 C8V110 rV32 r rV255 rV255 D2V54 G+4V57 F4V54 G17V233 F16V198 D17V217 G+4V46 G+4V57 G+4V51 G20V228 F16V198 F16V202 G+4V57 G+4V57 D4V36 G17V198 F16V198 B0V11 G+4V50 G+4V57 F0V254 G17V218 E17V209 C0 D2V54 G+4V33 F+2V5 D19V224 F16V198 A+19 G+2V43 A3V40 D1V25 A19V250 C0V243 F+19V17 A+0V48 G1V3 F+3V4 rV227 F18V222 E19V11]

$$ALL
  [C1V23 C+2V20 B1V20 A+0V3 F+20V232 G18V250 A20V11 F+3V20 F+3V21 B0V3 G+18V212 E17V250 D+0V252 G+0V25 G+2V16 D2V20 A1V20 C+19 F+20V253 F0V4 A2V5 D+2V11 F+2V4 G20V249 F+0V240 A18V234 A1V20 F+2V20 G+1V244 F0V240 A+20V242 C0V219 F0V2 D+3V11 D+1V17 r B19V244 E20V239 A20V244 rV3 D2V6 G1 F+20 C0V241 D20V240 D+0 A1V4 rV14]
  [A+1V20 E1V51 G1V7 D20 D20V235 D19V247 D+1V36 C0V12 F+0V36 E0V236 A17V228 G+19V253 rV234 D3V23 A0V39 E0V12 F19 rV236 G0V239 A+0V30 A+3V34 G1V7 D+0V12 A18V230 D0V239 E1V17 G1V4 F1V24 C+0V254 rV243 A18V238 rV243 E0V3 G+1V16 C+2V255 E20V244 A19V241 F20V244 E0 D+2V12 D2 r D20 D+20V253 A+20 E1V3 C0V10 F0V1]

$$ALL
  [A20V4 rV20 rV11 F+0V2 A20V7 B0V22 r r rV255 G+20V247 G+0 E0V5 E0V3 D1V5 r rV253 F+20V243 D+0V11 C+1V22 B0V14 A+0V16 A20V247 E20V247 C0V243 F+0V22 C1 B0V8 r D+20 C+0V2 C0V13 D0V11 A+0V7 A+0 G+20V249 B6V80 rV134 C0 B11V1 rV136 C0 G+11V1 rV144 C0 F+8 G+9V15 D+0 G+10V4]
  [A1V11 rV1 A20V255 C0V250 D0 F+0V255 D0V10 C1V1 A20 F20V247 F+0V250 C0V20 E0V6 C0V1 D20V247 rV247 B20V247 E1V27 F+0V15 F+0V16 A+0V2 rV254 D+0V8 G+0V248 A+0V16 D+0V13 rV4 B20V243 G+20V20 r D+0V17 A0V11 B20 r D+0 r C12V1 rV137 C0 B10V1 rV137 C0 E11V1 rV65 r G10V4 D+0V128 C2V4]

$$ALL
  [B1V129 rV24 E9 rV117 D+0 G+10V4 B1V129 F6 C2V4 rV110 D+0 rV4 rV1 B1V129 rV24 C+9 rV65 r D+0V24 B1V129 rV1 C+12V25 B1V146 E9V80 rV3 E9V24 E9 D+0V128 rV24 F+9 C0V255 r B1V113 G6V84 E0 A10V137 rV65 r G6V84 G+0 rV24 E9 C+12V4 D+0V128 C2V4 C+12V80 rV11 rV137]
  [C+12V25 B1V146 D+0V24 G10V4 D+0V128 C2V4 C+12V80 rV1 C0 G10V4 D+0V129 D+0V25 C2V4 C+12V25 B1V146 D+0V24 D5 E9 rV112 C+12V25 B1V129 rV24 B8 F6 C0V131 B1V146 D+0V128 C12V25 G10V112 D+9V1 B6V19 rV117 G+10V4 r F0 F0V3 A+0 G10V1 r D+0V131 B1V146 D+9V129 C0V131 G+10V4 B1V129 F6 C0 A11V1]

$$ALL
  [C0 E11V1 rV132 C0 D+12V1 rV136 F6 D2V3 C+7V1 rV86 C0 C+7V1 rV86 C0 C+7V1 r rV86 C0 C+7V1 rV98 C0 C+8V1 rV98 F6 C0 A8V1 G+10V93 C0 B7V1 rV84 C0 E3 C+7V1 rV86 C0 C+7V1 r rV89 C0 E7V1 rV101 C0 B7V1 rV96 G6V84 F0 C7V1 rV85]
  [rV144 C0 D+11V1 rV146 C0 B10V80 r rV86 C0 C+7V1 rV98 C0 C+8V1 rV98 G6V84 D1 C+7V1 rV86 C0 C+7V1 rV86 C0 D+1V80 rV1 rV94 C0 A7V1 rV84 C0 B6V1 rV65 C0 C0 C+8V1 rV86 G6V84 E0 E7V1 rV89 C0 B6V1 rV84 C0 B6V1 r rV85 C0 C7V1]

$$ALL
  [C0 D7V1 rV87 C0 B6V1 r rV85 C0 C7V1 rV97 C0 D8V1 rV99 G6V84 C+1 rV149 C0 E12V1 rV146 C0 C+13V1 rV144 F6 F+2 B1V146 B1V129 D+0V128 D2 D+0 D+0V24 rV24 B10V4 C+12V27 G+10V4 r r rV27 G+10V4 G+10V127 C+12V122 rV127 E10V4 C+12V27 G+10V4 G10V4 B6V107 rV134 B1V146]
  [rV97 C0 D8V1 rV84 G6V84 G0 C7V1 rV85 C0 D7V1 rV87 C0 D+7V1 r r G+12V1 rV156 C0 D+12V1 rV156 C0 G+11V80 r rV24 E11V4 C+12V27 G+10V4 G10V4 r rV134 B1V146 B1V129 D+0V128 G6V84 C0 F+10 D+0V128 D2 B1V129 rV3 D0 B1V129 D+0V128 D2 D+0V255 rV2 rV24 B10V4]

$$ALL
  [D+0V24 rV3 D+0 D+0V24 rV24 D+10V4 G+10 rV132 B10V255 rV2 B1V113 G10V139 G10V137 G10V136 G10V127 A+10V132 D+11V255 rV2 B1V113 G0V4 B6V99 rV117 G+10V4 D2V1 D0V1 A10V24 C+0V24 rV24 E10V4 B9V4 F+10V4 r C0V24 rV24 rV24 rV27 C12V27 C0V3 D0V1 C0V3 D0V1 C0V80 rV7 rV4 B1V130 G+9 rV4 C0V24]
  [rV134 G10V4 r rV125 B1V146 D0 rV3 D0 B6V72 rV137 D+0V24 rV24 rV24 rV24 D2 D0 B6V27 rV134 G+10V4 D+0V255 rV2 D+0 D+0V24 rV117 B9 D0V1 rV127 B1V145 B1V145 B1V145 G6V84 F0 G+10V125 G+10V120 B1V2 C+0 D+0 rV127 A9 rV118 B9 F6 D2V1 D+0V24 C0 C0V3 B1 B1V3]

$$ALL
  [F+10V2 C12V27 C12V27 C12V27 B6V53 rV128 E10V4 G10V4 F+10V4 A10V4 E5V78 rV27 rV24 F+11V4 B1V146 A+10V127 B1V146 B1V129 D+0 rV65 C+0 rV129 rV132 C0V129 C0 D+11V1 E11V80 rV11 rV144 C0 E11V1 D+11V1 C0V129 G+10V141 F6 C0V129 A11V1 rV142 C0 G+11V142 C0V1 C0V255 rV2 C0V1 C0V1 C0 C0 C+11V1]
  [B1V129 D+0 D+0 D+0V255 rV2 B1V145 B1V145 B1V145 B1V145 B1V145 r D+0V131 B1V146 D2 rV3 rV24 B10V4 C+12V27 C+0V3 D5 G+10 D+11V137 C+11V1 C0V1 rV134 E11V1 F6 C0 C+12V1 rV136 C+12V141 F+11V1 C0V128 G11V80 rV12 rV141 C0 G+11V1 rV141 rV139 D+11V132 B6V60 rV122 C+11V136 C0V1 C0V1 G+10V132 C0]

$$ALL
  [rV65 D0 F+0V237 F+0V237 F+0V237 F+0V237 F+0V237 F+0V237 F+0V237 F+0V237 F+0V237 F+0V237 F+0V237 F+0V237 F+0V237 F+0V237 F+0V237 F+0V237 F+0V237 F+0V237 F+0V237 F+0V237 F+0V237 F+0V237 F+0V237 F+0V237 r F+0V31 F+0V31 F+0V31 F+0V31 F+0V31 F+0V31 F+0V31 F+0V31 F+0V31 F+0V31 F+0V31 F+0V31 E5V78 rV7 G+19V7 G+19V7 G+19V7 G+19V7 G+19V7 G+19V7 G+19V7]
  [F20 B9V15 B9V15 B9V15 B9V15 B9V15 B9V15 B9V15 B9V15 B9V15 B9V15 B9V15 B9V15 B9V15 B9V15 B9V15 B9V15 B9V15 B9V15 B9V15 B9V15 B9V15 B9V15 B9V15 B9V15 G6V84 C0 G0V3 G0V3 G0V3 G0V3 G0V3 G0V3 G0V3 G0V3 G0V3 G0V3 G0V3 G0 r D1V120 D1V120 D1V120 D1V120 D1V120 D1V120 D1V120 D1V120]
