
$UNKNOWN_0x81, $OPNA,

!ALL

$Inst1,
$Inst2,
$Inst3,
$Inst4,
$Inst5,
$Inst6,
$Inst7,
$Inst8,
$Inst9,
$Inst10,
$Inst11,
$Inst12,
$Inst13,
$Inst14,
$Inst15,
$Inst16,
$Inst17,
$Inst18,

$$ALL
  [D+5 D+5 D+5 r r r rV4 r r r r r r r r r r r r D9V100 G+9V69 B3 r r rV5 F0 rV7 G0 rV10 A0 rV12 C1 rV43 C0 rV253 D0 rV5 F0 rV7 G0 rV9 A0 rV11 A+0 rV12 r C0V1 rV1 C+0V2 rV2 C0V1 C0V2 C0V1 D0 D0V3 D0V3 D+0V1 E0V5 rV1 D0V3 r r r rV1]
  [D+5 D+5 D+5 r r r E4 r r r r r r r r r r r r C+9 D8V114 D+18 C0 rV224 F+13 rV42 G+3 rV137 C11 rV228 C14 rV170 C8 C0V192 F1V2 C+0V179 B3V2 C+0V85 E20V2 C+0V158 F20V2 C+0V231 F+16V2 C+0V27 G+6V2 C0V1 C0V1 rV1 C0 C+0V1 r C0V1 rV1 C+0V3 C0V2 C0V1 r D0 C0V1 D0 r r C0 D+0V1]

$$ALL
  [C0V1 F12V150 C9V108 E8 G10 rV128 rV50 C0V1 D+1V2 D+0V16 D+1V7 G+0V16 D+1V12 C+1V16 D+17V1 D0V208 D+17V6 G0V208 D+17V11 C1V208 D+17 C+0V224 G18V5 F+0V224 G18V10 B0V224 G18V15 C0 F0V6 F0 rV4 r E8V49 A+6V112 E5V94 A+8V101 G9V101 C5V10 F9V116 A0V97 C5V114 G+8V108 G+9V10 C8V101 E5V73 r E0V7 D1V17 r r rV2 F6V50 rV65 G+9V101 C3V244 G0V243 G+14 rV2 E5 C0V1 G2V80 A+6V88 F6V13 C9V110]
  [C0V1 r G+3V121 r r r r r r r r r r r r rV255 r rV255 r rV255 r rV255 r rV255 r rV255 rV1 C+0V6 F0V6 rV188 A5V65 G+8V84 G9V114 F4 rV108 B3V105 G9V105 C10V114 F8V108 D9V97 A0V117 E8V61 C4V85 F9V101 r rV2 A0V12 C6V4 E5V73 r E0V7 rV236 C6V115 G2 G2V85 G+6V31 F+2 D+5 rV255 D+6V7 C0V78 r C+9V116 C4V70]

$$ALL
  [rV4 D+5 rV1 C0V31 D+0V1 rV5 rV69 rV236 C6V115 G2 G2V85 G+6V31 F+2 D+5 rV76 E0V1 C6V83 D+0V78 F9V109 E6 F+2 D+5 rV1 E6V12 r D0 E0V5 G+5V73 G19V3 F+9 G2V85 G+6V31 F+2 D+5 C+0V255 D0 rV1 r G+10V1 r r r C0V255 D+4 rV76 E0V1 r rV110 G9V52 r rV48 F1V10 G+0V249 rV9 E0V1 D0 rV1 r A0V15 C0V54 r G2V80 A+6V88 F6V13]
  [rV42 B3V4 A0V244 G+20 F+2V68 B15V78 F6V50 rV65 G+9V101 C3V244 G0V243 G+14 rV2 E6 rV32 C0 r rV110 G9V51 r rV48 F1V10 G+0V249 rV1 rV77 G5 F6V1 C+4 E5 C3V244 G0V243 G+14 rV2 E5 E5V1 A20V3 D+0V1 G0V255 D4V230 F+9V77 D4V38 C+2V26 rV1 A1 rV32 C6V83 D0V78 F9V109 E6 F+2 D+5 rV1 E6V63 r B20V249 C0V5 C0V8 C+1V13 r r D+6V7 C0V78 r C+9V116]

$$ALL
  [C9V110 rV4 D+5 rV1 C0V31 D+0V4 rV5 rV69 rV236 C6V115 G2 G2V85 G+6V31 F+2 D+5 rV255 A+6V4 F+0 G+5 B10 C1V73 C+9V32 D+0V32 rV81 C0V31 F+2 G0 D1V20 A0V5 F+20V245 F4V9 rV16 G6V192 D+7 C1V73 C+9V32 D+0V32 rV81 C0V31 F+2 D+0 G5 G+5V73 G19V3 F+9V114 B3V70 rV42 B3V4 A0V244 G+20 G0V255 D+0V3 r C0V2 E0 F+0 F6V78 r G9V117 rV77 C7V31 F+2 D+5 rV77]
  [F4V70 rV42 B3V4 A0V244 G+20 F+2V68 B15V78 F6V50 rV65 G+9V101 C3V244 G0V243 G+14 rV2 E5 C0V1 rV31 G6V192 F6V78 r G9V117 A5V37 F3V8 D+0V177 D+20 rV65 rV1 r rV251 E20V247 rV53 F+0 F6V78 r G9V117 A5V37 F3V8 D+0V177 D+20 rV52 G0 E0V5 C+4 E5 E8V116 rV4 D+5 rV1 C0V31 C+3V8 rV191 E7V217 r F4V9 F+0V16 G6V192 G+8 C+1V73 C+9V32 D+20 D20 rV18 C+0V9 r]

$$ALL
  [r G+0V2 D+1V68 B15V69 rV236 C6V115 G2V50 r rV48 F1V10 G+0V249 rV1 rV77 G5 F6V1 C+4 E5 E8V116 rV4 D+5 rV1 C0V31 B1V8 r C0 F+0 E0V5 G+5V73 G19V4 F+9V114 D+4V70 rV42 B3V4 A0V244 G+20 C0V255 E6 rV32 C0 r rV110 G9V49 D+0V32 rV81 C0V31 F+2 G0V15 F+0V54 r G2V80 A+6V76 F6V14 C9V110 C3V244 G0V243 G+14 rV2 G5 G+5V73 G19V3 F+9V114 F+4V70 rV42 B3V4]
  [C0V255 A1V8 rV5 F6V50 rV65 G+9V101 E6 F+2 D+5 rV1 E6V12 r F0 E0V5 G+5V73 G19V4 F+9V114 D4V70 rV42 B3V4 A0V244 G+20 C1V255 G+1V12 rV77 G5 F6V1 C+4 E5 E8V116 rV4 D+5 rV1 C0V31 B0V8 r rV76 E0V1 C6V83 D0V78 F9V109 A5V37 F3V8 D+0V177 D+20 rV65 r rV5 D+6V7 C0V78 r C+9V116 C4 G2V85 G+6V31 F+2 D+5 E0V5 C+4 E5 E8V116 rV4 D+5 rV1]

$$ALL
  [A0V244 G+20 C0V255 A1 D+20V244 A20V252 r F4V9 rV16 G6V192 A10 C+9V100 rV44 G0V1 rV255 rV255 G10V128 G10V128 G+1V90 F+10V127 D8V44 G10V128 G10V128 A+0V63 F+10V127 F+10V127 F19V181 G10V128 G10V128 A+20V41 F+10V127 F+10V127 F+10V93 F+15V143 G10V128 G10V128 D14V213 F+8V127 F+10V127 F+10V127 F+10V127 E0V227 G10V128 G10V128 G10V128 C13V190 G+4V84 F+10V127 F+10V127 F+10V127 F+10V127 F+5V42 B15V164 G10V128 G10V128 G10V128 G10V139 G+19V5 A+7V115 F+10V127 F+10V127 F+10V127 F+10V127 F+10V127]
  [C0V31 E4V8 rV15 C0V244 D+20V247 C+0V7 C0V2 C0V40 F+0 F6V77 G+8V107 C8 rV38 rV255 rV255 rV255 G10V128 G10V172 F+10V127 F+10V127 F+17V145 G10V128 G10V177 F+10V127 F+10V127 E8V54 G10V128 G10V128 G10V176 F+8V127 F+10V127 F+10V127 B2V251 G10V128 G10V128 G10V128 D+1V52 F+10V127 F+10V127 F+10V127 B6V53 F+14V139 G10V128 G10V128 G10V128 A19V13 D10V127 F+10V127 F+10V127 F+10V127 F+10V103 D0V233 G10V128 G10V128 G10V128 G10V128 F14V199 D+3V63 F+10V127 F+10V127 F+10V127 F+10V127 F+10V127 B9V101]

$$ALL
  [B5V52 F+18V201 G10V128 G10V128 G10V128 G10V128 G10V134 C+17V226 A3V63 F+10V127 F+10V127 F+10V127 F+10V127 F+10V127 F+10V127 F+10V124 C+5V46 G+19V220 G+12V137 G10V128 G10V128 G10V128 G10V128 F11V148 A16V217 F1V32 G6V91 F+10V127 F+10V127 F+10V127 F+10V127 F+10V127 F+10V127 F9V106 F+5V57 D1V5 C+18V207 G+13V156 A+10V128 G10V128 G10V128 C+11V138 C13V163 C16V203 D20V252 F+2V39 F+5V73 B7V101 E9V114 G9V115 E9V113 G8V102 F+7V88 A+5V65 D+3V34 F+0 B18V221 C16V187 A13V162 A12V153 F+12V151 A+12V158 B13V170 D+15V189]
  [G+1 A+13V145 G10V128 G10V128 G10V128 G10V128 C+13V176 rV18 E7V106 F+10V127 F+10V127 F+10V127 F+10V127 F+10V127 F+10V127 E8V85 A1V6 D16V178 G10V128 G10V128 G10V128 G10V128 G10V128 A13V180 A+19V253 D4V63 A+8V117 F+10V127 F+10V127 F+10V127 F+10V127 F+10V127 F+10V126 F+7V82 E3V31 E20V234 A+15V180 B11V138 G10V128 G10V128 G10V129 C12V149 E14V180 C+18V228 A0V18 C+4V57 A6V88 A8V110 F+9V116 F+9V114 C+9V107 C+8V95 A6V78 G4V50 B1V17 F20V239 F+17V204 G+14V172 C+13V156 G12V152 F+12V152 E13V164 F+14V179 E16V203]

$$ALL
  [G17V219 D+20V250 D1V19 C3V41 F4V57 D5V63 D5V63 C5V61 F+4V53 A3V44 G+2V29 C1V9 F+20V243 G+18V221 A+16V198 D+15V181 F+14V174 E14V173 F14V175 C15V183 A+15V194 D17V211 B18V231 F20V249 E0V7 E1V19 B1V25 C+2V26 C2V25 A1V21 E1V16 A0V8 rV252 C+20V239 B18V225 A17V211 G+16V199 C16V192 A+15V190 A15V191 C+16V195 G16V201 D17V210 D+18V222 D+19V234 C+20V245 rV3 C+1V16 A1V23 A+6V80 G+4V67 rV5 G2 rV255 rV255 rV217 D+19V8 C+18V239 G1V237 F0V12 F0V15 F0V238 G19V44 G+16V251]
  [B18V235 C+0V7 C+2V31 A3V49 B4V61 D+5 D5V62 A+4V57 D4V49 D+3V38 A+1V19 C+0V254 G19V232 A17V209 B15V188 A14V177 E14V173 E14V173 G+14V179 F15V188 F16V201 C18V222 G+19V241 C21 A+0V13 G+1V23 C+2V26 C+2V25 B1V23 G1V19 C+1V12 E0V3 G20V246 F+19V232 E18V218 D17V205 D+16V195 B15V191 A15V190 B15V193 E16V198 A+16V205 G+17V216 A18V228 G+19V239 G+20V252 F+0V10 F+1V21 C2V25 E0 C+4V119 A2 C0V255 rV255 rV255 F+16V221 rV58 A+0V31 G+15V32 rV233 rV12 E20V8 G+1V206 E1V246]

$$ALL
  [A+17V30 D0V244 E19V26 B15V230 G+2V20 G20V247 C20V249 G+19V243 G+19V254 D+0V30 C+19V18 A18V8 A19V248 F+0V2 D1V16 E20V12 F0V1 E20V1 D+20V9 D0V248 F1V237 F+19V32 F+0V230 F+0V240 D+19V23 G+18V29 C20V10 C0V28 C+0V25 F+0V233 C20V2 B2V243 C20V21 C+1V7 A+19V254 A0V3 B19V244 A+0V245 B19V243 rV254 C+1V249 B20V241 D0V254 F+1 F+20V1 E20V16 B20V252 F2V242 F20V3 rV13 C+0V252 G2V6 F20V13 rV241 E20V253 B0V251 D+20V12 rV253 rV253 E20V17 E0V3 rV5 F+20V8 rV10]
  [E2V207 A20V245 D+20V212 C20V2 F0V51 D+2V12 A+17V250 C0V236 G2V217 C+0V14 A16V19 C+20V2 D0V242 G+1V18 D+2V32 F+1V245 G18V17 D+0V233 G0V14 F+19V25 B20V255 C21V18 A19V11 C+20V6 D2V227 G19V30 B0V17 D+1V6 F+1V243 A19V240 F+20V22 rV12 C+0V250 A+0V255 F1 G0V228 A+1V231 D20 D20V255 G+20V253 G0V2 D0V2 G+20V253 F+0V254 D1V231 G+0V11 G+0V250 F+19V4 rV28 C0V249 F+0V6 rV1 D1V252 G+0V239 G20V255 D0 A+19V2 E0V2 F+20V3 C+0V25 A+20V246 D+0V251 C0V255 C+0V5]

$$ALL
  [C1V251 A20V10 rV245 G+20V246 G1V239 D+1V244 C+20V247 C21V252 C+20V250 rV245 D+0V249 D+0V255 F+20V252 rV4 G+20V255 G0V253 D20V252 D+1V247 D+0V246 E0V246 C21 A+20V252 C0V251 E0V2 G20V2 E1V255 C21V6 rV2 G20V250 G+0V251 C21V5 C+0V9 C+0V251 A20V6 F+20V6 G+0V248 C21V4 rV5 rV249 F0V255 F0V5 C+0V241 C21V253 C+0V6 A+20 rV3 G+20V253 rV1 D20V3 E0V251 rV11 rV3 D+0V3 C21V250 rV2 rV251 C21V255 C0V251 rV253 A+20V250 C0V5 G0V8 C21V3 C+0V4]
  [E1V254 rV7 C+0V12 C0V5 A+19V1 rV255 F+20V254 A20V244 G20V254 E20V10 A20V3 C0V10 B0V4 A0V4 C21V253 rV253 rV255 C+0V1 G20V247 rV13 C0V252 D0V1 A+20V7 D0V250 C0V253 rV7 E0V248 F0V255 A0V2 r rV250 C21V255 F+20V2 F0V255 F+1V247 F+20V20 A+20V4 D+0V254 C21V11 D+0V250 rV253 C1 C0V251 C0V248 G+20V255 C21V254 G20 C+0V249 E0V4 rV3 A0V255 C0V3 C+0V255 rV252 C0V250 C21V252 rV248 C21V254 B20V255 B20V252 C21V252 rV255 C21V1 D0V4]

$$ALL
  [rV253 C+0V3 rV254 rV254 rV1 rV253 C+0V2 B20V77 B3V95 rV17 G2 rV255 rV255 rV233 rV50 C20V251 B17V12 D+19V229 A+19V11 F+19V16 B2V220 B12V12 C18V41 A19V249 C+0V240 rV236 C0V20 F+17V4 C+15V70 D+18V225 F20V223 A2V230 B6V253 G+20V238 F+6V194 B16V229 G3V203 E3V231 C+18V47 G+18V55 C+20V214 D16V231 A+0V16 D+19V26 C2V244 E3V245 D17V230 D+1V218 F+4V38 E12V73 D+15V33 rV11 F+20V212 D15V241 D1V28 C+4V219 B3V1 G0V21 C1V234 A+0V205 D17V45 C0V217 G1V21 B17V9]
  [D+0V255 r r C0V2 C21V250 A+20V254 rV254 A+17 B5V119 A2 C0V255 rV255 rV255 G17V237 G18V250 F+1V13 G+20V240 D+0V244 D3V227 G16V249 rV235 C4V196 D+14V210 C1V224 C0V210 E6V239 A+3V190 E2V242 C+19V238 G+18V252 B15V125 G17V17 C4V189 C+2 C20V20 C+6V250 A18V246 A19V9 D20V1 C20V203 C+1V18 D+4V180 C1V48 F+2V206 C+1V41 A2 F+13V52 E1V187 C21V225 G8V35 F+0V8 G4V251 C2V112 A20V93 F20V31 D+0V238 G+1V204 B0V33 A+19 D+5V24 F+1V179 A18V247 E20V214 A17V227]

$$ALL
  [rV4 A20V226 A+19V244 B17V3 E5V225 C+6V21 C+1V173 C18V248 G+5V234 A+17V45 B17V65 rV51 C1V185 G+19V219 G+2V23 D2V217 F1V208 G+19V255 F+3V39 A18V236 D0V36 D+4V244 A+18V31 G19V26 C+1V20 A+20V6 F18V40 A16V17 G+18V224 F1V234 D+0V76 A+18V253 E20V228 rV14 A+19V223 E16V49 D+18V14 B2V229 F+18V39 C+1V1 D0V206 F+17V4 F18V249 rV8 D+19V33 G+4V211 F+19V77 G+20V240 A+18V231 C3V26 G+20V39 D+0V221 D+0V33 D20V245 C2V236 C+2V13 A+17V17 D0V228 C2V73 E19V23 E18V30 E3V217 D20V8 A+2V12]
  [C+4V243 F17V20 B1V9 A+16V6 E19V8 C1V218 G18V193 F17V82 B19V15 F3V229 E2V17 E17V20 C+1V69 rV67 A+19V11 A19V86 B3V40 C16V239 E18V7 rV65 F+19V34 B4V242 D3V66 D16V253 E1V222 E20V70 B16V6 A3V8 C2V250 A17V251 G+17V242 F+20V33 F+20V211 B19V17 G+19V253 A+17V219 A20V230 C18V12 F0V9 D19V212 G+20V248 A+19V237 A+20V245 G0V199 C+18V27 F+20V234 C0V27 A18V242 D0V235 G+2V224 E19V231 G+20V223 D1V244 F1V14 D0V7 D+0V232 rV13 C+0V206 F20V4 B0V5 A+2V22 C+19V35 B0V255 A+19V230]

$$ALL
  [A19V32 C+1V19 A+1V238 C+20V78 F19V250 D+0V3 F+0V1 A0V24 G1V220 F+0V234 G19V17 C20V238 C+0V12 C1V240 G18V252 D+1V2 C+0V246 B19V1 E1V240 rV19 G20V245 C+19V1 rV248 F0V3 C0V9 G+20V26 A1V246 B20V2 E0V245 A+18V242 A+0V6 G0V247 E1V21 rV247 D0V16 C+20V243 E0V238 E0V241 C+0V5 C+20V3 C2V240 G+20V10 C+0V252 A19V226 F+0V2 A0V1 B20V31 F+0V240 rV10 D0V12 D20V12 B20V245 F1V2 C+1V15 C+0V240 G+0V248 G0V7 D+1V11 A+20V243 F+1V243 D1V255 rV2 F20V7 D+2V244]
  [C+19V224 E3V10 E0V242 A20V231 A20V9 D0V24 C+19V253 rV236 F18V38 F1V252 C19V247 D+20V20 G20V5 C+0V41 E20V237 C+20V253 F+2V16 C21V251 C19V236 G+20V1 A+2V250 G+19V7 rV246 C+2V15 E0V246 F+1V237 G+19 C1V6 A+0V235 G+0V27 D20V35 A+0V244 E2V252 D+0V255 A20V10 F+1V252 F+2V12 A18V32 C21V245 B19V5 G+20V248 A+0V23 E0V248 A20V6 G+0V244 C+20V20 B0V240 C19V4 A+1V243 C20V26 B0V223 rV6 F+20V8 C19V1 F+0V252 F20V10 B0V246 F1V245 C+0V9 rV243 E1V252 D+20V17 D0V251 G+0]

$$ALL
  [F+20V9 rV12 D0V255 A+20V237 C+0V6 F+1V240 C20V25 C1V244 A20V11 F+0V249 D20V3 G20V249 rV236 F0V9 C+0V9 A+20V18 C0V244 rV1 B20V2 F20V241 F0V252 A+0V9 A19V251 C21V245 D+0V254 G+20V14 A20V242 C21V254 A0V246 G+0V254 D20V4 E20V249 C21V18 C+1 E20V245 B0V4 C+0V8 rV1 B20V250 G20V14 G0V255 C0V2 rV1 A20V250 A+0V246 A+0V254 C21V249 B19V18 D0V254 B19 A+0V252 G20V254 D1V249 C21V252 rV2 r rV254 C0V252 D20V4 G0V244 rV10 rV9 rV252 D+20V248]
  [A20V252 D+0V248 E0V25 F0V15 B20V246 C+0V3 B20V13 G20V237 G1 A20 G+20V8 F20V252 G20V9 C20V239 C+0V5 A+0V243 F+0V253 F+1V255 D+20V18 E1V243 G19V4 C20V5 E20V253 C+2V255 rV17 G+0V2 rV253 B0V243 B20V2 C1V248 rV248 G1V252 G+20V6 E0V2 rV254 A+20V9 D0V13 C21V255 E0V237 G0V7 E0V4 C21V246 G+19V254 C0V7 C+1V244 G+20V2 C+0V246 C+0V2 C+1V247 G20V7 r C0V252 rV254 B20 G+20V248 D+1V244 F+0 D+20V14 E0V242 D0V252 rV255 rV7 E0V245 A+20V255]

$$ALL
  [G0V254 B20V2 D+0V246 F0V249 C21V6 A+20V253 E0V251 rV2 rV2 rV253 G+0V249 B0V248 rV1 A+20 rV1 B20V16 B20 F0V244 rV251 rV249 A20V3 F+0V254 C0V13 G+20V251 G+20V1 rV3 A+20V7 F0V255 rV255 rV11 E20V2 D+0V250 D+0V245 F+20V5 rV254 F0V254 B20V255 E20V12 rV251 A20V254 G+20V10 D+20V1 C0V252 C1V250 C+0 E20V249 B0V251 F0V2 rV247 F0V246 C21V1 C21V15 F+20V4 E0V251 F+20V254 D0V1 F+20V255 r D0V249 D0V1 rV6 E20V4 A20V3 C21V251]
  [D+0V3 B20V21 E20V242 F+20V252 A20V14 F+20V6 E0V242 E0V10 E0V255 A+20V12 E0V248 C21V3 rV255 G0V248 B20V253 C21V251 G+0V5 C+0V1 G20V2 G0V2 rV1 rV246 C+0V251 C21 rV250 G+20V8 rV10 G20V1 G0V6 C0V1 C0V7 rV249 D0V255 B20V11 C0V254 rV2 C21V4 C21V255 F+0V255 C0V254 F+20V1 C+0V9 C21V254 B20V248 G20V10 C20 B20V7 A20V255 F+20V3 C21V248 C0V8 rV253 E0V246 C+0V252 C21V251 C21V3 rV249 A+20V1 F0V253 G+20V9 A+20V254 C+0V249 F0V251 C0]

$$ALL
  [C21V5 rV252 rV252 C0V5 E0V6 rV253 rV251 C0V255 E0V8 C21V255 rV255 D+0V255 C0V6 C0V2 rV1 C0V254 C0V10 G20V4 F+0 E0V253 C+0V251 C21V251 rV6 G+20V2 D0V2 C21V254 D0V249 rV4 C21V1 D0V2 C21V250 C0V251 C21 B20V5 G+20V254 rV254 rV254 rV3 B20V254 C0V251 C21V1 C+0V248 C0V254 G+0V1 G20V4 C+0V255 rV252 E0V1 D0 rV252 rV253 C+0V1 r D0V252 rV6 A+20V2 C+0V254 rV5 C+0V253 rV5 rV255 rV3 C0V255 A20V2]
  [A20V3 C+0V249 D0V2 D0V254 G+20V6 C0V254 C21V3 rV252 A20V8 C+0V254 A20V1 rV9 A20 C0V249 C0V254 rV1 C+0V5 B20V7 B20V255 G0V255 A20 C21V4 D+0V251 G0V2 rV253 C21V253 rV251 rV3 A+20V3 rV252 D+0V246 rV1 r rV252 rV253 F+0V251 rV2 A+20V250 B20V5 C0V3 B20V6 rV253 C+0V4 rV1 D0V255 rV254 rV2 D+0V254 D0V1 C0V3 C21V5 D0V255 r C+0V253 D+0V255 C+0V253 C+0V255 C+0 B20V2 rV252 C+0V7 rV3 B20 rV3]

$$ALL
  [D+0V253 C+0V1 A+20V1 D0V253 rV4 D0 rV2 C+0 E0V254 D0V255 rV1 rV250 rV2 rV253 C0V252 rV4 B20V4 D0V254 E0V2 rV252 C21V3 rV1 r E0V255 C0 rV254 C0V1 C0V255 rV254 D+0V252 rV1 A+20V3 D0V1 C0V2 D0V254 rV254 A+20V1 C+0V255 rV254 E0V254 rV2 r rV255 r C+0V251 D0V252 rV253 rV5 rV2 C21V253 rV253 rV254 r C+0V253 C0V1 rV1 r B20 B20V255 rV255 rV255 rV251 C+0V252 r]
  [C+0 C+0V253 rV254 C0V254 C0V3 C+0 rV249 D0V1 C0V254 C0V2 A+20 C+0V2 rV254 C0V253 C21V1 C+0V3 B20V253 C+0V251 D0V255 C21V1 B20V2 C+0V2 rV254 rV2 C0V253 rV4 rV255 C21V2 rV253 E0V252 rV2 B20 C+0V2 C+0V254 C21 rV253 C21V5 rV254 r rV254 rV251 B20V3 r C21V3 C0V2 C21V255 C0V254 rV3 C0 C+0V250 rV1 r rV1 r C0V2 rV1 C0V250 rV254 C+0V2 rV1 C21V254 rV1 r rV1]

$$ALL
  [rV254 rV255 rV253 C+0V254 C+0 rV1 rV253 r C21V2 D+0V255 A+20V3 rV251 rV1 C+0V1 rV253 rV2 C0V254 D+17 A3V97 C+7 rV255 rV255 rV255 r r r r rV255 r rV255 r r r r rV255 rV255 r F0V20 E1V9 G20V244 E0 F+19V240 F+1V32 E0V244 E19V238 C+1V11 F+20V254 G1V22 B19V229 A19V244 B1V24 D0V2 A20V255 D20V235 F20V253 E3V38 G19V232 E20 C21V244 D+0V12 C+2V16 G+18V227 C21V7 B0V5]
  [rV255 r C21 D+0V255 rV2 C21V2 B20V251 D+0V253 rV3 rV254 C0V251 F+0V254 rV2 A+20V4 C21 C+0V2 D+0V77 G8V100 C13 rV8 rV255 rV255 rV255 r r r r rV255 r r rV255 rV255 rV255 r r rV255 r C3V34 D+0 F20V253 A+19V233 A20V3 F+3V35 D19V230 G20V3 A+20V244 A0V15 G1V9 A18V230 rV11 B0V6 C21V250 F+0V4 E19V237 B0V25 C1V252 D+19V235 C+1V13 D+20V249 G+1V25 F20V232 F19V241 A1V24 D0V3]

$$ALL
  [rV253 G0V6 D+19V235 F0V19 G+1V3 D+19V234 B0V14 C20V245 F+1V26 C21V237 D19V237 G1V23 C0V2 rV1 G+20V238 A+19V245 A2V39 F+20V239 B19V250 C+0V247 A20V2 A2V30 B18V226 F20 C1V4 D0V2 A0V10 D+19V232 C21V9 D+2V15 F+19V233 G0V14 C20V240 A0V22 C1V250 A+18V231 D1V22 rV255 D0V5 rV244 F19V239 C2V34 C+0V249 G+19V245 F0V252 D20V248 A+2V38 G19V229 A+19V249 D1V5 rV2 C1V14 F+19V232 F20 E2V20 D20V238 D0V11 D20V240 rV11 C+2V9 A+18V228 G+0V18 C21V252 D+0V8]
  [B20V255 F20V236 C+20V249 C+3V40 C20V235 D20V253 rV246 rV7 F+2V24 A18V226 G+20V4 B0V4 C+0 G+0V8 D+19V233 C0V14 C+2V10 E19V233 A0V14 B19V242 D1V25 E0V243 C19V234 F1V23 rV1 C0V3 B20V241 G19V241 E2V37 C21V244 A19V247 D+0V250 F20V252 B2V35 D19V227 C+20V253 C+1V4 C+0V3 A+0V12 E19V232 G+20V4 E2V19 A+19V235 F0V13 C+20V240 E0V17 G1V1 A+18V229 B0V20 C21V253 D+0V7 D0V247 E19V237 G1V30 F+0V254 G+19V243 F+0V254 C20V244 G2V38 C+20V233 G19V246 D1V6 rV1 D1V16]

$$ALL
  [F0V250 E19V235 D1V26 G+0V2 A19V242 G0 B19V242 D2V36 G20V238 F19V243 D1V7 B20V255 D+1V18 B19V235 B19V249 B1V19 B20V245 rV8 F+20V243 F+20V1 F+2V20 D+19V229 D0V13 rV251 C+0V7 A+0 F19V234 G0V18 A+0V7 C+20V243 F+0V2 C20V240 D+1V29 D+0V249 D+19V238 C+1V8 G+20V250 E1V21 F20V240 A19V244 F1V15 C+0V253 C21V4 A+20V247 C+20V249 E2V23 C20V235 C21V8 rV252 C21V3 D+1V6 A19V236 C+0V11 G0V7 G+20V247 E0V1 D+20V242 F0V18 B0V4 F19V237 A0V7 G+20V247 G0V12 D1V20]
  [G+19V233 D20V252 D2V20 F+20V241 C0V10 E20V242 A+20V6 F2V15 C19V228 F0V16 C21V251 D+0V8 G0V253 E19V234 A+0V22 A+0V5 B19V242 G0V1 B19V241 A1V33 rV243 D+19V240 D1V8 A20V252 E1V20 C+20V237 A+19V246 G+1V17 rV249 rV6 G+20V245 D+20V252 F+2V22 G19V232 rV10 rV251 rV5 C+1V3 G19V235 D+0V15 A0V7 E20V245 F0V2 D20V241 A+0V23 G+0V255 D+19V237 B0V8 G+20V248 D+1V21 G+20V243 A19V243 D1V12 D0V255 C21V4 B20V249 C+20V246 C2V22 F20V239 A+20V5 C0V253 A20 A0V8 F1V6]

$$ALL
  [C20V233 G+20V249 A+0V19 A0V3 G19V235 D20V253 D3V27 F+19V228 E20V5 B1V14 E19V237 A+0V8 A+0V5 B19V246 A20V254 G1V21 A+20V242 G19V237 D1V31 A0V255 A+18V229 D+1V22 rV242 G+20V4 F0V8 B20V244 G20V246 C+0V8 G+1V15 G+19V237 C20V246 G+2V27 E20V238 D20V254 G+1V20 F19V234 G+0V8 A+0V10 D+20V246 E20V249 C1V20 D0V246 A+19V239 D0V16 C+1V6 G19V235 F0V10 G+0V252 D20V254 E0V7 F0V255 E20V243 B20 C2V25 A+19V238 C+20V245 G+1V20 C21V247 E20V252 B0V16 B19V235 E0V5 G+0V10 B20V250]
  [G+19V244 A+20V1 A+1V20 G20V241 F19V236 A+1V38 F+0V251 F+18V227 A+1V28 G+20V238 B20V7 F+0V10 F20V239 A20V249 F0V12 D1V9 G19V236 C20V249 C3V28 C20V233 D20V1 B1V18 E19V235 A0V8 A+0V9 C20V245 G20V251 E1V21 rV243 A19V238 G0V23 C1V3 D19V231 A0V16 D+0V246 F20V2 F0V7 C+0V249 F20V244 rV4 B1V21 A19V238 C20V245 D2V25 A20V243 D20V252 E1V19 G19V233 F+0V7 A0V11 G20V247 D20V246 G+0V16 G+0V250 B19V241 rV10 C+1V8 B19V239 D0V5 A+0V1 C20V251 E0V6 G0V4 E20V242]

$$ALL
  [C20V244 E0V12 D1V255 C20V242 C21V6 B0V8 E20V243 C+0V2 B0V5 B19V248 D+0V6 A0V7 F+20V241 F+20V250 A1V28 D+20V241 E20V246 G+0V10 C+0V254 A+20V255 C0V7 G20V240 rV1 G0V9 E0V1 A19V240 C21V3 B1V11 D+20V245 B20V1 D+0V5 B20V251 D0V255 G+0V8 B19V245 rV4 A0V11 B20V244 D+20V246 C1V24 C21V247 F+20V248 C+0 C+0 C+0V5 A+20V254 rV248 A20V251 F+0V9 B0V10 G+19V238 F20V250 D2V19 G20V248 B20V255 A+20V253 rV1 G0V2 D0V5 D+20V246 A20V255 A0V12 E0V250 C20V243]
  [G+20V253 C2V27 C20V239 D+20V245 D1V15 rV251 G20V253 F0V12 D+20V237 C+0V3 G0V9 C0V253 A+19V242 rV8 G1V5 C+20V244 B20V3 G+0V7 G+20V248 C+0 B0V7 A+19V246 D0V5 A0V9 G+20V242 E20V248 F1V27 G20V244 F20V247 E0V5 C+0V255 rV2 rV3 B20V244 B20V254 G0V9 G+0V6 G+19V239 G+20V254 C+2V15 F20V246 B20 rV1 rV255 E0 F0V7 C+20V245 rV2 A0V11 rV247 C+20V244 F+0V19 C+0V251 G+20V250 rV253 r E0V9 A20V251 C0V251 G+20V249 F0V8 C+1V13 A19V237 D+20V247]

$$ALL
  [C+0V14 F0V255 A20V251 rV251 rV255 F+0V11 A20V249 C+0V253 G+20V248 D+0V8 D1V16 B19V237 D20V244 A1V22 rV253 C21V255 D+20V245 rV2 D1V9 B20 G+20V249 E20V247 G+0V11 C+1V4 A+19V241 G20V2 C1V6 rV254 rV251 F+20V251 G+0V15 rV248 C0 A+20V249 C21V3 D+1V20 F+20V240 C20V241 C1V19 D+0V3 r C20V239 B20V255 G+1V18 F+20V251 C21V252 C+20V241 F+0V10 A1V14 A+19V240 C+20V248 D1V11 D+0V3 C0V253 C20V246 E0V14 F0V252 r rV252 D+20V251 D1V20 rV245 B19V240 C+0V10]
  [C2V22 A+20V251 C21V255 F+20V249 rV2 B0V5 rV3 F+20V247 F+20V251 A0V12 G+0V255 B19V242 C21V8 A0V2 B20V252 rV251 A+20V253 G+0V14 A+20V247 C+0V255 A20V248 C0V6 D+1V18 D20V238 C20V242 F1V21 C0 r C+20V242 rV1 F+1V13 G+20V253 A+20V250 D20V244 G+0V11 F1V9 A+19V240 E20V253 D1V9 C0 rV251 D+20V248 G0V15 C+0V249 r B20V250 G20 D+1V20 A+20V242 B19V240 F+0V15 F0V5 C0V1 C20V237 A20V253 A+1V21 F+20V249 rV253 D20V239 D+0V9 B1V19 A+19V240 B19V244 C+1V11]

$$ALL
  [G0V8 D0V2 C+20V236 G20V251 A+1V24 F+20V247 rV254 E20V239 C0V6 C+2V23 C20V240 A+19V242 A+0V11 G+0V8 D+0V1 F+19V240 rV7 D+1V5 A+20V254 rV255 A19V242 A+0V18 B0V254 C20V240 G+20V1 G+0V9 G0V6 F+20V237 E20V248 F1V25 A+20V248 C0V1 A20V242 G20V255 D2V30 E20V242 A+19V239 D+0V6 B0V13 F+0V5 D19V234 A20V255 A+1V14 G+20V252 C+0V1 G19V237 E0V12 B1V10 D20V242 D20V249 E0V7 C+1V12 rV243 B19V246 G0V19 D0V252 rV2 rV247 B19V246 G+1V30 B20V245 C+20V240 C21V255 A0V13]
  [F+0V6 D0V255 A19V243 C+0V11 A+0 C21V255 rV254 B19V246 C1V19 F0V249 C20V240 C21V5 G+0V9 E0V4 D+20V236 F+20V249 A1V26 G+20V247 r F+20V240 C21V3 D2V27 D20V241 A+19V240 G0V9 A+0V11 E0V3 E19V237 B20V3 G1V9 A20V253 C0 G19V239 G0V15 F1V4 C+20V241 E20V252 F+0V9 A+0V9 A20V240 D20V247 C+1V23 rV249 rV2 B20V245 D+20V250 C2V31 G20V243 B19V239 rV2 A+0V13 G+0V8 D19V232 G+20V252 B1V18 G+20V251 D0V3 A19V236 rV8 E2V17 D20V243 C+20V246 C+0V5 D1V14]

$$ALL
  [B0V10 D+19V230 G+20V251 A+1V20 A20V250 D+0V4 A+19V236 B20V3 G2V23 D+20V244 C20V244 rV1 D+1V16 F0V252 F+19V241 rV8 A0V2 rV1 C+0V252 G+19V240 A+0V22 G0V252 E20V244 G+20V250 E0V9 E1V16 A+19V231 F+20V250 D+1V19 rV252 E0V7 D20V237 E20V251 F+2V31 F20V245 D+20V244 G20V250 C1V17 C+1V6 C+19V235 B20 C1V7 r F+0V2 G19V238 C0V10 G+1V7 F+20V248 F+20V248 C21V3 F+1V20 G+20V237 D20V249 F+0V13 D0 D+0V7 G20V240 D20V247 G1V28 C21V247 G+20V247 D+20V243 G0V13 G+1V16]
  [C+0V247 A19V244 D0V14 F+0V255 rV2 rV250 A19V243 E1V27 C+0V248 D+20V242 A+20V252 G0V12 C+1V13 F+19V230 G20V250 G1V20 B20V251 E0V6 C20V237 G20V255 G+2V28 E20V245 C+20V244 A+20V253 D1V17 A0V1 D+19V238 C21V3 B0V5 C21 E0V255 G19V239 F0V16 D1V1 F+20V246 F+20V249 C0V6 F+1V18 D+20V233 F20V250 A+0V16 C0V254 D+0V7 E20V238 D+20V248 C+2V31 G+20V246 F20V245 F20V246 A+0V15 F1V12 C+19V233 C21V254 B0V8 r G+0V5 G19V238 rV5 C2V13 F+20V249 F+20V248 G+20V255 F+1V21 rV242]

$$ALL
  [D19V231 C21V254 A0V7 C0V1 A0V8 G19V237 A+20 C+2V18 G20V249 G+20V249 D+20V251 E1V20 F0V248 G+19V245 C0V5 D0V3 D0V5 rV245 C+20V246 G0V17 F+0V255 B20V252 E20V241 C+0V7 A1V22 G+19V232 B20V255 E0V4 D+0V4 G0V10 G19V235 A20V253 G+1V20 A+20V250 C21V252 A19V242 B0V15 E1V5 F19V239 C0V2 rV1 F0V5 F+0V253 A+19V244 C0V6 C+1V8 A+20V253 A20V244 A20V1 F1V21 G+20V240 F+20V253 C0V255 E0V8 F+0V9 C+20V236 A20V253 A+0V14 D+0V255 rV255 G+19V236 F+0V11 G+1V15 A19V238]
  [B19V247 D0V9 D0V2 D0V6 B20V242 C+20V246 C+1V23 C+0V250 A+20V250 D+20V241 E0V10 A1V20 E19V231 C21V255 G0V6 D0V2 G+0V10 G19V236 A20V254 C2V21 G+20V249 A+20V250 B19V246 C+1V18 B0V255 F+19V242 C0V3 C+0V3 D+0V5 D+0V249 C20V245 D0V11 A+0V4 B20V253 F+20V242 rV5 G+1V23 C+20V235 G+20V254 D0V1 E0V6 F+0V10 A+19V235 A20V253 D+1V18 rV252 rV254 G19V238 G+0V13 G1V11 F+19V238 C0V2 C21V255 G0V7 G0V1 A19V242 rV3 C1V11 B20V252 C21V247 F20V254 D1V19 rV245 D+20V250]
